;Generated with Cura_SteamEngine 14.09
; Default start code
G28 ; Home extruder
G1 Z15 F100
M107 ; Turn off fan
G90 ; Absolute positioning
M82 ; Extruder in absolute mode
M190 S50
; Activate all used extruder
M104 T0 S210
G92 E0 ; Reset extruder position
; Wait for all used extruders to reach temperature
M109 T0 S210
;Layer count: 43
;LAYER:0
M107
G0 F9000 X131.286 Y89.586 Z0.300
;TYPE:SKIRT
G1 F1800 X137.936 Y88.615 E0.33529
G1 X139.553 Y96.066 E0.71567
G1 X140.450 Y100.210 E0.92721
G1 X141.216 Y103.725 E1.10669
G1 X142.018 Y108.313 E1.33905
G1 X142.350 Y110.224 E1.43582
G1 X144.370 Y121.513 E2.00798
G1 X144.896 Y124.697 E2.16898
G1 X144.866 Y125.575 E2.21281
G1 X144.475 Y127.293 E2.30071
G1 X143.333 Y128.811 E2.39548
G1 X140.918 Y130.092 E2.53187
G1 X138.181 Y129.717 E2.66969
G1 X136.514 Y128.586 E2.77020
G1 X135.610 Y127.117 E2.85625
G1 X135.275 Y126.158 E2.90693
G1 X134.651 Y121.651 E3.13393
G1 X133.404 Y111.579 E3.64026
G1 X132.331 Y103.212 E4.06111
G1 X131.867 Y97.193 E4.36229
G1 X131.286 Y89.586 E4.74291
G0 F9000 X131.713 Y89.928
G1 F1800 X137.624 Y89.065 E5.04094
G1 X139.162 Y96.151 E5.40269
G1 X140.060 Y100.296 E5.61428
G1 X140.824 Y103.802 E5.79330
G1 X141.624 Y108.382 E6.02526
G1 X141.956 Y110.294 E6.12208
G1 X143.976 Y121.581 E6.69414
G1 X144.495 Y124.723 E6.85302
G1 X144.468 Y125.524 E6.89300
G1 X144.104 Y127.121 E6.97472
G1 X143.067 Y128.499 E7.06076
G1 X140.844 Y129.679 E7.18632
G1 X138.328 Y129.334 E7.31302
G1 X136.810 Y128.303 E7.40457
G1 X135.973 Y126.945 E7.48415
G1 X135.666 Y126.064 E7.53070
G1 X135.048 Y121.599 E7.75558
G1 X133.801 Y111.530 E8.26177
G1 X132.729 Y103.171 E8.68221
G1 X132.265 Y97.163 E8.98285
G1 X131.713 Y89.928 E9.34485
G1 F2400 E5.34485
G0 F9000 X136.398 Y101.324
;TYPE:WALL-INNER
G1 F2400 E9.34485
G1 F1800 X137.092 Y104.521 E9.50806
G1 X138.215 Y110.962 E9.83425
G1 X140.230 Y122.222 E10.40494
G1 X140.684 Y124.970 E10.54390
G1 X140.682 Y125.036 E10.54719
G1 X140.579 Y125.485 E10.57018
G1 X140.539 Y125.539 E10.57353
G1 X140.145 Y125.748 E10.59578
G1 X139.726 Y125.690 E10.61688
G1 X139.619 Y125.618 E10.62332
G1 X139.424 Y125.300 E10.64193
G1 X139.378 Y125.169 E10.64885
G1 X138.815 Y121.101 E10.85374
G1 X137.572 Y111.062 E11.35841
G1 X136.510 Y102.782 E11.77489
G1 X136.398 Y101.324 E11.84784
G0 F9000 X136.411 Y102.791
G0 X136.111 Y102.819
;TYPE:WALL-OUTER
G1 F1800 X135.552 Y95.545 E12.21182
G1 X137.486 Y104.452 E12.66654
G1 X140.625 Y122.157 E13.56362
G1 X141.085 Y124.943 E13.70450
G1 X141.081 Y125.086 E13.71164
G1 X140.951 Y125.657 E13.74085
G1 X140.806 Y125.849 E13.75286
G1 X140.218 Y126.161 E13.78607
G1 X139.578 Y126.073 E13.81830
G1 X139.323 Y125.901 E13.83364
G1 X139.062 Y125.477 E13.85848
G1 X138.987 Y125.261 E13.86989
G1 X138.419 Y121.156 E14.07664
G1 X136.111 Y102.819 E14.99869
G0 F9000 X136.411 Y102.791
G0 X137.005 Y105.609
;TYPE:FILL
G1 F1800 X137.129 Y106.017 E15.01034
G1 X137.231 Y106.684 E15.02456
G1 X137.333 Y107.351 E15.04140
G1 X137.435 Y108.019 E15.06087
G1 X137.536 Y108.686 E15.08299
G1 X137.639 Y109.354 E15.10778
G1 X137.740 Y110.022 E15.13516
G1 X137.842 Y110.690 E15.16517
G1 X137.944 Y111.357 E15.19774
G1 X138.046 Y112.025 E15.23288
G1 X138.375 Y112.636 E15.26751
G0 F9000 X137.922 Y112.749
G1 F1800 X138.496 Y113.323 E15.30800
G0 F9000 X138.006 Y113.398
G1 F1800 X138.616 Y114.008 E15.35104
G0 F9000 X138.089 Y114.047
G1 F1800 X138.737 Y114.695 E15.39676
G0 F9000 X138.172 Y114.696
G1 F1800 X138.857 Y115.381 E15.44509
G0 F9000 X138.255 Y115.345
G1 F1800 X138.977 Y116.067 E15.49603
G0 F9000 X138.339 Y115.994
G1 F1800 X139.098 Y116.753 E15.54959
G0 F9000 X138.422 Y116.643
G1 F1800 X139.218 Y117.439 E15.60575
G0 F9000 X138.505 Y117.292
G1 F1800 X139.338 Y118.125 E15.66452
G0 F9000 X138.589 Y117.941
G1 F1800 X139.459 Y118.812 E15.72594
G0 F9000 X138.672 Y118.590
G1 F1800 X139.580 Y119.498 E15.79000
G0 F9000 X138.756 Y119.240
G1 F1800 X139.700 Y120.184 E15.85661
G0 F9000 X138.839 Y119.889
G1 F1800 X139.821 Y120.870 E15.92586
G0 F9000 X138.923 Y120.538
G1 F1800 X139.941 Y121.556 E15.99768
G0 F9000 X139.006 Y121.187
G1 F1800 X140.062 Y122.243 E16.07219
G0 F9000 X139.090 Y121.836
G1 F1800 X140.182 Y122.929 E16.14927
G0 F9000 X139.172 Y122.485
G1 F1800 X140.302 Y123.614 E16.22896
G0 F9000 X139.256 Y123.134
G1 F1800 X140.423 Y124.301 E16.31130
G0 F9000 X139.339 Y123.783
G1 F1800 X140.542 Y124.986 E16.39618
G0 F9000 X139.423 Y124.432
G1 F1800 X140.427 Y125.437 E16.46705
G0 F9000 X139.506 Y125.081
G1 F1800 X140.014 Y125.589 E16.50290
;LAYER:1
M106 S63
G0 F9000 X138.872 Y125.246 Z0.500
;TYPE:WALL-INNER
G1 F2520 X138.431 Y122.060 E16.60987
G1 X136.949 Y111.150 E16.97607
G1 X135.966 Y104.074 E17.21368
G1 X131.916 Y72.581 E18.26977
G1 X131.811 Y71.205 E18.31567
G1 X132.521 Y74.472 E18.42687
G1 X138.268 Y107.413 E19.53904
G1 X138.837 Y110.863 E19.65533
G1 X139.648 Y115.699 E19.81843
G1 X141.166 Y124.888 E20.12820
G1 X141.126 Y125.510 E20.14893
G1 X141.107 Y125.553 E20.15049
G1 X140.716 Y126.074 E20.17216
G1 X140.698 Y126.088 E20.17291
G1 X140.228 Y126.257 E20.18953
G1 X139.736 Y126.250 E20.20589
G1 X139.664 Y126.225 E20.20843
G1 X139.211 Y125.920 E20.22659
G1 X139.106 Y125.803 E20.23182
G1 X138.885 Y125.285 E20.25055
G1 X138.872 Y125.246 E20.25192
G0 F9000 X138.481 Y125.343
;TYPE:WALL-OUTER
G1 F1980 X135.570 Y104.130 E20.96408
G1 X131.517 Y72.620 E22.02074
G1 X130.976 Y65.473 E22.25913
G1 X132.915 Y74.403 E22.56306
G1 X138.663 Y107.348 E23.67537
G1 X141.568 Y124.865 E24.26595
G1 X141.520 Y125.608 E24.29071
G1 X141.455 Y125.756 E24.29609
G1 X141.003 Y126.358 E24.32112
G1 X140.891 Y126.444 E24.32582
G1 X140.296 Y126.658 E24.34685
G1 X139.666 Y126.649 E24.36781
G1 X139.486 Y126.588 E24.37413
G1 X138.942 Y126.221 E24.39595
G1 X138.765 Y126.023 E24.40479
G1 X138.512 Y125.429 E24.42626
G1 X138.481 Y125.343 E24.42930
G0 F9000 X139.077 Y125.380
;TYPE:FILL
G1 F2520 X140.810 Y123.647 E24.51082
G0 F9000 X140.893 Y124.130
G1 F2520 X139.259 Y125.764 E24.58768
G0 F9000 X139.585 Y126.003
G1 F2520 X140.975 Y124.613 E24.65306
G0 F9000 X140.041 Y126.113
G1 F2520 X141.007 Y125.147 E24.69849
G0 F9000 X138.969 Y124.923
G1 F2520 X140.727 Y123.164 E24.78121
G0 F9000 X140.644 Y122.681
G1 F2520 X138.903 Y124.423 E24.86312
G0 F9000 X138.836 Y123.923
G1 F2520 X140.562 Y122.198 E24.94429
G0 F9000 X140.478 Y121.716
G1 F2520 X138.771 Y123.424 E25.02460
G0 F9000 X138.704 Y122.924
G1 F2520 X140.396 Y121.233 E25.10416
G0 F9000 X140.313 Y120.750
G1 F2520 X138.638 Y122.424 E25.18293
G0 F9000 X138.572 Y121.925
G1 F2520 X140.230 Y120.267 E25.26092
G0 F9000 X140.147 Y119.784
G1 F2520 X138.506 Y121.425 E25.33810
G0 F9000 X138.440 Y120.925
G1 F2520 X140.065 Y119.301 E25.41451
G0 F9000 X138.374 Y120.426
G1 F2520 X139.982 Y118.818 E25.49015
G0 F9000 X138.308 Y119.926
G1 F2520 X139.899 Y118.335 E25.56499
G0 F9000 X138.242 Y119.427
G1 F2520 X139.816 Y117.852 E25.63905
G0 F9000 X138.176 Y118.927
G1 F2520 X139.734 Y117.369 E25.71233
G0 F9000 X138.109 Y118.428
G1 F2520 X139.651 Y116.886 E25.78486
G0 F9000 X138.044 Y117.928
G1 F2520 X139.568 Y116.403 E25.85657
G0 F9000 X137.978 Y117.428
G1 F2520 X139.486 Y115.920 E25.92750
G0 F9000 X137.911 Y116.929
G1 F2520 X139.403 Y115.438 E25.99765
G0 F9000 X137.846 Y116.429
G1 F2520 X139.320 Y114.955 E26.06699
G0 F9000 X137.779 Y115.930
G1 F2520 X139.237 Y114.472 E26.13557
G0 F9000 X137.713 Y115.430
G1 F2520 X139.154 Y113.989 E26.20335
G0 F9000 X137.647 Y114.931
G1 F2520 X139.071 Y113.506 E26.27035
G0 F9000 X137.581 Y114.431
G1 F2520 X138.988 Y113.023 E26.33656
G0 F9000 X137.515 Y113.931
G1 F2520 X138.906 Y112.540 E26.40198
G0 F9000 X137.449 Y113.431
G1 F2520 X138.823 Y112.058 E26.46659
G0 F9000 X137.383 Y112.932
G1 F2520 X138.740 Y111.575 E26.53042
G0 F9000 X137.317 Y112.432
G1 F2520 X138.657 Y111.092 E26.59345
G0 F9000 X137.251 Y111.932
G1 F2520 X138.575 Y110.609 E26.65570
G0 F9000 X137.185 Y111.433
G1 F2520 X138.492 Y110.126 E26.71718
G0 F9000 X137.119 Y110.933
G1 F2520 X138.409 Y109.643 E26.77786
G0 F9000 X137.052 Y110.434
G1 F2520 X138.327 Y109.160 E26.83781
G0 F9000 X136.987 Y109.934
G1 F2520 X138.244 Y108.677 E26.89693
G0 F9000 X136.921 Y109.434
G1 F2520 X138.161 Y108.194 E26.95526
G0 F9000 X136.854 Y108.935
G1 F2520 X138.078 Y107.711 E27.01283
G0 F9000 X136.789 Y108.435
G1 F2520 X137.995 Y107.229 E27.06956
G0 F9000 X136.722 Y107.936
G1 F2520 X137.912 Y106.746 E27.12553
G0 F9000 X136.656 Y107.436
G1 F2520 X137.829 Y106.263 E27.18070
G0 F9000 X136.590 Y106.937
G1 F2520 X137.747 Y105.780 E27.23513
G0 F9000 X136.524 Y106.437
G1 F2520 X137.664 Y105.297 E27.28875
G0 F9000 X136.458 Y105.938
G1 F2520 X137.581 Y104.814 E27.34159
G0 F9000 X136.392 Y105.438
G1 F2520 X137.499 Y104.331 E27.39366
G0 F9000 X136.326 Y104.938
G1 F2520 X137.416 Y103.848 E27.44493
G0 F9000 X136.260 Y104.438
G1 F2520 X137.333 Y103.365 E27.49540
G0 F9000 X136.194 Y103.939
G1 F2520 X137.250 Y102.882 E27.54510
G0 F9000 X136.127 Y103.439
G1 F2520 X137.168 Y102.399 E27.59404
G0 F9000 X136.062 Y102.939
G1 F2520 X137.085 Y101.916 E27.64216
G0 F9000 X135.995 Y102.440
G1 F2520 X137.002 Y101.433 E27.68953
G0 F9000 X135.929 Y101.940
G1 F2520 X136.919 Y100.950 E27.73609
G0 F9000 X135.864 Y101.440
G1 F2520 X136.836 Y100.468 E27.78181
G0 F9000 X135.797 Y100.941
G1 F2520 X136.753 Y99.985 E27.82678
G0 F9000 X135.731 Y100.441
G1 F2520 X136.671 Y99.502 E27.87097
G0 F9000 X135.665 Y99.942
G1 F2520 X136.588 Y99.019 E27.91439
G0 F9000 X135.599 Y99.442
G1 F2520 X136.505 Y98.536 E27.95700
G0 F9000 X135.533 Y98.943
G1 F2520 X136.422 Y98.053 E27.99884
G0 F9000 X135.467 Y98.443
G1 F2520 X136.340 Y97.570 E28.03990
G0 F9000 X135.401 Y97.944
G1 F2520 X136.257 Y97.087 E28.08019
G0 F9000 X135.335 Y97.444
G1 F2520 X136.174 Y96.604 E28.11968
G0 F9000 X135.269 Y96.944
G1 F2520 X136.091 Y96.121 E28.15837
G0 F9000 X135.203 Y96.445
G1 F2520 X136.009 Y95.639 E28.19628
G0 F9000 X135.137 Y95.945
G1 F2520 X135.926 Y95.156 E28.23339
G0 F9000 X135.070 Y95.445
G1 F2520 X135.843 Y94.673 E28.26973
G0 F9000 X135.005 Y94.946
G1 F2520 X135.760 Y94.190 E28.30526
G0 F9000 X134.938 Y94.446
G1 F2520 X135.678 Y93.707 E28.34005
G0 F9000 X134.872 Y93.946
G1 F2520 X135.594 Y93.224 E28.37401
G0 F9000 X134.807 Y93.446
G1 F2520 X135.512 Y92.742 E28.40715
G0 F9000 X134.740 Y92.947
G1 F2520 X135.429 Y92.259 E28.43953
G0 F9000 X134.674 Y92.447
G1 F2520 X135.346 Y91.776 E28.47112
G0 F9000 X134.608 Y91.948
G1 F2520 X135.263 Y91.293 E28.50192
G0 F9000 X134.542 Y91.448
G1 F2520 X135.181 Y90.810 E28.53196
G0 F9000 X134.476 Y90.949
G1 F2520 X135.098 Y90.327 E28.56121
G0 F9000 X134.410 Y90.449
G1 F2520 X135.015 Y89.844 E28.58967
G0 F9000 X134.343 Y89.950
G1 F2520 X134.932 Y89.361 E28.61738
G0 F9000 X134.278 Y89.450
G1 F2520 X134.850 Y88.878 E28.64428
G0 F9000 X134.212 Y88.950
G1 F2520 X134.456 Y88.423 E28.67036
G1 X134.382 Y87.931 E28.69572
G1 X134.307 Y87.440 E28.72029
G1 X134.233 Y86.949 E28.74407
G1 X134.158 Y86.457 E28.76708
G1 X134.084 Y85.967 E28.78925
G1 X134.009 Y85.475 E28.81065
G1 X133.935 Y84.984 E28.83125
G1 X133.860 Y84.493 E28.85103
G1 X133.786 Y84.001 E28.87006
G1 X133.712 Y83.510 E28.88827
G1 X133.637 Y83.019 E28.90570
G1 X133.563 Y82.527 E28.92237
G1 X133.488 Y82.036 E28.93827
G1 X133.414 Y81.545 E28.95338
G1 X133.340 Y81.053 E28.96770
G1 X133.265 Y80.562 E28.98124
G1 X133.191 Y80.071 E28.99400
G1 X133.116 Y79.580 E29.00594
G1 X133.042 Y79.089 E29.01708
G1 X132.967 Y78.598 E29.02745
G1 X132.893 Y78.106 E29.03705
G1 X132.818 Y77.615 E29.04585
G1 X132.744 Y77.124 E29.05386
G1 X132.670 Y76.632 E29.06110
G1 X132.595 Y76.141 E29.06754
G1 X132.521 Y75.650 E29.07319
G1 X132.532 Y75.357 E29.08295
;LAYER:2
M106 S127
G0 F9000 X131.396 Y74.026 Z0.700
;TYPE:WALL-INNER
G1 F3300 X127.345 Y42.531 E30.13910
G1 X127.240 Y41.160 E30.18484
G1 X127.950 Y44.423 E30.29590
G1 X133.697 Y77.364 E31.40808
G1 X134.382 Y81.511 E31.54787
G1 X139.213 Y110.807 E32.53542
G1 X140.292 Y117.239 E32.75234
G1 X141.511 Y124.859 E33.00901
G1 X141.521 Y125.271 E33.02271
G1 X141.505 Y125.451 E33.02872
G1 X141.302 Y125.912 E33.04548
G1 X141.223 Y126.089 E33.05192
G1 X140.719 Y126.477 E33.07308
G1 X140.282 Y126.633 E33.08851
G1 X139.830 Y126.627 E33.10355
G1 X139.244 Y126.428 E33.12413
G1 X139.195 Y126.397 E33.12606
G1 X138.712 Y125.861 E33.15006
G1 X138.549 Y125.315 E33.16901
G1 X137.213 Y116.028 E33.48108
G1 X136.557 Y111.211 E33.64277
G1 X131.396 Y74.026 E34.89140
G0 F9000 X131.000 Y74.081
;TYPE:WALL-OUTER
G1 F2220 X126.946 Y42.570 E35.94810
G1 X126.785 Y40.451 E36.01878
G1 X126.227 Y34.255 E36.22570
G1 X127.472 Y40.344 E36.43241
G1 X128.344 Y44.354 E36.56890
G1 X134.092 Y77.299 E37.68120
G1 X140.687 Y117.172 E39.02540
G1 X141.910 Y124.824 E39.28314
G1 X141.922 Y125.289 E39.29861
G1 X141.898 Y125.550 E39.30733
G1 X141.564 Y126.306 E39.33482
G1 X141.505 Y126.377 E39.33789
G1 X140.912 Y126.834 E39.36279
G1 X140.417 Y127.010 E39.38026
G1 X140.349 Y127.034 E39.38266
G1 X139.760 Y127.026 E39.40225
G1 X139.072 Y126.792 E39.42642
G1 X138.934 Y126.705 E39.43185
G1 X138.371 Y126.081 E39.45980
G1 X138.312 Y125.943 E39.46479
G1 X138.157 Y125.399 E39.48361
G1 X136.817 Y116.085 E39.79658
G1 X131.000 Y74.081 E41.20697
G0 F9000 X131.692 Y73.709
;TYPE:FILL
G1 F3300 X132.962 Y74.980 E41.26674
G0 F9000 X131.780 Y74.363
G1 F3300 X133.077 Y75.660 E41.32774
G0 F9000 X131.869 Y75.018
G1 F3300 X133.192 Y76.340 E41.38995
G0 F9000 X131.958 Y75.672
G1 F3300 X133.306 Y77.020 E41.45335
G0 F9000 X132.047 Y76.327
G1 F3300 X133.421 Y77.701 E41.51798
G0 F9000 X132.135 Y76.981
G1 F3300 X133.535 Y78.381 E41.58383
G0 F9000 X132.224 Y77.636
G1 F3300 X133.650 Y79.061 E41.65089
G0 F9000 X132.313 Y78.290
G1 F3300 X133.765 Y79.742 E41.71918
G0 F9000 X132.402 Y78.944
G1 F3300 X133.880 Y80.422 E41.78870
G0 F9000 X132.490 Y79.599
G1 F3300 X133.994 Y81.103 E41.85945
G0 F9000 X132.579 Y80.253
G1 F3300 X134.109 Y81.783 E41.93141
G0 F9000 X132.668 Y80.907
G1 F3300 X134.223 Y82.463 E42.00458
G0 F9000 X132.757 Y81.562
G1 F3300 X134.338 Y83.143 E42.07895
G0 F9000 X132.845 Y82.216
G1 F3300 X134.453 Y83.824 E42.15458
G0 F9000 X132.934 Y82.871
G1 F3300 X134.568 Y84.504 E42.23142
G0 F9000 X133.023 Y83.525
G1 F3300 X134.682 Y85.185 E42.30947
G0 F9000 X133.112 Y84.180
G1 F3300 X134.797 Y85.865 E42.38873
G0 F9000 X133.200 Y84.834
G1 F3300 X134.911 Y86.545 E42.46921
G0 F9000 X133.289 Y85.489
G1 F3300 X135.026 Y87.225 E42.55089
G0 F9000 X133.378 Y86.143
G1 F3300 X135.141 Y87.906 E42.63382
G0 F9000 X133.467 Y86.798
G1 F3300 X135.256 Y88.587 E42.71797
G0 F9000 X133.555 Y87.452
G1 F3300 X135.370 Y89.267 E42.80334
G0 F9000 X133.644 Y88.106
G1 F3300 X135.485 Y89.947 E42.88993
G0 F9000 X135.599 Y90.627
G1 F3300 X133.732 Y88.760 E42.97775
G0 F9000 X133.822 Y89.415
G1 F3300 X135.714 Y91.307 E43.06674
G0 F9000 X135.829 Y91.988
G1 F3300 X133.910 Y90.069 E43.15701
G0 F9000 X133.999 Y90.724
G1 F3300 X135.944 Y92.669 E43.24850
G0 F9000 X136.058 Y93.349
G1 F3300 X134.087 Y91.378 E43.34121
G0 F9000 X134.177 Y92.033
G1 F3300 X136.173 Y94.029 E43.43509
G0 F9000 X136.287 Y94.709
G1 F3300 X134.265 Y92.687 E43.53020
G0 F9000 X134.354 Y93.342
G1 F3300 X136.402 Y95.390 E43.62653
G0 F9000 X136.517 Y96.071
G1 F3300 X134.442 Y93.996 E43.72413
G0 F9000 X134.532 Y94.651
G1 F3300 X136.632 Y96.751 E43.82291
G0 F9000 X136.746 Y97.431
G1 F3300 X134.620 Y95.305 E43.92291
G0 F9000 X134.709 Y95.960
G1 F3300 X136.861 Y98.111 E44.02411
G0 F9000 X136.975 Y98.792
G1 F3300 X134.797 Y96.614 E44.12656
G0 F9000 X134.886 Y97.268
G1 F3300 X137.090 Y99.472 E44.23023
G0 F9000 X137.205 Y100.153
G1 F3300 X134.975 Y97.922 E44.33514
G0 F9000 X135.063 Y98.577
G1 F3300 X137.320 Y100.833 E44.44128
G0 F9000 X137.434 Y101.513
G1 F3300 X135.152 Y99.231 E44.54862
G0 F9000 X135.241 Y99.885
G1 F3300 X137.549 Y102.193 E44.65718
G0 F9000 X137.663 Y102.874
G1 F3300 X135.330 Y100.540 E44.76694
G0 F9000 X135.418 Y101.194
G1 F3300 X137.778 Y103.554 E44.87795
G0 F9000 X137.893 Y104.235
G1 F3300 X135.507 Y101.849 E44.99018
G0 F9000 X135.596 Y102.503
G1 F3300 X138.008 Y104.915 E45.10363
G0 F9000 X138.122 Y105.595
G1 F3300 X135.685 Y103.158 E45.21826
G0 F9000 X135.773 Y103.812
G1 F3300 X138.237 Y106.276 E45.33416
G0 F9000 X138.351 Y106.956
G1 F3300 X135.862 Y104.467 E45.45124
G0 F9000 X135.951 Y105.121
