;Generated with Cura_SteamEngine 14.09
; Default start code
G28 ; Home extruder
G1 Z15 F100
M107 ; Turn off fan
G90 ; Absolute positioning
M82 ; Extruder in absolute mode
M190 S50
; Activate all used extruder
M104 T0 S210
G92 E0 ; Reset extruder position
; Wait for all used extruders to reach temperature
M109 T0 S210
;Layer count: 20
;LAYER:0
M107
G0 F9000 X9.300 Y9.300 Z0.300
;TYPE:SKIRT
G1 F1800 X95.700 Y9.300 E4.31051
G1 X95.700 Y70.599 E7.36873
G1 X97.610 Y69.167 E7.48783
G1 X99.079 Y67.364 E7.60386
G1 X100.930 Y65.152 E7.74776
G1 X102.815 Y62.968 E7.89169
G1 X104.729 Y60.812 E8.03552
G1 X106.675 Y58.682 E8.17946
G1 X108.650 Y56.581 E8.32332
G1 X110.656 Y54.506 E8.46731
G1 X112.692 Y52.462 E8.61124
G1 X114.756 Y50.449 E8.75508
G1 X116.848 Y48.464 E8.89896
G1 X118.971 Y46.508 E9.04298
G1 X121.121 Y44.583 E9.18695
G1 X123.296 Y42.692 E9.33074
G1 X125.500 Y40.829 E9.47472
G1 X127.731 Y38.999 E9.61868
G1 X129.985 Y37.201 E9.76253
G1 X132.267 Y35.436 E9.90646
G1 X134.574 Y33.703 E10.05041
G1 X136.905 Y32.005 E10.19429
G1 X139.260 Y30.338 E10.33823
G1 X141.639 Y28.707 E10.48214
G1 X144.041 Y27.110 E10.62604
G1 X146.466 Y25.546 E10.77001
G1 X148.913 Y24.019 E10.91391
G1 X151.380 Y22.526 E11.05777
G1 X153.870 Y21.069 E11.20170
G1 X156.381 Y19.647 E11.34567
G1 X158.911 Y18.263 E11.48954
G1 X161.460 Y16.914 E11.63343
G1 X164.030 Y15.601 E11.77741
G1 X166.617 Y14.326 E11.92130
G1 X169.222 Y13.088 E12.06519
G1 X171.846 Y11.887 E12.20916
G1 X174.487 Y10.725 E12.35311
G1 X177.121 Y9.609 E12.49583
G1 X177.121 Y9.610 E12.49588
G1 X181.700 Y7.652 E12.74434
G1 X181.700 Y80.804 E16.39391
G1 X99.424 Y80.804 E20.49867
G1 X102.556 Y84.151 E20.72736
G1 X104.181 Y85.927 E20.84746
G1 X105.872 Y87.818 E20.97402
G1 X107.540 Y89.728 E21.10053
G1 X109.186 Y91.658 E21.22708
G1 X110.809 Y93.608 E21.35366
G1 X112.409 Y95.576 E21.48020
G1 X113.986 Y97.563 E21.60676
G1 X115.539 Y99.569 E21.73332
G1 X117.067 Y101.591 E21.85976
G1 X118.572 Y103.631 E21.98624
G1 X120.055 Y105.690 E22.11284
G1 X121.512 Y107.766 E22.23937
G1 X122.945 Y109.859 E22.36592
G1 X124.353 Y111.970 E22.49251
G1 X125.735 Y114.094 E22.61894
G1 X127.094 Y116.236 E22.74550
G1 X128.427 Y118.393 E22.87200
G1 X129.735 Y120.567 E22.99858
G1 X131.016 Y122.756 E23.12511
G1 X132.272 Y124.958 E23.25159
G1 X133.503 Y127.177 E23.37819
G1 X134.707 Y129.410 E23.50475
G1 X135.942 Y131.768 E23.63755
G1 X137.035 Y133.916 E23.75779
G1 X138.159 Y136.189 E23.88430
G1 X139.258 Y138.474 E24.01080
G1 X140.329 Y140.774 E24.13738
G1 X141.365 Y143.070 E24.26305
G1 X143.477 Y147.700 E24.51694
G1 X141.558 Y147.700 E24.61268
G1 X141.558 Y152.804 E24.86732
G1 X95.700 Y152.804 E27.15518
G1 X95.700 Y175.700 E28.29747
G1 X9.300 Y175.700 E32.60798
G1 X9.300 Y141.896 E34.29447
G1 X29.300 Y141.896 E35.29227
G1 X29.300 Y118.296 E36.46968
G1 X9.300 Y118.296 E37.46749
G1 X9.300 Y9.300 E42.90532
G1 F2400 E38.90532
G0 F9000 X13.100 Y13.100
;TYPE:WALL-INNER
G1 F2400 E42.90532
G1 F1800 X91.900 Y13.100 E46.83667
G1 X91.900 Y171.900 E54.75923
G1 X13.100 Y171.900 E58.69058
G1 X13.100 Y145.696 E59.99790
G1 X33.100 Y145.696 E60.99571
G1 X33.100 Y114.496 E62.55228
G1 X13.100 Y114.496 E63.55008
G1 X13.100 Y13.100 E68.60875
G0 F9000 X12.700 Y12.700
;TYPE:WALL-OUTER
G1 F1800 X92.300 Y12.700 E72.58001
G1 X92.300 Y172.300 E80.54249
G1 X12.700 Y172.300 E84.51375
G1 X12.700 Y145.296 E85.86098
G1 X32.700 Y145.296 E86.85879
G1 X32.700 Y114.896 E88.37545
G1 X12.700 Y114.896 E89.37325
G1 X12.700 Y12.700 E94.47183
G0 F9000 X13.239 Y13.522
;TYPE:FILL
G1 F1800 X91.759 Y92.042 E100.01184
G0 F9000 X91.759 Y92.608
G1 F1800 X13.239 Y14.088 E105.55185
G0 F9000 X13.239 Y14.654
G1 F1800 X91.759 Y93.174 E111.09186
G0 F9000 X91.759 Y93.739
G1 F1800 X13.239 Y15.219 E116.63187
G0 F9000 X13.239 Y15.785
G1 F1800 X91.759 Y94.305 E122.17188
G0 F9000 X91.759 Y94.871
G1 F1800 X13.239 Y16.351 E127.71189
G0 F9000 X13.239 Y16.916
G1 F1800 X91.759 Y95.436 E133.25190
G0 F9000 X91.759 Y96.002
G1 F1800 X13.239 Y17.482 E138.79191
G0 F9000 X13.239 Y18.048
G1 F1800 X91.759 Y96.568 E144.33192
G0 F9000 X91.759 Y97.133
G1 F1800 X13.239 Y18.613 E149.87193
G0 F9000 X13.239 Y19.179
G1 F1800 X91.759 Y97.699 E155.41194
G0 F9000 X91.759 Y98.265
G1 F1800 X13.239 Y19.745 E160.95195
G0 F9000 X13.239 Y20.310
G1 F1800 X91.759 Y98.830 E166.49196
G0 F9000 X91.759 Y99.396
G1 F1800 X13.239 Y20.876 E172.03197
G0 F9000 X13.239 Y21.442
G1 F1800 X91.759 Y99.962 E177.57198
G0 F9000 X91.759 Y100.527
G1 F1800 X13.239 Y22.007 E183.11199
G0 F9000 X13.239 Y22.573
G1 F1800 X91.759 Y101.093 E188.65200
G0 F9000 X91.759 Y101.659
G1 F1800 X13.239 Y23.139 E194.19201
G0 F9000 X13.239 Y23.705
G1 F1800 X91.759 Y102.225 E199.73202
G0 F9000 X91.759 Y102.790
G1 F1800 X13.239 Y24.270 E205.27203
G0 F9000 X13.239 Y24.836
G1 F1800 X91.759 Y103.356 E210.81204
G0 F9000 X91.759 Y103.922
G1 F1800 X13.239 Y25.402 E216.35205
G0 F9000 X13.239 Y25.967
G1 F1800 X91.759 Y104.487 E221.89206
G0 F9000 X91.759 Y105.053
G1 F1800 X13.239 Y26.533 E227.43207
G0 F9000 X13.239 Y27.099
G1 F1800 X91.759 Y105.619 E232.97208
G0 F9000 X91.759 Y106.184
G1 F1800 X13.239 Y27.664 E238.51209
G0 F9000 X13.239 Y28.230
G1 F1800 X91.759 Y106.750 E244.05210
G0 F9000 X91.759 Y107.316
G1 F1800 X13.239 Y28.796 E249.59211
G0 F9000 X13.239 Y29.361
G1 F1800 X91.759 Y107.881 E255.13212
G0 F9000 X91.759 Y108.447
G1 F1800 X13.239 Y29.927 E260.67213
G0 F9000 X13.239 Y30.493
G1 F1800 X91.759 Y109.013 E266.21214
G0 F9000 X91.759 Y109.578
G1 F1800 X13.239 Y31.058 E271.75216
G0 F9000 X13.239 Y31.624
G1 F1800 X91.759 Y110.144 E277.29217
G0 F9000 X91.759 Y110.710
G1 F1800 X13.239 Y32.190 E282.83218
G0 F9000 X13.239 Y32.756
G1 F1800 X91.759 Y111.275 E288.37215
G0 F9000 X91.759 Y111.841
G1 F1800 X13.239 Y33.321 E293.91216
G0 F9000 X13.239 Y33.887
G1 F1800 X91.759 Y112.407 E299.45217
G0 F9000 X91.759 Y112.973
G1 F1800 X13.239 Y34.453 E304.99218
G0 F9000 X13.239 Y35.018
G1 F1800 X91.759 Y113.538 E310.53219
G0 F9000 X91.759 Y114.104
G1 F1800 X13.239 Y35.584 E316.07220
G0 F9000 X13.239 Y36.150
G1 F1800 X91.759 Y114.670 E321.61221
G0 F9000 X91.759 Y115.235
G1 F1800 X13.239 Y36.715 E327.15222
G0 F9000 X13.239 Y37.281
G1 F1800 X91.759 Y115.801 E332.69223
G0 F9000 X91.759 Y116.367
G1 F1800 X13.239 Y37.847 E338.23224
G0 F9000 X13.239 Y38.412
G1 F1800 X91.759 Y116.932 E343.77225
G0 F9000 X91.759 Y117.498
G1 F1800 X13.239 Y38.978 E349.31226
G0 F9000 X13.239 Y39.544
G1 F1800 X91.759 Y118.064 E354.85227
G0 F9000 X91.759 Y118.629
G1 F1800 X13.239 Y40.109 E360.39228
G0 F9000 X13.239 Y40.675
G1 F1800 X91.759 Y119.195 E365.93229
G0 F9000 X91.759 Y119.761
G1 F1800 X13.239 Y41.241 E371.47230
G0 F9000 X13.239 Y41.806
G1 F1800 X91.759 Y120.326 E377.01231
G0 F9000 X91.759 Y120.892
G1 F1800 X13.239 Y42.372 E382.55232
G0 F9000 X13.239 Y42.938
G1 F1800 X91.759 Y121.458 E388.09233
G0 F9000 X91.759 Y122.024
G1 F1800 X13.239 Y43.504 E393.63234
G0 F9000 X13.239 Y44.069
G1 F1800 X91.759 Y122.589 E399.17235
G0 F9000 X91.759 Y123.155
G1 F1800 X13.239 Y44.635 E404.71236
G0 F9000 X13.239 Y45.201
G1 F1800 X91.759 Y123.721 E410.25237
G0 F9000 X91.759 Y124.286
G1 F1800 X13.239 Y45.766 E415.79238
G0 F9000 X13.239 Y46.332
G1 F1800 X91.759 Y124.852 E421.33239
G0 F9000 X91.759 Y125.418
G1 F1800 X13.239 Y46.898 E426.87240
G0 F9000 X13.239 Y47.463
G1 F1800 X91.759 Y125.983 E432.41241
G0 F9000 X91.759 Y126.549
G1 F1800 X13.239 Y48.029 E437.95242
G0 F9000 X13.239 Y48.595
G1 F1800 X91.759 Y127.115 E443.49243
G0 F9000 X91.759 Y127.680
G1 F1800 X13.239 Y49.160 E449.03244
G0 F9000 X13.239 Y49.726
G1 F1800 X91.759 Y128.246 E454.57245
G0 F9000 X91.759 Y128.812
G1 F1800 X13.239 Y50.292 E460.11246
G0 F9000 X13.239 Y50.857
G1 F1800 X91.759 Y129.377 E465.65247
G0 F9000 X91.759 Y129.943
G1 F1800 X13.239 Y51.423 E471.19248
G0 F9000 X13.239 Y51.989
G1 F1800 X91.759 Y130.509 E476.73249
G0 F9000 X91.759 Y131.074
G1 F1800 X13.239 Y52.555 E482.27247
G0 F9000 X13.239 Y53.120
G1 F1800 X91.759 Y131.640 E487.81248
G0 F9000 X91.759 Y132.206
G1 F1800 X13.239 Y53.686 E493.35249
G0 F9000 X13.239 Y54.252
G1 F1800 X91.759 Y132.772 E498.89250
G0 F9000 X91.759 Y133.337
G1 F1800 X13.239 Y54.817 E504.43251
G0 F9000 X13.239 Y55.383
G1 F1800 X91.759 Y133.903 E509.97252
G0 F9000 X91.759 Y134.469
G1 F1800 X13.239 Y55.949 E515.51253
G0 F9000 X13.239 Y56.514
G1 F1800 X91.759 Y135.034 E521.05254
G0 F9000 X91.759 Y135.600
G1 F1800 X13.239 Y57.080 E526.59255
G0 F9000 X13.239 Y57.646
G1 F1800 X91.759 Y136.166 E532.13256
G0 F9000 X91.759 Y136.731
G1 F1800 X13.239 Y58.211 E537.67257
G0 F9000 X13.239 Y58.777
G1 F1800 X91.759 Y137.297 E543.21258
G0 F9000 X91.759 Y137.863
G1 F1800 X13.239 Y59.343 E548.75259
G0 F9000 X13.239 Y59.908
G1 F1800 X91.759 Y138.428 E554.29260
G0 F9000 X91.759 Y138.994
G1 F1800 X13.239 Y60.474 E559.83261
G0 F9000 X13.239 Y61.040
G1 F1800 X91.759 Y139.560 E565.37262
G0 F9000 X91.759 Y140.125
G1 F1800 X13.239 Y61.605 E570.91263
G0 F9000 X13.239 Y62.171
G1 F1800 X91.759 Y140.691 E576.45264
G0 F9000 X91.759 Y141.257
G1 F1800 X13.239 Y62.737 E581.99265
G0 F9000 X13.239 Y63.303
G1 F1800 X91.759 Y141.822 E587.53262
G0 F9000 X91.759 Y142.388
G1 F1800 X13.239 Y63.868 E593.07263
G0 F9000 X13.239 Y64.434
G1 F1800 X91.759 Y142.954 E598.61264
G0 F9000 X91.759 Y143.520
G1 F1800 X13.239 Y65.000 E604.15265
G0 F9000 X13.239 Y65.565
G1 F1800 X91.759 Y144.085 E609.69267
G0 F9000 X91.759 Y144.651
G1 F1800 X13.239 Y66.131 E615.23268
G0 F9000 X13.239 Y66.697
G1 F1800 X91.759 Y145.217 E620.77269
G0 F9000 X91.759 Y145.782
G1 F1800 X13.239 Y67.262 E626.31270
G0 F9000 X13.239 Y67.828
G1 F1800 X91.759 Y146.348 E631.85271
G0 F9000 X91.759 Y146.914
G1 F1800 X13.239 Y68.394 E637.39272
G0 F9000 X13.239 Y68.959
G1 F1800 X91.759 Y147.479 E642.93273
G0 F9000 X91.759 Y148.045
G1 F1800 X13.239 Y69.525 E648.47274
G0 F9000 X13.239 Y70.091
G1 F1800 X91.759 Y148.611 E654.01275
G0 F9000 X91.759 Y149.176
G1 F1800 X13.239 Y70.656 E659.55276
G0 F9000 X13.239 Y71.222
G1 F1800 X91.759 Y149.742 E665.09277
G0 F9000 X91.759 Y150.308
G1 F1800 X13.239 Y71.788 E670.63278
G0 F9000 X13.239 Y72.353
G1 F1800 X91.759 Y150.873 E676.17279
G0 F9000 X91.759 Y151.439
G1 F1800 X13.239 Y72.919 E681.71280
G0 F9000 X13.239 Y73.485
G1 F1800 X91.759 Y152.005 E687.25281
G0 F9000 X91.759 Y152.571
G1 F1800 X13.239 Y74.051 E692.79282
G0 F9000 X13.239 Y74.616
G1 F1800 X91.759 Y153.136 E698.33283
G0 F9000 X91.759 Y153.702
G1 F1800 X13.239 Y75.182 E703.87284
G0 F9000 X13.239 Y75.748
G1 F1800 X91.759 Y154.268 E709.41285
G0 F9000 X91.759 Y154.833
G1 F1800 X13.239 Y76.313 E714.95286
G0 F9000 X13.239 Y76.879
G1 F1800 X91.759 Y155.399 E720.49287
G0 F9000 X91.759 Y155.965
G1 F1800 X13.239 Y77.445 E726.03288
G0 F9000 X13.239 Y78.010
G1 F1800 X91.759 Y156.530 E731.57289
G0 F9000 X91.759 Y157.096
G1 F1800 X13.239 Y78.576 E737.11290
G0 F9000 X13.239 Y79.142
G1 F1800 X91.759 Y157.662 E742.65291
G0 F9000 X91.759 Y158.227
G1 F1800 X13.239 Y79.707 E748.19292
G0 F9000 X13.239 Y80.273
G1 F1800 X91.759 Y158.793 E753.73293
G0 F9000 X91.759 Y159.359
G1 F1800 X13.239 Y80.839 E759.27294
G0 F9000 X13.239 Y81.404
G1 F1800 X91.759 Y159.924 E764.81295
G0 F9000 X91.759 Y160.490
G1 F1800 X13.239 Y81.970 E770.35296
G0 F9000 X13.239 Y82.536
G1 F1800 X91.759 Y161.056 E775.89297
G0 F9000 X91.759 Y161.621
G1 F1800 X13.239 Y83.102 E781.43294
G0 F9000 X13.239 Y83.667
G1 F1800 X91.759 Y162.187 E786.97295
G0 F9000 X91.759 Y162.753
G1 F1800 X13.239 Y84.233 E792.51296
G0 F9000 X13.239 Y84.799
G1 F1800 X91.759 Y163.319 E798.05297
G0 F9000 X91.759 Y163.884
G1 F1800 X13.239 Y85.364 E803.59298
G0 F9000 X13.239 Y85.930
G1 F1800 X91.759 Y164.450 E809.13299
G0 F9000 X91.759 Y165.016
G1 F1800 X13.239 Y86.496 E814.67300
G0 F9000 X13.239 Y87.061
G1 F1800 X91.759 Y165.581 E820.21301
G0 F9000 X91.759 Y166.147
G1 F1800 X13.239 Y87.627 E825.75302
G0 F9000 X13.239 Y88.193
G1 F1800 X91.759 Y166.713 E831.29303
G0 F9000 X91.759 Y167.278
G1 F1800 X13.239 Y88.758 E836.83304
G0 F9000 X13.239 Y89.324
G1 F1800 X91.759 Y167.844 E842.37305
G0 F9000 X91.759 Y168.410
G1 F1800 X13.239 Y89.890 E847.91306
G0 F9000 X13.239 Y90.455
G1 F1800 X91.759 Y168.975 E853.45307
G0 F9000 X91.759 Y169.541
G1 F1800 X13.239 Y91.021 E858.99308
G0 F9000 X13.239 Y91.587
G1 F1800 X91.759 Y170.107 E864.53309
G0 F9000 X91.759 Y170.672
G1 F1800 X13.239 Y92.152 E870.07310
G0 F9000 X13.239 Y92.718
G1 F1800 X91.759 Y171.238 E875.61311
G0 F9000 X91.714 Y171.759
G1 F1800 X13.239 Y93.284 E881.14995
G0 F9000 X13.239 Y93.850
G1 F1800 X91.148 Y171.759 E886.64685
G0 F9000 X90.583 Y171.759
G1 F1800 X33.239 Y114.415 E890.69278
G0 F9000 X33.178 Y114.354
G1 F1800 X13.239 Y94.415 E892.09958
G0 F9000 X13.239 Y94.981
G1 F1800 X32.613 Y114.354 E893.46649
G0 F9000 X32.047 Y114.354
G1 F1800 X13.239 Y95.547 E894.79346
G0 F9000 X13.239 Y96.112
G1 F1800 X31.481 Y114.354 E896.08053
G0 F9000 X30.916 Y114.354
G1 F1800 X13.239 Y96.678 E897.32770
G0 F9000 X13.239 Y97.244
G1 F1800 X30.350 Y114.354 E898.53494
G0 F9000 X29.784 Y114.354
G1 F1800 X13.239 Y97.809 E899.70228
G0 F9000 X13.239 Y98.375
G1 F1800 X29.219 Y114.354 E900.82972
G0 F9000 X28.653 Y114.354
G1 F1800 X13.239 Y98.941 E901.91723
G0 F9000 X13.239 Y99.506
G1 F1800 X28.087 Y114.354 E902.96483
G0 F9000 X27.522 Y114.354
G1 F1800 X13.239 Y100.072 E903.97254
G0 F9000 X13.239 Y100.638
G1 F1800 X26.956 Y114.354 E904.94031
G0 F9000 X26.390 Y114.354
G1 F1800 X13.239 Y101.203 E905.86819
G0 F9000 X13.239 Y101.769
G1 F1800 X25.824 Y114.354 E906.75613
G0 F9000 X25.259 Y114.354
G1 F1800 X13.239 Y102.335 E907.60417
G0 F9000 X13.239 Y102.901
G1 F1800 X24.693 Y114.354 E908.41227
G0 F9000 X24.127 Y114.354
G1 F1800 X13.239 Y103.466 E909.18048
G0 F9000 X13.239 Y104.032
G1 F1800 X23.562 Y114.354 E909.90879
G0 F9000 X22.996 Y114.354
G1 F1800 X13.239 Y104.598 E910.59716
G0 F9000 X13.239 Y105.163
G1 F1800 X22.430 Y114.354 E911.24564
G0 F9000 X21.865 Y114.354
G1 F1800 X13.239 Y105.729 E911.85421
G0 F9000 X13.239 Y106.295
G1 F1800 X21.299 Y114.354 E912.42285
G0 F9000 X20.733 Y114.354
G1 F1800 X13.239 Y106.860 E912.95160
G0 F9000 X13.239 Y107.426
G1 F1800 X20.168 Y114.354 E913.44044
G0 F9000 X19.602 Y114.354
G1 F1800 X13.239 Y107.992 E913.88935
G0 F9000 X13.239 Y108.557
G1 F1800 X19.036 Y114.354 E914.29836
G0 F9000 X18.471 Y114.354
G1 F1800 X13.239 Y109.123 E914.66747
G0 F9000 X13.239 Y109.689
G1 F1800 X17.905 Y114.354 E914.99665
G0 F9000 X17.339 Y114.354
G1 F1800 X13.239 Y110.254 E915.28592
G0 F9000 X13.239 Y110.820
G1 F1800 X16.773 Y114.354 E915.53527
G0 F9000 X16.208 Y114.354
G1 F1800 X13.239 Y111.386 E915.74471
G0 F9000 X13.239 Y111.951
G1 F1800 X15.642 Y114.354 E915.91425
G0 F9000 X15.076 Y114.354
G1 F1800 X13.239 Y112.517 E916.04386
G0 F9000 X13.239 Y113.083
G1 F1800 X14.511 Y114.354 E916.13358
G0 F9000 X13.239 Y113.649
G1 F1800 X13.945 Y114.354 E916.18335
G0 F9000 X13.239 Y114.214
G1 F1800 X13.379 Y114.354 E916.19323
G0 F9000 X33.041 Y114.555
G0 X33.239 Y114.981
G1 F1800 X90.017 Y171.759 E920.19922
G0 F9000 X89.451 Y171.759
G1 F1800 X33.239 Y115.546 E924.16532
G0 F9000 X33.239 Y116.112
G1 F1800 X88.886 Y171.759 E928.09152
G0 F9000 X88.320 Y171.759
G1 F1800 X33.239 Y116.678 E931.97778
G0 F9000 X33.239 Y117.243
G1 F1800 X87.754 Y171.759 E935.82414
G0 F9000 X87.189 Y171.759
G1 F1800 X33.239 Y117.809 E939.63060
G0 F9000 X33.239 Y118.375
G1 F1800 X86.623 Y171.759 E943.39713
G0 F9000 X86.057 Y171.759
G1 F1800 X33.239 Y118.941 E947.12373
G0 F9000 X33.239 Y119.506
G1 F1800 X85.492 Y171.759 E950.81046
G0 F9000 X84.926 Y171.759
G1 F1800 X33.239 Y120.072 E954.45726
G0 F9000 X33.239 Y120.638
G1 F1800 X84.360 Y171.759 E958.06412
G0 F9000 X83.794 Y171.759
G1 F1800 X33.239 Y121.203 E961.63108
G0 F9000 X33.239 Y121.769
G1 F1800 X83.229 Y171.759 E965.15815
