;Generated with Cura_SteamEngine 14.09
; Default start code
G28 ; Home extruder
G1 Z15 F100
M107 ; Turn off fan
G90 ; Absolute positioning
M82 ; Extruder in absolute mode
M190 S50
; Activate all used extruder
M104 T0 S210
G92 E0 ; Reset extruder position
; Wait for all used extruders to reach temperature
M109 T0 S210
;Layer count: 20
;LAYER:-2
;RAFT
G0 F9000 X58.372 Y84.764 Z0.300
;TYPE:SUPPORT
G1 F1800 X61.471 Y82.610 E0.32950
G1 X64.610 Y80.515 E0.65900
G1 X67.786 Y78.481 E0.98828
G1 X70.998 Y76.503 E1.31762
G1 X74.249 Y74.586 E1.64713
G1 X77.532 Y72.730 E1.97639
G1 X80.851 Y70.935 E2.30583
G1 X84.203 Y69.202 E2.63529
G1 X87.585 Y67.532 E2.96460
G1 X90.999 Y65.924 E3.29408
G1 X94.441 Y64.382 E3.62337
G1 X97.873 Y62.918 E3.94913
G1 X98.984 Y62.447 E4.05449
G1 X142.178 Y62.447 E7.82566
G1 X146.157 Y66.724 E8.33569
G1 X148.765 Y69.625 E8.67627
G1 X151.323 Y72.574 E9.01711
G1 X153.827 Y75.568 E9.35788
G1 X156.277 Y78.608 E9.69876
G1 X158.672 Y81.690 E10.03954
G1 X161.010 Y84.814 E10.38021
G1 X163.294 Y87.980 E10.72105
G1 X165.520 Y91.187 E11.06189
G1 X167.688 Y94.432 E11.40261
G1 X169.797 Y97.717 E11.74344
G1 X171.847 Y101.038 E12.08418
G1 X173.838 Y104.395 E12.42494
G1 X175.767 Y107.788 E12.76571
G1 X177.636 Y111.214 E13.10644
G1 X179.444 Y114.674 E13.44728
G1 X181.188 Y118.166 E13.78807
G1 X182.870 Y121.687 E14.12875
G1 X184.472 Y125.203 E14.46609
G1 X187.761 Y132.447 E15.16069
G1 X184.858 Y132.447 E15.41414
G1 X184.858 Y137.552 E15.85985
G1 X14.999 Y137.552 E30.68987
G1 X14.999 Y124.945 E31.79056
G1 X17.859 Y122.802 E32.10258
G1 X19.832 Y120.390 E32.37465
G1 X22.276 Y117.514 E32.70416
G1 X24.649 Y114.825 E33.01728
G1 X27.192 Y112.042 E33.34642
G1 X29.790 Y109.306 E33.67583
G1 X32.436 Y106.618 E34.00514
G1 X35.134 Y103.979 E34.33465
G1 X37.879 Y101.392 E34.66397
G1 X40.670 Y98.855 E34.99327
G1 X43.511 Y96.370 E35.32281
G1 X46.397 Y93.939 E35.65226
G1 X49.326 Y91.563 E35.98154
G1 X52.299 Y89.241 E36.31090
G1 X55.315 Y86.974 E36.64031
G1 X58.372 Y84.764 E36.96965
G0 F9000 X58.500 Y84.546
G1 F1800 X58.500 Y137.657 E41.60666
G0 F9000 X57.500 Y137.657
G1 F1800 X57.500 Y85.264 E46.18098
G0 F9000 X56.500 Y85.987
G1 F1800 X56.500 Y137.657 E50.69217
G0 F9000 X55.500 Y137.657
G1 F1800 X55.500 Y86.710 E55.14025
G0 F9000 X54.500 Y87.455
G1 F1800 X54.500 Y137.657 E59.52328
G0 F9000 X53.500 Y137.657
G1 F1800 X53.500 Y88.206 E63.84074
G0 F9000 X52.500 Y88.958
G1 F1800 X52.500 Y137.657 E68.09254
G0 F9000 X51.500 Y137.657
G1 F1800 X51.500 Y89.732 E72.27677
G0 F9000 X50.500 Y90.513
G1 F1800 X50.500 Y137.657 E76.39281
G0 F9000 X49.500 Y137.657
G1 F1800 X49.500 Y91.294 E80.44067
G0 F9000 X48.500 Y92.098
G1 F1800 X48.500 Y137.657 E84.41832
G0 F9000 X47.500 Y137.657
G1 F1800 X47.500 Y92.909 E88.32518
G0 F9000 X46.500 Y93.720
G1 F1800 X46.500 Y137.657 E92.16122
G0 F9000 X45.500 Y137.657
G1 F1800 X45.500 Y94.557 E95.92419
G0 F9000 X44.500 Y95.399
G1 F1800 X44.500 Y137.657 E99.61365
G0 F9000 X43.500 Y137.657
G1 F1800 X43.500 Y96.241 E103.22959
G0 F9000 X42.500 Y97.114
G1 F1800 X42.500 Y137.657 E106.76931
G0 F9000 X41.500 Y137.657
G1 F1800 X41.500 Y97.989 E110.23264
G0 F9000 X40.500 Y98.867
G1 F1800 X40.500 Y137.657 E113.61931
G0 F9000 X39.500 Y137.657
G1 F1800 X39.500 Y99.776 E116.92662
G0 F9000 X38.500 Y100.685
G1 F1800 X38.500 Y137.657 E120.15456
G0 F9000 X37.500 Y137.657
G1 F1800 X37.500 Y101.605 E123.30219
G0 F9000 X36.500 Y102.547
G1 F1800 X36.500 Y137.657 E126.36757
G0 F9000 X35.500 Y137.657
G1 F1800 X35.500 Y103.489 E129.35070
G0 F9000 X34.500 Y104.451
G1 F1800 X34.500 Y137.657 E132.24985
G0 F9000 X33.500 Y137.657
G1 F1800 X33.500 Y105.430 E135.06352
G0 F9000 X32.500 Y106.408
G1 F1800 X32.500 Y137.657 E137.79180
G0 F9000 X31.500 Y137.657
G1 F1800 X31.500 Y107.419 E140.43181
G0 F9000 X30.500 Y108.435
G1 F1800 X30.500 Y137.657 E142.98312
G0 F9000 X29.500 Y137.657
G1 F1800 X29.500 Y109.459 E145.44503
G0 F9000 X28.500 Y110.512
G1 F1800 X28.500 Y137.657 E147.81500
G0 F9000 X27.500 Y137.657
G1 F1800 X27.500 Y111.564 E150.09313
G0 F9000 X26.500 Y112.643
G1 F1800 X26.500 Y137.657 E152.27705
G0 F9000 X25.500 Y137.657
G1 F1800 X25.500 Y113.737 E154.36545
G0 F9000 X24.500 Y114.835
G1 F1800 X24.500 Y137.657 E156.35799
G0 F9000 X23.500 Y137.657
G1 F1800 X23.500 Y115.968 E158.25161
G0 F9000 X22.500 Y117.101
G1 F1800 X22.500 Y137.657 E160.04631
G0 F9000 X21.500 Y137.657
G1 F1800 X21.500 Y118.265 E161.73938
G0 F9000 X20.500 Y119.441
G1 F1800 X20.500 Y137.657 E163.32978
G0 F9000 X19.500 Y137.657
G1 F1800 X19.500 Y120.630 E164.81637
G0 F9000 X18.500 Y121.853
G1 F1800 X18.500 Y137.657 E166.19619
G0 F9000 X17.500 Y137.657
G1 F1800 X17.500 Y122.939 E167.48118
G0 F9000 X16.500 Y123.688
G1 F1800 X16.500 Y137.657 E168.70079
G0 F9000 X15.500 Y137.657
G1 F1800 X15.500 Y124.438 E169.85491
G0 F9000 X59.500 Y137.657
G1 F1800 X59.500 Y83.851 E174.55260
G0 F9000 X60.500 Y83.156
G1 F1800 X60.500 Y137.657 E179.31096
G0 F9000 X61.500 Y137.657
G1 F1800 X61.500 Y82.464 E184.12974
G0 F9000 X62.500 Y81.796
G1 F1800 X62.500 Y137.657 E189.00685
G0 F9000 X63.500 Y137.657
G1 F1800 X63.500 Y81.129 E193.94219
G0 F9000 X64.500 Y80.462
G1 F1800 X64.500 Y137.657 E198.93576
G0 F9000 X65.500 Y137.657
G1 F1800 X65.500 Y79.820 E203.98538
G0 F9000 X66.500 Y79.179
G1 F1800 X66.500 Y137.657 E209.09097
G0 F9000 X67.500 Y137.657
G1 F1800 X67.500 Y78.539 E214.25244
G0 F9000 X68.500 Y77.917
G1 F1800 X68.500 Y137.657 E219.46821
G0 F9000 X69.500 Y137.657
G1 F1800 X69.500 Y77.302 E224.73768
G0 F9000 X70.500 Y76.686
G1 F1800 X70.500 Y137.657 E230.06092
G0 F9000 X71.500 Y137.657
G1 F1800 X71.500 Y76.085 E235.43664
G0 F9000 X72.500 Y75.495
G1 F1800 X72.500 Y137.657 E240.86387
G0 F9000 X73.500 Y137.657
G1 F1800 X73.500 Y74.905 E246.34261
G0 F9000 X74.500 Y74.323
G1 F1800 X74.500 Y137.657 E251.87217
G0 F9000 X75.500 Y137.657
G1 F1800 X75.500 Y73.757 E257.45114
G0 F9000 X76.500 Y73.192
G1 F1800 X76.500 Y137.657 E263.07944
G0 F9000 X77.500 Y137.657
G1 F1800 X77.500 Y72.627 E268.75707
G0 F9000 X78.500 Y72.086
G1 F1800 X78.500 Y137.657 E274.48194
G0 F9000 X79.500 Y137.657
G1 F1800 X79.500 Y71.546 E280.25395
G0 F9000 X80.500 Y71.005
G1 F1800 X80.500 Y137.657 E286.07319
G0 F9000 X81.500 Y137.657
G1 F1800 X81.500 Y70.481 E291.93818
G0 F9000 X82.500 Y69.964
G1 F1800 X82.500 Y137.657 E297.84831
G0 F9000 X83.500 Y137.657
G1 F1800 X83.500 Y69.447 E303.80358
G0 F9000 X84.500 Y68.938
G1 F1800 X84.500 Y137.657 E309.80329
G0 F9000 X85.500 Y137.657
G1 F1800 X85.500 Y68.444 E315.84613
G0 F9000 X86.500 Y67.950
G1 F1800 X86.500 Y137.657 E321.93210
G0 F9000 X87.500 Y137.657
G1 F1800 X87.500 Y67.456 E328.06120
G0 F9000 X88.500 Y66.984
G1 F1800 X88.500 Y137.657 E334.23150
G0 F9000 X89.500 Y137.657
G1 F1800 X89.500 Y66.513 E340.44293
G0 F9000 X90.500 Y66.043
G1 F1800 X90.500 Y137.657 E346.69540
G0 F9000 X91.500 Y137.657
G1 F1800 X91.500 Y65.584 E352.98794
G0 F9000 X92.500 Y65.136
G1 F1800 X92.500 Y137.657 E359.31959
G0 F9000 X93.500 Y137.657
G1 F1800 X93.500 Y64.688 E365.69036
G0 F9000 X94.500 Y64.242
G1 F1800 X94.500 Y137.657 E372.10006
G0 F9000 X95.500 Y137.657
G1 F1800 X95.500 Y63.817 E378.54687
G0 F9000 X96.500 Y63.391
G1 F1800 X96.500 Y137.657 E385.03088
G0 F9000 X97.500 Y137.657
G1 F1800 X97.500 Y62.965 E391.55208
G0 F9000 X98.500 Y62.539
G1 F1800 X98.500 Y137.657 E398.11047
G0 F9000 X99.500 Y137.657
G1 F1800 X99.500 Y62.342 E404.68606
G0 F9000 X100.500 Y62.342
G1 F1800 X100.500 Y137.657 E411.26165
G0 F9000 X101.500 Y137.657
G1 F1800 X101.500 Y62.342 E417.83724
G0 F9000 X102.500 Y62.342
G1 F1800 X102.500 Y137.657 E424.41283
G0 F9000 X103.500 Y137.657
G1 F1800 X103.500 Y62.342 E430.98842
G0 F9000 X104.500 Y62.342
G1 F1800 X104.500 Y137.657 E437.56402
G0 F9000 X105.500 Y137.657
G1 F1800 X105.500 Y62.342 E444.13961
G0 F9000 X106.500 Y62.342
G1 F1800 X106.500 Y137.657 E450.71520
G0 F9000 X107.500 Y137.657
G1 F1800 X107.500 Y62.342 E457.29079
G0 F9000 X108.500 Y62.342
G1 F1800 X108.500 Y137.657 E463.86638
G0 F9000 X109.500 Y137.657
G1 F1800 X109.500 Y62.342 E470.44197
G0 F9000 X110.500 Y62.342
G1 F1800 X110.500 Y137.657 E477.01756
G0 F9000 X111.500 Y137.657
G1 F1800 X111.500 Y62.342 E483.59315
G0 F9000 X112.500 Y62.342
G1 F1800 X112.500 Y137.657 E490.16874
G0 F9000 X113.500 Y137.657
G1 F1800 X113.500 Y62.342 E496.74434
G0 F9000 X114.500 Y62.342
G1 F1800 X114.500 Y137.657 E503.31993
G0 F9000 X115.500 Y137.657
G1 F1800 X115.500 Y62.342 E509.89552
G0 F9000 X116.500 Y62.342
G1 F1800 X116.500 Y137.657 E516.47111
G0 F9000 X117.500 Y137.657
G1 F1800 X117.500 Y62.342 E523.04670
G0 F9000 X118.500 Y62.342
G1 F1800 X118.500 Y137.657 E529.62229
G0 F9000 X119.500 Y137.657
G1 F1800 X119.500 Y62.342 E536.19788
G0 F9000 X120.500 Y62.342
G1 F1800 X120.500 Y137.657 E542.77347
G0 F9000 X121.500 Y137.657
G1 F1800 X121.500 Y62.342 E549.34906
G0 F9000 X122.500 Y62.342
G1 F1800 X122.500 Y137.657 E555.92465
G0 F9000 X123.500 Y137.657
G1 F1800 X123.500 Y62.342 E562.50025
G0 F9000 X124.500 Y62.342
G1 F1800 X124.500 Y137.657 E569.07584
G0 F9000 X125.500 Y137.657
G1 F1800 X125.500 Y62.342 E575.65143
G0 F9000 X126.500 Y62.342
G1 F1800 X126.500 Y137.657 E582.22702
G0 F9000 X127.500 Y137.657
G1 F1800 X127.500 Y62.342 E588.80261
G0 F9000 X128.500 Y62.342
G1 F1800 X128.500 Y137.657 E595.37820
G0 F9000 X129.500 Y137.657
G1 F1800 X129.500 Y62.342 E601.95379
G0 F9000 X130.500 Y62.342
G1 F1800 X130.500 Y137.657 E608.52938
G0 F9000 X131.500 Y137.657
G1 F1800 X131.500 Y62.342 E615.10497
G0 F9000 X132.500 Y62.342
G1 F1800 X132.500 Y137.657 E621.68057
G0 F9000 X133.500 Y137.657
G1 F1800 X133.500 Y62.342 E628.25616
G0 F9000 X134.500 Y62.342
G1 F1800 X134.500 Y137.657 E634.83175
G0 F9000 X135.500 Y137.657
G1 F1800 X135.500 Y62.342 E641.40734
G0 F9000 X136.500 Y62.342
G1 F1800 X136.500 Y137.657 E647.98293
G0 F9000 X137.500 Y137.657
G1 F1800 X137.500 Y62.342 E654.55852
G0 F9000 X138.500 Y62.342
G1 F1800 X138.500 Y137.657 E661.13411
G0 F9000 X139.500 Y137.657
G1 F1800 X139.500 Y62.342 E667.70970
G0 F9000 X140.500 Y62.342
G1 F1800 X140.500 Y137.657 E674.28529
G0 F9000 X141.500 Y137.657
G1 F1800 X141.500 Y62.342 E680.86089
G0 F9000 X142.500 Y62.639
G1 F1800 X142.500 Y137.657 E687.41055
G0 F9000 X143.500 Y137.657
G1 F1800 X143.500 Y63.714 E693.86635
G0 F9000 X144.500 Y64.789
G1 F1800 X144.500 Y137.657 E700.22830
G0 F9000 X145.500 Y137.657
G1 F1800 X145.500 Y65.864 E706.49639
G0 F9000 X146.500 Y66.949
G1 F1800 X146.500 Y137.657 E712.66976
G0 F9000 X147.500 Y137.657
G1 F1800 X147.500 Y68.061 E718.74603
G0 F9000 X148.500 Y69.173
G1 F1800 X148.500 Y137.657 E724.72522
G0 F9000 X149.500 Y137.657
G1 F1800 X149.500 Y70.312 E730.60497
G0 F9000 X150.500 Y71.465
G1 F1800 X150.500 Y137.657 E736.38405
G0 F9000 X151.500 Y137.657
G1 F1800 X151.500 Y72.622 E742.06212
G0 F9000 X152.500 Y73.818
G1 F1800 X152.500 Y137.657 E747.63577
G0 F9000 X153.500 Y137.657
G1 F1800 X153.500 Y75.014 E753.10499
G0 F9000 X154.500 Y76.236
G1 F1800 X154.500 Y137.657 E758.46753
G0 F9000 X155.500 Y137.657
G1 F1800 X155.500 Y77.477 E763.72171
G0 F9000 X156.500 Y78.725
G1 F1800 X156.500 Y137.657 E768.86694
G0 F9000 X157.500 Y137.657
G1 F1800 X157.500 Y80.012 E773.89980
G0 F9000 X158.500 Y81.298
G1 F1800 X158.500 Y137.657 E778.82039
G0 F9000 X159.500 Y137.657
G1 F1800 X159.500 Y82.622 E783.62537
G0 F9000 X160.500 Y83.958
G1 F1800 X160.500 Y137.657 E788.31372
G0 F9000 X161.500 Y137.657
G1 F1800 X161.500 Y85.314 E792.88367
G0 F9000 X162.500 Y86.700
G1 F1800 X162.500 Y137.657 E797.33262
G0 F9000 X163.500 Y137.657
G1 F1800 X163.500 Y88.092 E801.66003
G0 F9000 X164.500 Y89.533
G1 F1800 X164.500 Y137.657 E805.86164
G0 F9000 X165.500 Y137.657
G1 F1800 X165.500 Y90.974 E809.93743
G0 F9000 X166.500 Y92.465
G1 F1800 X166.500 Y137.657 E813.88304
G0 F9000 X167.500 Y137.657
G1 F1800 X167.500 Y93.961 E817.69805
G0 F9000 X168.500 Y95.502
G1 F1800 X168.500 Y137.657 E821.37851
G0 F9000 X169.500 Y137.657
G1 F1800 X169.500 Y97.060 E824.92295
G0 F9000 X170.500 Y98.656
G1 F1800 X170.500 Y137.657 E828.32804
G0 F9000 X171.500 Y137.657
G1 F1800 X171.500 Y100.276 E831.59170
G0 F9000 X172.500 Y101.934
G1 F1800 X172.500 Y137.657 E834.71060
G0 F9000 X173.500 Y137.657
G1 F1800 X173.500 Y103.619 E837.68238
G0 F9000 X174.500 Y105.347
G1 F1800 X174.500 Y137.657 E840.50330
G0 F9000 X175.500 Y137.657
G1 F1800 X175.500 Y107.106 E843.17064
G0 F9000 X176.500 Y108.913
G1 F1800 X176.500 Y137.657 E845.68022
G0 F9000 X177.500 Y137.657
G1 F1800 X177.500 Y110.746 E848.02976
G0 F9000 X178.500 Y112.641
G1 F1800 X178.500 Y137.657 E850.21385
G0 F9000 X179.500 Y137.657
G1 F1800 X179.500 Y114.554 E852.23092
G0 F9000 X180.500 Y116.554
G1 F1800 X180.500 Y137.657 E854.07338
G0 F9000 X181.500 Y137.657
G1 F1800 X181.500 Y118.577 E855.73922
G0 F9000 X182.500 Y120.670
G1 F1800 X182.500 Y137.657 E857.22231
G0 F9000 X183.500 Y137.657
G1 F1800 X183.500 Y122.820 E858.51770
G0 F9000 X184.500 Y125.020
G1 F1800 X184.500 Y137.657 E859.62101
G0 F9000 X185.500 Y132.552
G1 F1800 X185.500 Y127.220 E860.08654
G0 F9000 X186.500 Y129.420
G1 F1800 X186.500 Y132.552 E860.35998
G0 F9000 X187.500 Y131.620
G1 F1800 X187.500 Y132.552 E860.44136
M106 S255
;LAYER:-1
;RAFT
G0 F9000 X187.630 Y132.476 Z0.500
;TYPE:SUPPORT
G1 F2940 X117.571 Y62.417 E862.08904
G0 F9000 X117.005 Y62.417
G1 F2940 X187.065 Y132.476 E863.73673
G0 F9000 X186.499 Y132.476
G1 F2940 X116.439 Y62.417 E865.38442
G0 F9000 X115.874 Y62.417
G1 F2940 X185.933 Y132.476 E867.03210
G0 F9000 X185.368 Y132.476
G1 F2940 X115.308 Y62.417 E868.67979
G0 F9000 X114.742 Y62.417
G1 F2940 X184.887 Y132.561 E870.32948
G0 F9000 X184.887 Y133.126
G1 F2940 X114.177 Y62.417 E871.99246
G0 F9000 X113.611 Y62.417
G1 F2940 X184.887 Y133.692 E873.66875
G0 F9000 X184.887 Y134.258
G1 F2940 X113.045 Y62.417 E875.35835
G0 F9000 X112.480 Y62.417
G1 F2940 X184.887 Y134.824 E877.06126
G0 F9000 X184.887 Y135.389
G1 F2940 X111.914 Y62.417 E878.77746
G0 F9000 X111.348 Y62.417
G1 F2940 X184.887 Y135.955 E880.50697
G0 F9000 X184.887 Y136.521
G1 F2940 X110.783 Y62.417 E882.24978
G0 F9000 X110.217 Y62.417
G1 F2940 X184.887 Y137.086 E884.00589
G0 F9000 X184.815 Y137.581
G1 F2940 X109.651 Y62.417 E885.77364
G0 F9000 X109.086 Y62.417
G1 F2940 X184.250 Y137.581 E887.54138
G0 F9000 X183.684 Y137.581
G1 F2940 X108.520 Y62.417 E889.30912
G0 F9000 X107.954 Y62.417
G1 F2940 X183.118 Y137.581 E891.07686
G0 F9000 X182.553 Y137.581
G1 F2940 X107.389 Y62.417 E892.84461
G0 F9000 X106.823 Y62.417
G1 F2940 X181.987 Y137.581 E894.61235
G0 F9000 X181.421 Y137.581
G1 F2940 X106.257 Y62.417 E896.38009
G0 F9000 X105.691 Y62.417
G1 F2940 X180.855 Y137.581 E898.14783
G0 F9000 X180.290 Y137.581
G1 F2940 X105.126 Y62.417 E899.91557
G0 F9000 X104.560 Y62.417
G1 F2940 X179.724 Y137.581 E901.68332
G0 F9000 X179.158 Y137.581
G1 F2940 X103.994 Y62.417 E903.45106
G0 F9000 X103.429 Y62.417
G1 F2940 X178.593 Y137.581 E905.21880
G0 F9000 X178.027 Y137.581
G1 F2940 X102.863 Y62.417 E906.98654
G0 F9000 X102.297 Y62.417
G1 F2940 X177.461 Y137.581 E908.75428
G0 F9000 X176.896 Y137.581
G1 F2940 X101.732 Y62.417 E910.52203
G0 F9000 X101.166 Y62.417
G1 F2940 X176.330 Y137.581 E912.28977
G0 F9000 X175.764 Y137.581
G1 F2940 X100.600 Y62.417 E914.05751
G0 F9000 X100.035 Y62.417
G1 F2940 X175.199 Y137.581 E915.82525
G0 F9000 X174.633 Y137.581
G1 F2940 X99.469 Y62.417 E917.59299
G0 F9000 X98.926 Y62.439
G1 F2940 X174.067 Y137.581 E919.36021
G0 F9000 X173.502 Y137.581
G1 F2940 X98.529 Y62.608 E921.12346
G0 F9000 X98.132 Y62.777
G1 F2940 X172.936 Y137.581 E922.88273
G0 F9000 X172.370 Y137.581
G1 F2940 X97.736 Y62.946 E924.63802
G0 F9000 X97.339 Y63.115
G1 F2940 X171.805 Y137.581 E926.38935
G0 F9000 X171.239 Y137.581
G1 F2940 X96.942 Y63.284 E928.13670
G0 F9000 X96.546 Y63.453
