;Generated with Cura_SteamEngine 14.09
; Default start code
G28 ; Home extruder
G1 Z15 F100
M107 ; Turn off fan
G90 ; Absolute positioning
M82 ; Extruder in absolute mode
M190 S50
; Activate all used extruder
M104 T0 S210
G92 E0 ; Reset extruder position
; Wait for all used extruders to reach temperature
M109 T0 S210
;Layer count: 140
;LAYER:0
M107
G0 F9000 X96.954 Y49.382 Z0.300
;TYPE:SKIRT
G1 F1800 X143.354 Y49.382 E2.31491
G1 X143.354 Y81.059 E3.89528
G1 X145.289 Y83.148 E4.03734
G1 X148.039 Y86.235 E4.24360
G1 X150.701 Y89.341 E4.44768
G1 X153.332 Y92.529 E4.65390
G1 X155.900 Y95.767 E4.86008
G1 X158.406 Y99.054 E5.06629
G1 X160.849 Y102.389 E5.27254
G1 X163.227 Y105.768 E5.47868
G1 X165.541 Y109.194 E5.68494
G1 X167.787 Y112.663 E5.89112
G1 X169.968 Y116.174 E6.09733
G1 X172.081 Y119.726 E6.30352
G1 X173.988 Y123.077 E6.49588
G1 X188.354 Y141.198 E7.64958
G1 X188.354 Y150.617 E8.11950
G1 X11.645 Y150.617 E16.93554
G1 X11.645 Y144.694 E17.23104
G1 X19.255 Y138.987 E17.70561
G1 X21.438 Y136.326 E17.87732
G1 X23.954 Y133.371 E18.07095
G1 X26.527 Y130.463 E18.26467
G1 X29.157 Y127.606 E18.45840
G1 X31.841 Y124.799 E18.65216
G1 X34.579 Y122.045 E18.84591
G1 X37.369 Y119.344 E19.03964
G1 X40.211 Y116.698 E19.23337
G1 X43.103 Y114.107 E19.42709
G1 X46.046 Y111.571 E19.62091
G1 X49.035 Y109.095 E19.81455
G1 X52.072 Y106.675 E20.00828
G1 X55.156 Y104.315 E20.20203
G1 X58.284 Y102.015 E20.39573
G1 X61.488 Y99.752 E20.59143
G1 X64.704 Y97.574 E20.78521
G1 X67.928 Y95.480 E20.97700
G1 X71.224 Y93.429 E21.17068
G1 X74.560 Y91.441 E21.36442
G1 X77.932 Y89.516 E21.55814
G1 X81.343 Y87.658 E21.75192
G1 X84.787 Y85.866 E21.94561
G1 X88.266 Y84.140 E22.13936
G1 X91.778 Y82.483 E22.33310
G1 X95.321 Y80.893 E22.52685
G1 X96.954 Y80.198 E22.61539
G1 X96.954 Y49.382 E24.15280
G1 F2400 E20.15280
G0 F9000 X100.754 Y53.182
;TYPE:WALL-INNER
G1 F2400 E24.15280
G1 F1800 X139.554 Y53.182 E26.08854
G1 X139.554 Y82.548 E27.55362
G1 X142.472 Y85.699 E27.76788
G1 X145.173 Y88.731 E27.97046
G1 X147.789 Y91.783 E28.17101
G1 X150.374 Y94.915 E28.37361
G1 X152.897 Y98.096 E28.57617
G1 X155.359 Y101.325 E28.77875
G1 X157.758 Y104.600 E28.98129
G1 X160.095 Y107.921 E29.18388
G1 X162.368 Y111.286 E29.38648
G1 X164.575 Y114.694 E29.58904
G1 X166.717 Y118.143 E29.79160
G1 X168.799 Y121.643 E29.99477
G1 X170.830 Y125.212 E30.19964
G1 X184.554 Y142.522 E31.30173
G1 X184.554 Y146.817 E31.51601
G1 X15.445 Y146.817 E39.95289
G1 X15.445 Y146.594 E39.96402
G1 X21.901 Y141.753 E40.36660
G1 X24.350 Y138.767 E40.55927
G1 X26.820 Y135.867 E40.74932
G1 X29.352 Y133.005 E40.93996
G1 X31.924 Y130.209 E41.12950
G1 X34.566 Y127.448 E41.32015
G1 X37.244 Y124.754 E41.50966
G1 X39.981 Y122.104 E41.69973
G1 X42.769 Y119.508 E41.88978
G1 X45.607 Y116.966 E42.07987
G1 X48.503 Y114.471 E42.27057
G1 X51.436 Y112.041 E42.46060
G1 X54.407 Y109.673 E42.65014
G1 X57.441 Y107.351 E42.84075
G1 X60.501 Y105.101 E43.03024
G1 X63.644 Y102.881 E43.22222
G1 X66.800 Y100.744 E43.41237
G1 X69.972 Y98.684 E43.60107
G1 X73.196 Y96.677 E43.79054
G1 X76.469 Y94.726 E43.98064
G1 X79.778 Y92.838 E44.17070
G1 X83.134 Y91.010 E44.36136
G1 X86.504 Y89.256 E44.55090
G1 X89.927 Y87.559 E44.74151
G1 X93.372 Y85.933 E44.93156
G1 X96.838 Y84.377 E45.12111
G1 X100.349 Y82.882 E45.31149
G1 X100.754 Y82.713 E45.33339
G1 X100.754 Y53.182 E46.80669
G0 F9000 X100.354 Y52.782
;TYPE:WALL-OUTER
G1 F1800 X139.954 Y52.782 E48.78235
G1 X139.954 Y82.391 E50.25955
G1 X142.773 Y85.436 E50.46657
G1 X145.477 Y88.471 E50.66936
G1 X148.100 Y91.531 E50.87044
G1 X150.687 Y94.666 E51.07322
G1 X153.215 Y97.853 E51.27617
G1 X155.682 Y101.088 E51.47914
G1 X158.086 Y104.370 E51.68210
G1 X160.426 Y107.697 E51.88503
G1 X162.704 Y111.069 E52.08805
G1 X164.915 Y114.483 E52.29098
G1 X167.061 Y117.938 E52.49389
G1 X169.141 Y121.435 E52.69689
G1 X171.163 Y124.987 E52.90080
G1 X184.954 Y142.383 E54.00833
G1 X184.954 Y147.217 E54.24950
G1 X15.045 Y147.217 E62.72629
G1 X15.045 Y146.394 E62.76735
G1 X21.622 Y141.462 E63.17749
G1 X24.048 Y138.505 E63.36831
G1 X26.521 Y135.602 E63.55857
G1 X29.053 Y132.740 E63.74922
G1 X31.636 Y129.933 E63.93953
G1 X34.274 Y127.174 E64.12997
G1 X36.966 Y124.467 E64.32043
G1 X39.711 Y121.809 E64.51106
G1 X42.502 Y119.210 E64.70133
G1 X45.345 Y116.662 E64.89180
G1 X48.242 Y114.168 E65.08251
G1 X51.181 Y111.733 E65.27292
G1 X54.164 Y109.356 E65.46322
G1 X57.198 Y107.034 E65.65383
G1 X60.270 Y104.774 E65.84410
G1 X63.420 Y102.549 E66.03650
G1 X66.582 Y100.409 E66.22699
G1 X69.751 Y98.351 E66.41550
G1 X72.995 Y96.332 E66.60613
G1 X76.271 Y94.379 E66.79641
G1 X79.587 Y92.487 E66.98688
G1 X82.943 Y90.659 E67.17754
G1 X86.326 Y88.898 E67.36782
G1 X89.745 Y87.202 E67.55822
G1 X93.201 Y85.571 E67.74888
G1 X96.681 Y84.009 E67.93919
G1 X100.195 Y82.513 E68.12973
G1 X100.354 Y82.446 E68.13833
G1 X100.354 Y52.782 E69.61828
G0 F9000 X101.122 Y53.322
;TYPE:FILL
G1 F1800 X167.449 Y119.649 E74.29801
G0 F9000 X166.619 Y118.253
G1 F1800 X101.688 Y53.322 E78.87924
G0 F9000 X102.254 Y53.322
G1 F1800 X165.694 Y116.762 E83.35527
G0 F9000 X164.766 Y115.269
G1 F1800 X102.819 Y53.322 E87.72597
G0 F9000 X103.385 Y53.322
G1 F1800 X163.764 Y113.701 E91.98603
G0 F9000 X162.725 Y112.096
G1 F1800 X103.951 Y53.322 E96.13286
G0 F9000 X104.516 Y53.322
G1 F1800 X161.609 Y110.415 E100.16108
G0 F9000 X160.431 Y108.670
G1 F1800 X105.082 Y53.322 E104.06621
G0 F9000 X105.648 Y53.322
G1 F1800 X159.152 Y106.826 E107.84121
G0 F9000 X157.811 Y104.919
G1 F1800 X106.213 Y53.322 E111.48169
G0 F9000 X106.779 Y53.322
G1 F1800 X156.288 Y102.831 E114.97482
G0 F9000 X154.650 Y100.627
G1 F1800 X107.345 Y53.322 E118.31244
G0 F9000 X107.910 Y53.322
G1 F1800 X152.834 Y98.246 E121.48207
G0 F9000 X150.675 Y95.520
G1 F1800 X108.476 Y53.322 E124.45940
G0 F9000 X109.042 Y53.322
G1 F1800 X148.097 Y92.377 E127.21494
G0 F9000 X144.717 Y88.432
G1 F1800 X109.607 Y53.322 E129.69214
G0 F9000 X110.173 Y53.322
G1 F1800 X139.413 Y82.562 E131.75518
G0 F9000 X139.413 Y81.996
G1 F1800 X110.739 Y53.322 E133.77829
G0 F9000 X111.304 Y53.322
G1 F1800 X139.413 Y81.431 E135.76153
G0 F9000 X139.413 Y80.865
G1 F1800 X111.870 Y53.322 E137.70484
G0 F9000 X112.436 Y53.322
G1 F1800 X139.413 Y80.299 E139.60821
G0 F9000 X139.413 Y79.734
G1 F1800 X113.002 Y53.322 E141.47169
G0 F9000 X113.567 Y53.322
G1 F1800 X139.413 Y79.168 E143.29526
G0 F9000 X139.413 Y78.602
G1 F1800 X114.133 Y53.322 E145.07890
G0 F9000 X114.699 Y53.322
G1 F1800 X139.413 Y78.037 E146.82264
G0 F9000 X139.413 Y77.471
G1 F1800 X115.264 Y53.322 E148.52649
G0 F9000 X115.830 Y53.322
G1 F1800 X139.413 Y76.905 E150.19039
G0 F9000 X139.413 Y76.339
G1 F1800 X116.396 Y53.322 E151.81437
G0 F9000 X116.961 Y53.322
G1 F1800 X139.413 Y75.774 E153.39848
G0 F9000 X139.413 Y75.208
G1 F1800 X117.527 Y53.322 E154.94265
G0 F9000 X118.093 Y53.322
G1 F1800 X139.413 Y74.642 E156.44689
G0 F9000 X139.413 Y74.077
G1 F1800 X118.658 Y53.322 E157.91127
G0 F9000 X119.224 Y53.322
G1 F1800 X139.413 Y73.511 E159.33571
G0 F9000 X139.413 Y72.945
G1 F1800 X119.790 Y53.322 E160.72022
G0 F9000 X120.355 Y53.322
G1 F1800 X139.413 Y72.380 E162.06487
G0 F9000 X139.413 Y71.814
G1 F1800 X120.921 Y53.322 E163.36958
G0 F9000 X121.487 Y53.322
G1 F1800 X139.413 Y71.248 E164.63435
G0 F9000 X139.413 Y70.683
G1 F1800 X122.052 Y53.322 E165.85927
G0 F9000 X122.618 Y53.322
G1 F1800 X139.413 Y70.117 E167.04424
G0 F9000 X139.413 Y69.551
G1 F1800 X123.184 Y53.322 E168.18929
G0 F9000 X123.750 Y53.322
G1 F1800 X139.413 Y68.986 E169.29443
G0 F9000 X139.413 Y68.420
G1 F1800 X124.315 Y53.322 E170.35968
G0 F9000 X124.881 Y53.322
G1 F1800 X139.413 Y67.854 E171.38499
G0 F9000 X139.413 Y67.288
G1 F1800 X125.447 Y53.322 E172.37037
G0 F9000 X126.012 Y53.322
G1 F1800 X139.413 Y66.723 E173.31588
G0 F9000 X139.413 Y66.157
G1 F1800 X126.578 Y53.322 E174.22146
G0 F9000 X127.144 Y53.322
G1 F1800 X139.413 Y65.591 E175.08710
G0 F9000 X139.413 Y65.026
G1 F1800 X127.709 Y53.322 E175.91288
G0 F9000 X128.275 Y53.322
G1 F1800 X139.413 Y64.460 E176.69873
G0 F9000 X139.413 Y63.894
G1 F1800 X128.841 Y53.322 E177.44464
G0 F9000 X129.406 Y53.322
G1 F1800 X139.413 Y63.329 E178.15069
G0 F9000 X139.413 Y62.763
G1 F1800 X129.972 Y53.322 E178.81680
G0 F9000 X130.538 Y53.322
G1 F1800 X139.413 Y62.197 E179.44298
G0 F9000 X139.413 Y61.632
G1 F1800 X131.103 Y53.322 E180.02930
G0 F9000 X131.669 Y53.322
G1 F1800 X139.413 Y61.066 E180.57568
G0 F9000 X139.413 Y60.500
G1 F1800 X132.235 Y53.322 E181.08212
G0 F9000 X132.801 Y53.322
G1 F1800 X139.413 Y59.935 E181.54867
G0 F9000 X139.413 Y59.369
G1 F1800 X133.366 Y53.322 E181.97532
G0 F9000 X133.932 Y53.322
G1 F1800 X139.413 Y58.803 E182.36203
G0 F9000 X139.413 Y58.238
G1 F1800 X134.498 Y53.322 E182.70885
G0 F9000 X135.063 Y53.322
G1 F1800 X139.413 Y57.672 E183.01577
G0 F9000 X139.413 Y57.106
G1 F1800 X135.629 Y53.322 E183.28275
G0 F9000 X136.195 Y53.322
G1 F1800 X139.413 Y56.540 E183.50979
G0 F9000 X139.413 Y55.975
G1 F1800 X136.760 Y53.322 E183.69698
G0 F9000 X137.326 Y53.322
G1 F1800 X139.413 Y55.409 E183.84423
G0 F9000 X139.413 Y54.843
G1 F1800 X137.892 Y53.322 E183.95154
G0 F9000 X138.457 Y53.322
G1 F1800 X139.413 Y54.278 E184.01899
G0 F9000 X139.023 Y53.322
G1 F1800 X139.413 Y53.712 E184.04651
G0 F9000 X100.893 Y53.658
G1 F1800 X168.280 Y121.046 E188.80106
G0 F9000 X169.067 Y122.398
G1 F1800 X100.893 Y54.224 E193.61110
G0 F9000 X100.893 Y54.790
G1 F1800 X169.814 Y123.711 E198.47385
G0 F9000 X170.561 Y125.023
G1 F1800 X100.893 Y55.355 E203.38931
G0 F9000 X100.893 Y55.921
G1 F1800 X172.435 Y127.463 E208.43698
G0 F9000 X174.600 Y130.194
G1 F1800 X100.893 Y56.487 E213.63741
G0 F9000 X100.893 Y57.052
G1 F1800 X176.765 Y132.924 E218.99059
G0 F9000 X178.930 Y135.655
G1 F1800 X100.893 Y57.618 E224.49652
G0 F9000 X100.893 Y58.184
G1 F1800 X181.095 Y138.386 E230.15520
G0 F9000 X183.260 Y141.117
G1 F1800 X100.893 Y58.749 E235.96668
G0 F9000 X100.893 Y59.315
G1 F1800 X184.413 Y142.835 E241.85946
G0 F9000 X184.413 Y143.401
G1 F1800 X100.893 Y59.881 E247.75225
G0 F9000 X100.893 Y60.447
G1 F1800 X184.413 Y143.966 E253.64500
G0 F9000 X184.413 Y144.532
G1 F1800 X100.893 Y61.012 E259.53779
G0 F9000 X100.893 Y61.578
G1 F1800 X184.413 Y145.098 E265.43058
G0 F9000 X184.413 Y145.663
G1 F1800 X100.893 Y62.144 E271.32333
G0 F9000 X100.893 Y62.709
G1 F1800 X184.413 Y146.229 E277.21612
G0 F9000 X184.294 Y146.676
G1 F1800 X100.893 Y63.275 E283.10051
G0 F9000 X100.893 Y63.841
G1 F1800 X183.728 Y146.676 E288.94496
G0 F9000 X183.163 Y146.676
G1 F1800 X100.893 Y64.406 E294.74956
G0 F9000 X100.893 Y64.972
G1 F1800 X182.597 Y146.676 E300.51421
G0 F9000 X182.031 Y146.676
G1 F1800 X100.893 Y65.538 E306.23894
G0 F9000 X100.893 Y66.103
G1 F1800 X181.466 Y146.676 E311.92380
G0 F9000 X180.900 Y146.676
G1 F1800 X100.893 Y66.669 E317.56872
G0 F9000 X100.893 Y67.235
G1 F1800 X180.334 Y146.676 E323.17372
G0 F9000 X179.769 Y146.676
G1 F1800 X100.893 Y67.800 E328.73884
G0 F9000 X100.893 Y68.366
G1 F1800 X179.203 Y146.676 E334.26404
G0 F9000 X178.637 Y146.676
G1 F1800 X100.893 Y68.932 E339.74930
G0 F9000 X100.893 Y69.497
G1 F1800 X178.072 Y146.676 E345.19469
G0 F9000 X177.506 Y146.676
G1 F1800 X100.893 Y70.063 E350.60015
G0 F9000 X100.893 Y70.629
G1 F1800 X176.940 Y146.676 E355.96568
G0 F9000 X176.375 Y146.676
G1 F1800 X100.893 Y71.195 E361.29131
G0 F9000 X100.893 Y71.760
G1 F1800 X175.809 Y146.676 E366.57704
G0 F9000 X175.243 Y146.676
G1 F1800 X100.893 Y72.326 E371.82283
G0 F9000 X100.893 Y72.892
G1 F1800 X174.678 Y146.676 E377.02872
G0 F9000 X174.112 Y146.676
G1 F1800 X100.893 Y73.457 E382.19472
G0 F9000 X100.893 Y74.023
G1 F1800 X173.546 Y146.676 E387.32078
G0 F9000 X172.980 Y146.676
G1 F1800 X100.893 Y74.589 E392.40691
G0 F9000 X100.893 Y75.154
G1 F1800 X172.415 Y146.676 E397.45317
G0 F9000 X171.849 Y146.676
G1 F1800 X100.893 Y75.720 E402.45950
G0 F9000 X100.893 Y76.286
G1 F1800 X171.283 Y146.676 E407.42590
G0 F9000 X170.718 Y146.676
G1 F1800 X100.893 Y76.851 E412.35243
G0 F9000 X100.893 Y77.417
G1 F1800 X170.152 Y146.676 E417.23902
G0 F9000 X169.586 Y146.676
G1 F1800 X100.893 Y77.983 E422.08569
G0 F9000 X100.893 Y78.548
G1 F1800 X169.021 Y146.676 E426.89248
G0 F9000 X168.455 Y146.676
G1 F1800 X100.893 Y79.114 E431.65935
G0 F9000 X100.893 Y79.680
G1 F1800 X167.889 Y146.676 E436.38628
G0 F9000 X167.324 Y146.676
G1 F1800 X100.893 Y80.246 E441.07331
G0 F9000 X100.893 Y80.811
G1 F1800 X166.758 Y146.676 E445.72044
G0 F9000 X166.192 Y146.676
G1 F1800 X100.893 Y81.377 E450.32764
G0 F9000 X100.893 Y81.943
G1 F1800 X165.627 Y146.676 E454.89494
G0 F9000 X165.061 Y146.676
G1 F1800 X100.893 Y82.508 E459.42233
G0 F9000 X100.706 Y82.887
G1 F1800 X164.495 Y146.676 E463.92299
G0 F9000 X163.929 Y146.676
G1 F1800 X100.308 Y83.055 E468.41180
G0 F9000 X99.912 Y83.224
G1 F1800 X163.364 Y146.676 E472.88868
G0 F9000 X162.798 Y146.676
G1 F1800 X99.514 Y83.392 E477.35371
G0 F9000 X99.117 Y83.561
G1 F1800 X162.232 Y146.676 E481.80681
G0 F9000 X161.667 Y146.676
G1 F1800 X98.720 Y83.729 E486.24806
G0 F9000 X98.323 Y83.898
G1 F1800 X161.101 Y146.676 E490.67739
G0 F9000 X160.535 Y146.676
G1 F1800 X97.926 Y84.067 E495.09479
G0 F9000 X97.529 Y84.235
G1 F1800 X159.970 Y146.676 E499.50034
G0 F9000 X159.404 Y146.676
G1 F1800 X97.131 Y84.403 E503.89404
G0 F9000 X96.737 Y84.574
G1 F1800 X158.838 Y146.676 E508.27563
G0 F9000 X158.273 Y146.676
G1 F1800 X96.346 Y84.750 E512.64488
G0 F9000 X95.956 Y84.925
G1 F1800 X157.707 Y146.676 E517.00175
G0 F9000 X157.141 Y146.676
G1 F1800 X95.566 Y85.101 E521.34620
G0 F9000 X95.175 Y85.276
G1 F1800 X156.576 Y146.676 E525.67834
G0 F9000 X156.010 Y146.676
G1 F1800 X94.785 Y85.451 E529.99809
G0 F9000 X94.395 Y85.627
G1 F1800 X155.444 Y146.676 E534.30543
G0 F9000 X154.879 Y146.676
G1 F1800 X94.004 Y85.802 E538.60045
G0 F9000 X93.614 Y85.977
G1 F1800 X154.313 Y146.676 E542.88309
G0 F9000 X153.747 Y146.676
G1 F1800 X93.227 Y86.156 E547.15311
G0 F9000 X92.843 Y86.337
G1 F1800 X153.181 Y146.676 E551.41031
G0 F9000 X152.616 Y146.676
G1 F1800 X92.458 Y86.518 E555.65479
G0 F9000 X92.074 Y86.700
G1 F1800 X152.050 Y146.676 E559.88642
G0 F9000 X151.484 Y146.676
G1 F1800 X91.690 Y86.882 E564.10521
G0 F9000 X91.305 Y87.063
G1 F1800 X150.919 Y146.676 E568.31126
G0 F9000 X150.353 Y146.676
G1 F1800 X90.921 Y87.244 E572.50451
G0 F9000 X90.537 Y87.425
G1 F1800 X149.787 Y146.676 E576.68495
G0 F9000 X149.222 Y146.676
G1 F1800 X90.153 Y87.607 E580.85259
G0 F9000 X89.772 Y87.792
G1 F1800 X148.656 Y146.676 E585.00717
G0 F9000 X148.090 Y146.676
G1 F1800 X89.394 Y87.980 E589.14849
G0 F9000 X89.016 Y88.167
G1 F1800 X147.525 Y146.676 E593.27662
G0 F9000 X146.959 Y146.676
G1 F1800 X88.637 Y88.355 E597.39152
G0 F9000 X88.259 Y88.542
G1 F1800 X146.393 Y146.676 E601.49318
G0 F9000 X145.828 Y146.676
G1 F1800 X87.881 Y88.729 E605.58166
G0 F9000 X87.503 Y88.917
G1 F1800 X145.262 Y146.676 E609.65687
G0 F9000 X144.696 Y146.676
G1 F1800 X87.125 Y89.105 E613.71881
G0 F9000 X86.747 Y89.292
G1 F1800 X144.130 Y146.676 E617.76753
G0 F9000 X143.565 Y146.676
G1 F1800 X86.372 Y89.483 E621.80280
G0 F9000 X85.999 Y89.676
G1 F1800 X142.999 Y146.676 E625.82446
G0 F9000 X142.433 Y146.676
G1 F1800 X85.627 Y89.870 E629.83243
G0 F9000 X85.255 Y90.064
G1 F1800 X141.868 Y146.676 E633.82675
G0 F9000 X141.302 Y146.676
G1 F1800 X84.883 Y90.257 E637.80741
G0 F9000 X84.511 Y90.450
G1 F1800 X140.736 Y146.676 E641.77443
G0 F9000 X140.171 Y146.676
G1 F1800 X84.139 Y90.644 E645.72779
G0 F9000 X83.767 Y90.838
G1 F1800 X139.605 Y146.676 E649.66746
G0 F9000 X139.039 Y146.676
G1 F1800 X83.395 Y91.032 E653.59344
G0 F9000 X83.025 Y91.228
G1 F1800 X138.474 Y146.676 E657.50564
G0 F9000 X137.908 Y146.676
G1 F1800 X82.659 Y91.427 E661.40375
G0 F9000 X82.293 Y91.627
