;Generated with Cura_SteamEngine 14.09
; Default start code
G28 ; Home extruder
G1 Z15 F100
M107 ; Turn off fan
G90 ; Absolute positioning
M82 ; Extruder in absolute mode
M190 S50
; Activate all used extruder
M104 T0 S210
G92 E0 ; Reset extruder position
; Wait for all used extruders to reach temperature
M109 T0 S210
;Layer count: 20
;LAYER:0
M107
G0 F9000 X84.796 Y97.639 Z0.300
;TYPE:SKIRT
G1 F1800 X87.001 Y95.777 E0.14398
G1 X89.231 Y93.947 E0.28790
G1 X91.485 Y92.150 E0.43172
G1 X93.767 Y90.383 E0.57571
G1 X96.074 Y88.651 E0.71963
G1 X98.405 Y86.952 E0.86354
G1 X100.760 Y85.286 E1.00746
G1 X103.139 Y83.655 E1.15136
G1 X105.541 Y82.057 E1.29530
G1 X107.966 Y80.494 E1.43923
G1 X110.413 Y78.966 E1.58316
G1 X112.881 Y77.474 E1.72704
G1 X115.370 Y76.017 E1.87093
G1 X117.880 Y74.595 E2.01485
G1 X120.410 Y73.210 E2.15875
G1 X122.960 Y71.861 E2.30268
G1 X125.530 Y70.549 E2.44664
G1 X128.117 Y69.274 E2.59053
G1 X130.722 Y68.035 E2.73444
G1 X133.346 Y66.835 E2.87839
G1 X135.986 Y65.672 E3.02232
G1 X138.621 Y64.556 E3.16508
G1 X138.621 Y64.557 E3.16513
G1 X143.200 Y62.599 E3.41359
G1 X143.200 Y135.752 E7.06321
G1 X56.800 Y135.752 E11.37372
G1 X56.800 Y125.847 E11.86788
G1 X59.110 Y124.115 E12.01192
G1 X60.579 Y122.312 E12.12795
G1 X62.429 Y120.101 E12.27178
G1 X64.315 Y117.915 E12.41582
G1 X66.229 Y115.760 E12.55962
G1 X68.175 Y113.629 E12.70359
G1 X70.150 Y111.527 E12.84749
G1 X72.156 Y109.454 E12.99141
G1 X74.192 Y107.410 E13.13534
G1 X76.256 Y105.396 E13.27921
G1 X78.349 Y103.410 E13.42316
G1 X80.471 Y101.456 E13.56707
G1 X82.621 Y99.532 E13.71102
G1 X84.796 Y97.639 E13.85487
G1 F2400 E9.85487
G0 F9000 X87.273 Y100.521
;TYPE:WALL-INNER
G1 F2400 E13.85487
G1 F1800 X89.429 Y98.699 E13.99570
G1 X91.624 Y96.899 E14.13732
G1 X93.836 Y95.135 E14.27847
G1 X96.067 Y93.408 E14.41923
G1 X98.330 Y91.709 E14.56041
G1 X100.618 Y90.041 E14.70167
G1 X102.928 Y88.407 E14.84284
G1 X105.262 Y86.807 E14.98401
G1 X107.626 Y85.234 E15.12568
G1 X109.998 Y83.705 E15.26647
G1 X112.406 Y82.202 E15.40809
G1 X114.820 Y80.741 E15.54886
G1 X117.263 Y79.312 E15.69006
G1 X119.733 Y77.913 E15.83169
G1 X122.208 Y76.558 E15.97246
G1 X124.709 Y75.234 E16.11364
G1 X127.230 Y73.947 E16.25485
G1 X129.769 Y72.696 E16.39607
G1 X132.325 Y71.481 E16.53726
G1 X134.906 Y70.300 E16.67887
G1 X137.497 Y69.159 E16.82011
G1 X139.400 Y68.353 E16.92322
G1 X139.400 Y131.952 E20.09618
G1 X60.600 Y131.952 E24.02753
G1 X60.600 Y127.747 E24.23732
G1 X61.762 Y126.876 E24.30977
G1 X63.506 Y124.735 E24.44754
G1 X65.322 Y122.565 E24.58871
G1 X67.172 Y120.421 E24.72999
G1 X69.050 Y118.306 E24.87110
G1 X70.965 Y116.209 E25.01278
G1 X72.897 Y114.153 E25.15354
G1 X74.865 Y112.119 E25.29474
G1 X76.862 Y110.114 E25.43592
G1 X78.894 Y108.132 E25.57753
G1 X80.947 Y106.183 E25.71876
G1 X83.022 Y104.272 E25.85950
G1 X85.132 Y102.384 E26.00076
G1 X87.273 Y100.521 E26.14235
G0 F9000 X87.008 Y100.221
;TYPE:WALL-OUTER
G1 F1800 X89.175 Y98.391 E26.28385
G1 X91.370 Y96.590 E26.42551
G1 X93.584 Y94.824 E26.56680
G1 X95.827 Y93.088 E26.70830
G1 X98.095 Y91.386 E26.84977
G1 X100.390 Y89.713 E26.99146
G1 X102.702 Y88.077 E27.13277
G1 X105.041 Y86.474 E27.27423
G1 X107.405 Y84.901 E27.41590
G1 X109.786 Y83.365 E27.55726
G1 X112.194 Y81.863 E27.69885
G1 X114.618 Y80.396 E27.84021
G1 X117.066 Y78.964 E27.98170
G1 X119.536 Y77.565 E28.12332
G1 X122.021 Y76.204 E28.26468
G1 X124.530 Y74.877 E28.40628
G1 X127.056 Y73.587 E28.54778
G1 X129.597 Y72.334 E28.68913
G1 X132.161 Y71.116 E28.83075
G1 X134.737 Y69.937 E28.97209
G1 X137.336 Y68.793 E29.11376
G1 X139.800 Y67.749 E29.24727
G1 X139.800 Y132.352 E32.47032
G1 X60.200 Y132.352 E36.44158
G1 X60.200 Y127.547 E36.68130
G1 X61.483 Y126.585 E36.76131
G1 X63.199 Y124.478 E36.89688
G1 X65.019 Y122.304 E37.03833
G1 X66.873 Y120.156 E37.17989
G1 X68.755 Y118.036 E37.32132
G1 X70.668 Y115.941 E37.46286
G1 X72.610 Y113.875 E37.60432
G1 X74.582 Y111.837 E37.74580
G1 X76.583 Y109.827 E37.88730
G1 X78.613 Y107.847 E38.02878
G1 X80.672 Y105.893 E38.17040
G1 X82.755 Y103.974 E38.31170
G1 X84.869 Y102.082 E38.45324
G1 X87.008 Y100.221 E38.59469
G0 F9000 X87.362 Y100.655
;TYPE:FILL
G1 F1800 X118.517 Y131.811 E40.79288
G0 F9000 X117.951 Y131.811
G1 F1800 X87.057 Y100.916 E42.97265
G0 F9000 X86.752 Y101.177
G1 F1800 X117.386 Y131.811 E45.13404
G0 F9000 X116.820 Y131.811
G1 F1800 X86.448 Y101.439 E47.27695
G0 F9000 X86.143 Y101.700
G1 F1800 X116.254 Y131.811 E49.40145
G0 F9000 X115.689 Y131.811
G1 F1800 X85.839 Y101.961 E51.50752
G0 F9000 X85.535 Y102.222
G1 F1800 X115.123 Y131.811 E53.59515
G0 F9000 X114.557 Y131.811
G1 F1800 X85.230 Y102.483 E55.66437
G0 F9000 X84.934 Y102.753
G1 F1800 X113.991 Y131.811 E57.71453
G0 F9000 X113.426 Y131.811
G1 F1800 X84.637 Y103.021 E59.74579
G0 F9000 X84.340 Y103.291
G1 F1800 X112.860 Y131.811 E61.75803
G0 F9000 X112.294 Y131.811
G1 F1800 X84.043 Y103.560 E63.75129
G0 F9000 X83.747 Y103.829
G1 F1800 X111.729 Y131.811 E65.72557
G0 F9000 X111.163 Y131.811
G1 F1800 X83.451 Y104.098 E67.68083
G0 F9000 X83.154 Y104.367
G1 F1800 X110.597 Y131.811 E69.61712
G0 F9000 X110.032 Y131.811
G1 F1800 X82.858 Y104.636 E71.53443
G0 F9000 X82.561 Y104.906
G1 F1800 X109.466 Y131.811 E73.43272
G0 F9000 X108.900 Y131.811
G1 F1800 X82.264 Y105.175 E75.31204
G0 F9000 X81.968 Y105.444
G1 F1800 X108.335 Y131.811 E77.17237
G0 F9000 X107.769 Y131.811
G1 F1800 X81.672 Y105.713 E79.01369
G0 F9000 X81.375 Y105.982
G1 F1800 X107.203 Y131.811 E80.83603
G0 F9000 X106.638 Y131.811
G1 F1800 X81.078 Y106.251 E82.63943
G0 F9000 X80.789 Y106.528
G1 F1800 X106.072 Y131.811 E84.42328
G0 F9000 X105.506 Y131.811
G1 F1800 X80.501 Y106.805 E86.18755
G0 F9000 X80.213 Y107.083
G1 F1800 X104.941 Y131.811 E87.93224
G0 F9000 X104.375 Y131.811
G1 F1800 X79.924 Y107.360 E89.65739
G0 F9000 X79.636 Y107.637
G1 F1800 X103.809 Y131.811 E91.36297
G0 F9000 X103.243 Y131.811
G1 F1800 X79.348 Y107.915 E93.04892
G0 F9000 X79.060 Y108.192
G1 F1800 X102.678 Y131.811 E94.71533
G0 F9000 X102.112 Y131.811
G1 F1800 X78.771 Y108.470 E96.36217
G0 F9000 X78.483 Y108.748
G1 F1800 X101.546 Y131.811 E97.98939
G0 F9000 X100.981 Y131.811
G1 F1800 X78.195 Y109.025 E99.59706
G0 F9000 X77.907 Y109.303
G1 F1800 X100.415 Y131.811 E101.18512
G0 F9000 X99.849 Y131.811
G1 F1800 X77.619 Y109.580 E102.75361
G0 F9000 X77.330 Y109.857
G1 F1800 X99.284 Y131.811 E104.30258
G0 F9000 X98.718 Y131.811
G1 F1800 X77.042 Y110.135 E105.83194
G0 F9000 X76.759 Y110.417
G1 F1800 X98.152 Y131.811 E107.34137
G0 F9000 X97.587 Y131.811
G1 F1800 X76.479 Y110.703 E108.83065
G0 F9000 X76.198 Y110.988
G1 F1800 X97.021 Y131.811 E110.29982
G0 F9000 X96.455 Y131.811
G1 F1800 X75.918 Y111.273 E111.74886
G0 F9000 X75.638 Y111.559
G1 F1800 X95.890 Y131.811 E113.17774
G0 F9000 X95.324 Y131.811
G1 F1800 X75.358 Y111.845 E114.58645
G0 F9000 X75.077 Y112.130
G1 F1800 X94.758 Y131.811 E115.97505
G0 F9000 X94.192 Y131.811
G1 F1800 X74.797 Y112.415 E117.34351
G0 F9000 X74.517 Y112.701
G1 F1800 X93.627 Y131.811 E118.69182
G0 F9000 X93.061 Y131.811
G1 F1800 X74.237 Y112.986 E120.01999
G0 F9000 X73.957 Y113.272
G1 F1800 X92.495 Y131.811 E121.32799
G0 F9000 X91.930 Y131.811
G1 F1800 X73.676 Y113.557 E122.61590
G0 F9000 X73.396 Y113.842
G1 F1800 X91.364 Y131.811 E123.88368
G0 F9000 X90.798 Y131.811
G1 F1800 X73.116 Y114.128 E125.13127
G0 F9000 X72.840 Y114.418
G1 F1800 X90.233 Y131.811 E126.35844
G0 F9000 X89.667 Y131.811
G1 F1800 X72.568 Y114.712 E127.56487
G0 F9000 X72.296 Y115.005
G1 F1800 X89.101 Y131.811 E128.75059
G0 F9000 X88.536 Y131.811
G1 F1800 X72.024 Y115.299 E129.91560
G0 F9000 X71.752 Y115.592
G1 F1800 X87.970 Y131.811 E131.05990
G0 F9000 X87.404 Y131.811
G1 F1800 X71.480 Y115.887 E132.18343
G0 F9000 X71.208 Y116.180
G1 F1800 X86.839 Y131.811 E133.28628
G0 F9000 X86.273 Y131.811
G1 F1800 X70.936 Y116.473 E134.36842
G0 F9000 X70.664 Y116.768
G1 F1800 X85.707 Y131.811 E135.42979
G0 F9000 X85.142 Y131.811
G1 F1800 X70.392 Y117.061 E136.47048
G0 F9000 X70.120 Y117.354
G1 F1800 X84.576 Y131.811 E137.49046
G0 F9000 X84.010 Y131.811
G1 F1800 X69.848 Y117.648 E138.48970
G0 F9000 X69.576 Y117.942
G1 F1800 X83.444 Y131.811 E139.46820
G0 F9000 X82.879 Y131.811
G1 F1800 X69.304 Y118.236 E140.42599
G0 F9000 X69.035 Y118.533
G1 F1800 X82.313 Y131.811 E141.36283
G0 F9000 X81.747 Y131.811
G1 F1800 X68.771 Y118.834 E142.27839
G0 F9000 X68.507 Y119.136
G1 F1800 X81.182 Y131.811 E143.17268
G0 F9000 X80.616 Y131.811
G1 F1800 X68.243 Y119.438 E144.04566
G0 F9000 X67.979 Y119.740
G1 F1800 X80.050 Y131.811 E144.89733
G0 F9000 X79.485 Y131.811
G1 F1800 X67.715 Y120.041 E145.72777
G0 F9000 X67.451 Y120.343
G1 F1800 X78.919 Y131.811 E146.53690
G0 F9000 X78.353 Y131.811
G1 F1800 X67.187 Y120.644 E147.32476
G0 F9000 X66.923 Y120.946
G1 F1800 X77.788 Y131.811 E148.09134
G0 F9000 X77.222 Y131.811
G1 F1800 X66.658 Y121.247 E148.83669
G0 F9000 X66.395 Y121.549
G1 F1800 X76.656 Y131.811 E149.56069
G0 F9000 X76.091 Y131.811
G1 F1800 X66.131 Y121.851 E150.26343
G0 F9000 X65.866 Y122.152
G1 F1800 X75.525 Y131.811 E150.94492
G0 F9000 X74.959 Y131.811
G1 F1800 X65.603 Y122.454 E151.60507
G0 F9000 X65.341 Y122.758
G1 F1800 X74.393 Y131.811 E152.24377
G0 F9000 X73.828 Y131.811
G1 F1800 X65.085 Y123.068 E152.86064
G0 F9000 X64.829 Y123.378
G1 F1800 X73.262 Y131.811 E153.45563
G0 F9000 X72.696 Y131.811
G1 F1800 X64.574 Y123.688 E154.02872
G0 F9000 X64.318 Y123.998
G1 F1800 X72.131 Y131.811 E154.57997
G0 F9000 X71.565 Y131.811
G1 F1800 X64.062 Y124.307 E155.10938
G0 F9000 X63.806 Y124.617
G1 F1800 X70.999 Y131.811 E155.61692
G0 F9000 X70.434 Y131.811
G1 F1800 X63.550 Y124.927 E156.10263
G0 F9000 X63.294 Y125.237
G1 F1800 X69.868 Y131.811 E156.56646
G0 F9000 X69.302 Y131.811
G1 F1800 X63.038 Y125.546 E157.00845
G0 F9000 X62.783 Y125.857
G1 F1800 X68.737 Y131.811 E157.42854
G0 F9000 X68.171 Y131.811
G1 F1800 X62.527 Y126.166 E157.82679
G0 F9000 X62.271 Y126.476
G1 F1800 X67.605 Y131.811 E158.20317
G0 F9000 X67.040 Y131.811
G1 F1800 X62.015 Y126.786 E158.55771
G0 F9000 X61.733 Y127.070
G1 F1800 X66.474 Y131.811 E158.89221
G0 F9000 X65.908 Y131.811
G1 F1800 X61.410 Y127.313 E159.20957
G0 F9000 X61.087 Y127.555
G1 F1800 X65.343 Y131.811 E159.50985
G0 F9000 X64.777 Y131.811
G1 F1800 X60.764 Y127.798 E159.79299
G0 F9000 X60.739 Y128.339
G1 F1800 X64.211 Y131.811 E160.03796
G0 F9000 X63.645 Y131.811
G1 F1800 X60.739 Y128.904 E160.24303
G0 F9000 X60.739 Y129.470
G1 F1800 X63.080 Y131.811 E160.40820
G0 F9000 X62.514 Y131.811
G1 F1800 X60.739 Y130.036 E160.53343
G0 F9000 X60.739 Y130.601
G1 F1800 X61.948 Y131.811 E160.61877
G0 F9000 X60.739 Y131.167
G1 F1800 X61.383 Y131.811 E160.66421
G0 F9000 X60.739 Y131.733
G1 F1800 X60.817 Y131.811 E160.66971
G0 F9000 X87.666 Y100.394
G1 F1800 X119.083 Y131.811 E162.88635
G0 F9000 X119.648 Y131.811
G1 F1800 X87.971 Y100.133 E165.12137
G0 F9000 X88.275 Y99.872
G1 F1800 X120.214 Y131.811 E167.37484
G0 F9000 X120.780 Y131.811
G1 F1800 X88.579 Y99.610 E169.64679
G0 F9000 X88.884 Y99.349
G1 F1800 X121.345 Y131.811 E171.93713
G0 F9000 X121.911 Y131.811
G1 F1800 X89.188 Y99.088 E174.24591
G0 F9000 X89.493 Y98.827
G1 F1800 X122.477 Y131.811 E176.57311
G0 F9000 X123.042 Y131.811
G1 F1800 X89.806 Y98.574 E178.91813
G0 F9000 X90.118 Y98.321
G1 F1800 X123.608 Y131.811 E181.28103
G0 F9000 X124.174 Y131.811
G1 F1800 X90.431 Y98.067 E183.66181
G0 F9000 X90.744 Y97.815
G1 F1800 X124.740 Y131.811 E186.06041
G0 F9000 X125.305 Y131.811
G1 F1800 X91.056 Y97.562 E188.47687
G0 F9000 X91.369 Y97.309
G1 F1800 X125.871 Y131.811 E190.91117
G0 F9000 X126.437 Y131.811
G1 F1800 X91.682 Y97.056 E193.36332
G0 F9000 X91.995 Y96.803
G1 F1800 X127.002 Y131.811 E195.83329
G0 F9000 X127.568 Y131.811
G1 F1800 X92.307 Y96.550 E198.32114
G0 F9000 X92.620 Y96.297
G1 F1800 X128.134 Y131.811 E200.82685
G0 F9000 X128.699 Y131.811
G1 F1800 X92.933 Y96.044 E203.35037
G0 F9000 X93.246 Y95.791
G1 F1800 X129.265 Y131.811 E205.89174
G0 F9000 X129.831 Y131.811
G1 F1800 X93.558 Y95.538 E208.45099
G0 F9000 X93.871 Y95.286
G1 F1800 X130.396 Y131.811 E211.02803
G0 F9000 X130.962 Y131.811
G1 F1800 X94.191 Y95.040 E213.62242
G0 F9000 X94.512 Y94.795
G1 F1800 X131.528 Y131.811 E216.23410
G0 F9000 X132.093 Y131.811
G1 F1800 X94.833 Y94.550 E218.86303
G0 F9000 X95.154 Y94.306
G1 F1800 X132.659 Y131.811 E221.50921
G0 F9000 X133.225 Y131.811
G1 F1800 X95.475 Y94.061 E224.17268
G0 F9000 X95.796 Y93.816
G1 F1800 X133.790 Y131.811 E226.85340
G0 F9000 X134.356 Y131.811
G1 F1800 X96.117 Y93.572 E229.55136
G0 F9000 X96.438 Y93.327
G1 F1800 X134.922 Y131.811 E232.26662
G0 F9000 X135.488 Y131.811
G1 F1800 X96.759 Y93.082 E234.99916
G0 F9000 X97.080 Y92.838
G1 F1800 X136.053 Y131.811 E237.74891
G0 F9000 X136.619 Y131.811
G1 F1800 X97.401 Y92.593 E240.51595
G0 F9000 X97.722 Y92.348
G1 F1800 X137.185 Y131.811 E243.30028
G0 F9000 X137.750 Y131.811
G1 F1800 X98.043 Y92.104 E246.10183
G0 F9000 X98.364 Y91.859
G1 F1800 X138.316 Y131.811 E248.92066
G0 F9000 X138.882 Y131.811
G1 F1800 X98.690 Y91.619 E251.75642
G0 F9000 X99.018 Y91.381
G1 F1800 X139.259 Y131.622 E254.59564
G0 F9000 X139.259 Y131.057
G1 F1800 X99.345 Y91.143 E257.41179
G0 F9000 X99.672 Y90.904
G1 F1800 X139.259 Y130.491 E260.20486
G0 F9000 X139.259 Y129.925
G1 F1800 X99.999 Y90.665 E262.97487
G0 F9000 X100.327 Y90.427
G1 F1800 X139.259 Y129.360 E265.72177
G0 F9000 X139.259 Y128.794
G1 F1800 X100.652 Y90.187 E268.44570
G0 F9000 X100.986 Y89.955
G1 F1800 X139.259 Y128.228 E271.14607
G0 F9000 X139.259 Y127.663
G1 F1800 X101.319 Y89.722 E273.82297
G0 F9000 X101.652 Y89.490
G1 F1800 X139.259 Y127.097 E276.47635
G0 F9000 X139.259 Y126.531
G1 F1800 X101.986 Y89.258 E279.10616
G0 F9000 X102.319 Y89.026
G1 F1800 X139.259 Y125.966 E281.71248
G0 F9000 X139.259 Y125.400
G1 F1800 X102.653 Y88.794 E284.29523
G0 F9000 X102.987 Y88.562
G1 F1800 X139.259 Y124.834 E286.85441
G0 F9000 X139.259 Y124.269
G1 F1800 X103.321 Y88.330 E289.39007
G0 F9000 X103.654 Y88.097
G1 F1800 X139.259 Y123.703 E291.90223
G0 F9000 X139.259 Y123.137
G1 F1800 X103.987 Y87.865 E294.39086
G0 F9000 X104.321 Y87.633
G1 F1800 X139.259 Y122.572 E296.85596
G0 F9000 X139.259 Y122.006
G1 F1800 X104.654 Y87.401 E299.29753
G0 F9000 X104.988 Y87.169
G1 F1800 X139.259 Y121.440 E301.71553
G0 F9000 X139.259 Y120.874
G1 F1800 X105.322 Y86.937 E304.10997
G0 F9000 X105.661 Y86.711
G1 F1800 X139.259 Y120.309 E306.48049
G0 F9000 X139.259 Y119.743
G1 F1800 X106.000 Y86.484 E308.82709
G0 F9000 X106.340 Y86.258
G1 F1800 X139.259 Y119.177 E311.14971
G0 F9000 X139.259 Y118.612
G1 F1800 X106.680 Y86.032 E313.44837
G0 F9000 X107.019 Y85.806
G1 F1800 X139.259 Y118.046 E315.72307
G0 F9000 X139.259 Y117.480
G1 F1800 X107.359 Y85.580 E317.97379
G0 F9000 X107.698 Y85.353
G1 F1800 X139.259 Y116.915 E320.20063
G0 F9000 X139.259 Y116.349
G1 F1800 X108.041 Y85.131 E322.40322
G0 F9000 X108.386 Y84.910
G1 F1800 X139.259 Y115.783 E324.58148
G0 F9000 X139.259 Y115.218
G1 F1800 X108.729 Y84.688 E326.73554
G0 F9000 X109.074 Y84.466
G1 F1800 X139.259 Y114.652 E328.86529
G0 F9000 X139.259 Y114.086
G1 F1800 X109.417 Y84.244 E330.97080
G0 F9000 X109.761 Y84.022
G1 F1800 X139.259 Y113.521 E333.05208
G0 F9000 X139.259 Y112.955
G1 F1800 X110.107 Y83.802 E335.10895
G0 F9000 X110.457 Y83.587
G1 F1800 X139.259 Y112.389 E337.14108
G0 F9000 X139.259 Y111.823
G1 F1800 X110.807 Y83.372 E339.14849
G0 F9000 X111.157 Y83.156
G1 F1800 X139.259 Y111.258 E341.13124
G0 F9000 X139.259 Y110.692
G1 F1800 X111.508 Y82.941 E343.08922
G0 F9000 X111.858 Y82.725
G1 F1800 X139.259 Y110.126 E345.02251
G0 F9000 X139.259 Y109.561
G1 F1800 X112.209 Y82.510 E346.93107
G0 F9000 X112.559 Y82.295
G1 F1800 X139.259 Y108.995 E348.81490
G0 F9000 X139.259 Y108.429
