;Generated with Cura_SteamEngine 14.09
; Default start code
G28 ; Home extruder
G1 Z15 F100
M107 ; Turn off fan
G90 ; Absolute positioning
M82 ; Extruder in absolute mode
M190 S50
; Activate all used extruder
M104 T0 S210
G92 E0 ; Reset extruder position
; Wait for all used extruders to reach temperature
M109 T0 S210
;Layer count: 325
;LAYER:0
M107
G0 F9000 X74.300 Y79.300 Z0.300
;TYPE:SKIRT
G1 F1800 X125.700 Y79.300 E2.56436
G1 X125.700 Y120.700 E4.62981
G1 X74.300 Y120.700 E7.19417
G1 X74.300 Y79.300 E9.25962
G1 F2400 E5.25962
G0 F9000 X78.100 Y83.100
;TYPE:WALL-INNER
G1 F2400 E9.25962
G1 F1800 X121.900 Y83.100 E11.44481
G1 X121.900 Y116.900 E13.13110
G1 X78.100 Y116.900 E15.31629
G1 X78.100 Y83.100 E17.00258
G0 F9000 X95.027 Y97.464
G1 F1800 X95.027 Y103.110 E17.28426
G1 X104.777 Y103.110 E17.77069
G1 X104.777 Y97.464 E18.05237
G1 X95.027 Y97.464 E18.53880
G0 F9000 X95.427 Y97.864
;TYPE:WALL-OUTER
G1 F1800 X95.427 Y102.710 E18.78057
G1 X104.377 Y102.710 E19.22709
G1 X104.377 Y97.864 E19.46885
G1 X95.427 Y97.864 E19.91537
G0 F9000 X95.427 Y97.564
G0 X78.000 Y82.910
G0 X77.700 Y82.700
G1 F1800 X122.300 Y82.700 E22.14047
G1 X122.300 Y117.300 E23.86667
G1 X77.700 Y117.300 E26.09178
G1 X77.700 Y82.700 E27.81798
G0 F9000 X78.431 Y83.239
;TYPE:FILL
G1 F1800 X94.887 Y99.695 E28.97904
G0 F9000 X94.887 Y99.130
G1 F1800 X78.997 Y83.239 E30.10020
G0 F9000 X79.562 Y83.239
G1 F1800 X94.887 Y98.564 E31.18146
G0 F9000 X94.887 Y97.998
G1 F1800 X80.128 Y83.239 E32.22279
G0 F9000 X80.694 Y83.239
G1 F1800 X94.887 Y97.432 E33.22418
G0 F9000 X95.343 Y97.323
G1 F1800 X81.260 Y83.239 E34.21785
G0 F9000 X81.825 Y83.239
G1 F1800 X95.909 Y97.323 E35.21155
G0 F9000 X96.474 Y97.323
G1 F1800 X82.391 Y83.239 E36.20522
G0 F9000 X82.957 Y83.239
G1 F1800 X97.040 Y97.323 E37.19888
G0 F9000 X97.606 Y97.323
G1 F1800 X83.522 Y83.239 E38.19259
G0 F9000 X84.088 Y83.239
G1 F1800 X98.171 Y97.323 E39.18625
G0 F9000 X98.737 Y97.323
G1 F1800 X84.654 Y83.239 E40.17992
G0 F9000 X85.219 Y83.239
G1 F1800 X99.303 Y97.323 E41.17362
G0 F9000 X99.868 Y97.323
G1 F1800 X85.785 Y83.239 E42.16729
G0 F9000 X86.351 Y83.239
G1 F1800 X100.434 Y97.323 E43.16096
G0 F9000 X101.000 Y97.323
G1 F1800 X86.916 Y83.239 E44.15466
G0 F9000 X87.482 Y83.239
G1 F1800 X101.565 Y97.323 E45.14833
G0 F9000 X102.131 Y97.323
G1 F1800 X88.048 Y83.239 E46.14199
G0 F9000 X88.613 Y83.239
G1 F1800 X102.697 Y97.323 E47.13569
G0 F9000 X103.263 Y97.323
G1 F1800 X89.179 Y83.239 E48.12940
G0 F9000 X89.745 Y83.239
G1 F1800 X103.828 Y97.323 E49.12306
G0 F9000 X104.394 Y97.323
G1 F1800 X90.310 Y83.239 E50.11677
G0 F9000 X90.876 Y83.239
G1 F1800 X121.759 Y114.122 E52.29573
G0 F9000 X121.759 Y113.557
G1 F1800 X91.442 Y83.239 E54.43479
G0 F9000 X92.008 Y83.239
G1 F1800 X121.759 Y112.991 E56.53392
G0 F9000 X121.759 Y112.425
G1 F1800 X92.573 Y83.239 E58.59315
G0 F9000 X93.139 Y83.239
G1 F1800 X121.759 Y111.860 E60.61248
G0 F9000 X121.759 Y111.294
G1 F1800 X93.705 Y83.239 E62.59188
G0 F9000 X94.270 Y83.239
G1 F1800 X121.759 Y110.728 E64.53138
G0 F9000 X121.759 Y110.162
G1 F1800 X94.836 Y83.239 E66.43094
G0 F9000 X95.402 Y83.239
G1 F1800 X121.759 Y109.597 E68.29060
G0 F9000 X121.759 Y109.031
G1 F1800 X95.967 Y83.239 E70.11037
G0 F9000 X96.533 Y83.239
G1 F1800 X121.759 Y108.465 E71.89020
G0 F9000 X121.759 Y107.900
G1 F1800 X97.099 Y83.239 E73.63013
G0 F9000 X97.664 Y83.239
G1 F1800 X121.759 Y107.334 E75.33016
G0 F9000 X121.759 Y106.768
G1 F1800 X98.230 Y83.239 E76.99026
G0 F9000 X98.796 Y83.239
G1 F1800 X121.759 Y106.203 E78.61046
G0 F9000 X121.759 Y105.637
G1 F1800 X99.361 Y83.239 E80.19076
G0 F9000 X99.927 Y83.239
G1 F1800 X121.759 Y105.071 E81.73112
G0 F9000 X121.759 Y104.506
G1 F1800 X100.493 Y83.239 E83.23159
G0 F9000 X101.058 Y83.239
G1 F1800 X121.759 Y103.940 E84.69216
G0 F9000 X121.759 Y103.374
G1 F1800 X101.624 Y83.239 E86.11279
G0 F9000 X102.190 Y83.239
G1 F1800 X121.759 Y102.809 E87.49353
G0 F9000 X121.759 Y102.243
G1 F1800 X102.756 Y83.239 E88.83432
G0 F9000 X103.321 Y83.239
G1 F1800 X121.759 Y101.677 E90.13523
G0 F9000 X121.759 Y101.112
G1 F1800 X103.887 Y83.239 E91.39623
G0 F9000 X104.453 Y83.239
G1 F1800 X121.759 Y100.546 E92.61729
G0 F9000 X121.759 Y99.980
G1 F1800 X105.018 Y83.239 E93.79846
G0 F9000 X105.584 Y83.239
G1 F1800 X121.759 Y99.414 E94.93970
G0 F9000 X121.759 Y98.849
G1 F1800 X106.150 Y83.239 E96.04103
G0 F9000 X106.715 Y83.239
G1 F1800 X121.759 Y98.283 E97.10247
G0 F9000 X121.759 Y97.717
G1 F1800 X107.281 Y83.239 E98.12397
G0 F9000 X107.847 Y83.239
G1 F1800 X121.759 Y97.152 E99.10557
G0 F9000 X121.759 Y96.586
G1 F1800 X108.412 Y83.239 E100.04727
G0 F9000 X108.978 Y83.239
G1 F1800 X121.759 Y96.020 E100.94904
G0 F9000 X121.759 Y95.455
G1 F1800 X109.544 Y83.239 E101.81091
G0 F9000 X110.109 Y83.239
G1 F1800 X121.759 Y94.889 E102.63288
G0 F9000 X121.759 Y94.323
G1 F1800 X110.675 Y83.239 E103.41492
G0 F9000 X111.241 Y83.239
G1 F1800 X121.759 Y93.758 E104.15705
G0 F9000 X121.759 Y93.192
G1 F1800 X111.807 Y83.239 E104.85926
G0 F9000 X112.372 Y83.239
G1 F1800 X121.759 Y92.626 E105.52156
G0 F9000 X121.759 Y92.061
G1 F1800 X112.938 Y83.239 E106.14396
G0 F9000 X113.504 Y83.239
G1 F1800 X121.759 Y91.495 E106.72643
G0 F9000 X121.759 Y90.929
G1 F1800 X114.069 Y83.239 E107.26900
G0 F9000 X114.635 Y83.239
G1 F1800 X121.759 Y90.364 E107.77168
G0 F9000 X121.759 Y89.798
G1 F1800 X115.201 Y83.239 E108.23441
G0 F9000 X115.766 Y83.239
G1 F1800 X121.759 Y89.232 E108.65725
G0 F9000 X121.759 Y88.666
G1 F1800 X116.332 Y83.239 E109.04016
G0 F9000 X116.898 Y83.239
G1 F1800 X121.759 Y88.101 E109.38316
G0 F9000 X121.759 Y87.535
G1 F1800 X117.463 Y83.239 E109.68627
G0 F9000 X118.029 Y83.239
G1 F1800 X121.759 Y86.969 E109.94944
G0 F9000 X121.759 Y86.404
G1 F1800 X118.595 Y83.239 E110.17271
G0 F9000 X119.160 Y83.239
G1 F1800 X121.759 Y85.838 E110.35609
G0 F9000 X121.759 Y85.272
G1 F1800 X119.726 Y83.239 E110.49952
G0 F9000 X120.292 Y83.239
G1 F1800 X121.759 Y84.707 E110.60307
G0 F9000 X120.857 Y83.239
G1 F1800 X121.759 Y84.141 E110.66671
G0 F9000 X121.423 Y83.239
G1 F1800 X121.759 Y83.575 E110.69041
G0 F9000 X104.916 Y97.845
G1 F1800 X121.759 Y114.688 E111.87878
G0 F9000 X121.759 Y115.254
G1 F1800 X104.916 Y98.410 E113.06718
G0 F9000 X104.916 Y98.976
G1 F1800 X121.759 Y115.819 E114.25554
G0 F9000 X121.759 Y116.385
G1 F1800 X104.916 Y99.542 E115.44391
G0 F9000 X104.916 Y100.107
G1 F1800 X121.567 Y116.759 E116.61876
G0 F9000 X121.002 Y116.759
G1 F1800 X104.916 Y100.673 E117.75371
G0 F9000 X104.916 Y101.239
G1 F1800 X120.436 Y116.759 E118.84873
G0 F9000 X119.870 Y116.759
G1 F1800 X104.916 Y101.804 E119.90385
G0 F9000 X104.916 Y102.370
G1 F1800 X119.305 Y116.759 E120.91908
G0 F9000 X118.739 Y116.759
G1 F1800 X104.916 Y102.936 E121.89436
G0 F9000 X104.664 Y103.250
G1 F1800 X118.173 Y116.759 E122.84750
G0 F9000 X117.608 Y116.759
G1 F1800 X104.098 Y103.250 E123.80066
G0 F9000 X103.533 Y103.250
G1 F1800 X117.042 Y116.759 E124.75380
G0 F9000 X116.476 Y116.759
G1 F1800 X102.967 Y103.250 E125.70693
G0 F9000 X102.401 Y103.250
G1 F1800 X115.911 Y116.759 E126.66010
G0 F9000 X115.345 Y116.759
G1 F1800 X101.836 Y103.250 E127.61323
G0 F9000 X101.270 Y103.250
G1 F1800 X114.779 Y116.759 E128.56636
G0 F9000 X114.214 Y116.759
G1 F1800 X100.704 Y103.250 E129.51953
G0 F9000 X100.139 Y103.250
G1 F1800 X113.648 Y116.759 E130.47267
G0 F9000 X113.082 Y116.759
G1 F1800 X99.573 Y103.250 E131.42580
G0 F9000 X99.007 Y103.250
G1 F1800 X112.516 Y116.759 E132.37893
G0 F9000 X111.951 Y116.759
G1 F1800 X98.441 Y103.250 E133.33210
G0 F9000 X97.876 Y103.250
G1 F1800 X111.385 Y116.759 E134.28523
G0 F9000 X110.819 Y116.759
G1 F1800 X97.310 Y103.250 E135.23837
G0 F9000 X96.744 Y103.250
G1 F1800 X110.254 Y116.759 E136.19153
G0 F9000 X109.688 Y116.759
G1 F1800 X96.179 Y103.250 E137.14467
G0 F9000 X95.613 Y103.250
G1 F1800 X109.122 Y116.759 E138.09780
G0 F9000 X108.557 Y116.759
G1 F1800 X95.047 Y103.250 E139.05097
G0 F9000 X94.887 Y103.089
G1 F1800 X78.239 Y86.442 E140.22554
G0 F9000 X78.239 Y87.008
G1 F1800 X107.991 Y116.759 E142.32467
G0 F9000 X107.425 Y116.759
G1 F1800 X78.239 Y87.573 E144.38390
G0 F9000 X78.239 Y88.139
G1 F1800 X106.860 Y116.759 E146.40323
G0 F9000 X106.294 Y116.759
G1 F1800 X78.239 Y88.705 E148.38262
G0 F9000 X78.239 Y89.270
G1 F1800 X105.728 Y116.759 E150.32212
G0 F9000 X105.163 Y116.759
G1 F1800 X78.239 Y89.836 E152.22172
G0 F9000 X78.239 Y90.402
G1 F1800 X104.597 Y116.759 E154.08138
G0 F9000 X104.031 Y116.759
G1 F1800 X78.239 Y90.967 E155.90115
G0 F9000 X78.239 Y91.533
G1 F1800 X103.465 Y116.759 E157.68098
G0 F9000 X102.900 Y116.759
G1 F1800 X78.239 Y92.099 E159.42091
G0 F9000 X78.239 Y92.664
G1 F1800 X102.334 Y116.759 E161.12094
G0 F9000 X101.768 Y116.759
G1 F1800 X78.239 Y93.230 E162.78104
G0 F9000 X78.239 Y93.796
G1 F1800 X101.203 Y116.759 E164.40124
G0 F9000 X100.637 Y116.759
G1 F1800 X78.239 Y94.361 E165.98154
G0 F9000 X78.239 Y94.927
G1 F1800 X100.071 Y116.759 E167.52191
G0 F9000 X99.505 Y116.758
G1 F1800 X78.239 Y95.493 E169.02230
G0 F9000 X78.239 Y96.059
G1 F1800 X98.939 Y116.758 E170.48276
G0 F9000 X98.374 Y116.758
G1 F1800 X78.239 Y96.624 E171.90336
G0 F9000 X78.239 Y97.190
G1 F1800 X97.808 Y116.758 E173.28402
G0 F9000 X97.242 Y116.758
G1 F1800 X78.239 Y97.756 E174.62475
G0 F9000 X78.239 Y98.321
G1 F1800 X96.677 Y116.758 E175.92562
G0 F9000 X96.111 Y116.758
G1 F1800 X78.239 Y98.887 E177.18655
G0 F9000 X78.239 Y99.453
G1 F1800 X95.545 Y116.758 E178.40755
G0 F9000 X94.979 Y116.758
G1 F1800 X78.239 Y100.018 E179.58864
G0 F9000 X78.239 Y100.584
G1 F1800 X94.414 Y116.758 E180.72984
G0 F9000 X93.848 Y116.758
G1 F1800 X78.239 Y101.150 E181.83111
G0 F9000 X78.239 Y101.715
G1 F1800 X93.282 Y116.758 E182.89247
G0 F9000 X92.717 Y116.758
G1 F1800 X78.239 Y102.281 E183.91394
G0 F9000 X78.239 Y102.847
G1 F1800 X92.151 Y116.758 E184.89547
G0 F9000 X91.585 Y116.758
G1 F1800 X78.239 Y103.412 E185.83710
G0 F9000 X78.239 Y103.978
G1 F1800 X91.020 Y116.758 E186.73883
G0 F9000 X90.454 Y116.758
G1 F1800 X78.239 Y104.544 E187.60063
G0 F9000 X78.239 Y105.110
G1 F1800 X89.888 Y116.758 E188.42250
G0 F9000 X89.323 Y116.758
G1 F1800 X78.239 Y105.675 E189.20450
G0 F9000 X78.239 Y106.241
G1 F1800 X88.757 Y116.758 E189.94656
G0 F9000 X88.191 Y116.758
G1 F1800 X78.239 Y106.807 E190.64870
G0 F9000 X78.239 Y107.372
G1 F1800 X87.626 Y116.758 E191.31097
G0 F9000 X87.060 Y116.758
G1 F1800 X78.239 Y107.938 E191.93330
G0 F9000 X78.239 Y108.504
G1 F1800 X86.494 Y116.758 E192.51570
G0 F9000 X85.929 Y116.758
G1 F1800 X78.239 Y109.069 E193.05823
G0 F9000 X78.239 Y109.635
G1 F1800 X85.363 Y116.758 E193.56084
G0 F9000 X84.797 Y116.758
G1 F1800 X78.239 Y110.201 E194.02350
G0 F9000 X78.239 Y110.766
G1 F1800 X84.231 Y116.758 E194.44627
G0 F9000 X83.666 Y116.758
G1 F1800 X78.239 Y111.332 E194.82914
G0 F9000 X78.239 Y111.898
G1 F1800 X83.100 Y116.758 E195.17207
G0 F9000 X82.534 Y116.758
G1 F1800 X78.239 Y112.463 E195.47511
G0 F9000 X78.239 Y113.029
G1 F1800 X81.969 Y116.758 E195.73825
G0 F9000 X81.403 Y116.758
G1 F1800 X78.239 Y113.595 E195.96145
G0 F9000 X78.239 Y114.160
G1 F1800 X80.837 Y116.758 E196.14475
G0 F9000 X80.272 Y116.758
G1 F1800 X78.239 Y114.726 E196.28815
G0 F9000 X78.239 Y115.292
G1 F1800 X79.706 Y116.758 E196.39162
G0 F9000 X78.239 Y115.858
G1 F1800 X79.140 Y116.758 E196.45516
G0 F9000 X78.239 Y116.423
G1 F1800 X78.575 Y116.758 E196.47883
G0 F9000 X94.887 Y102.524
G1 F1800 X78.239 Y85.876 E197.65344
G0 F9000 X78.239 Y85.311
G1 F1800 X94.887 Y101.958 E198.82801
G0 F9000 X94.887 Y101.392
G1 F1800 X78.239 Y84.745 E200.00258
G0 F9000 X78.239 Y84.179
G1 F1800 X94.887 Y100.827 E201.17719
G0 F9000 X94.887 Y100.261
G1 F1800 X78.239 Y83.613 E202.35179
;LAYER:1
M106 S63
G0 F9000 X78.100 Y83.100 Z0.500
;TYPE:WALL-INNER
G1 F2460 X121.900 Y83.100 E203.80859
G1 X121.900 Y116.900 E204.93278
G1 X78.100 Y116.900 E206.38957
G1 X78.100 Y83.100 E207.51376
G0 F9000 X95.027 Y97.464
G1 F2460 X95.027 Y103.110 E207.70155
G1 X104.777 Y103.110 E208.02584
G1 X104.777 Y97.464 E208.21362
G1 X95.027 Y97.464 E208.53791
G0 F9000 X95.427 Y97.864
;TYPE:WALL-OUTER
G1 F1920 X95.427 Y102.710 E208.69909
G1 X104.377 Y102.710 E208.99677
G1 X104.377 Y97.864 E209.15795
G1 X95.427 Y97.864 E209.45562
G0 F9000 X95.427 Y97.564
G0 X78.000 Y82.910
G0 X77.700 Y82.700
G1 F1920 X122.300 Y82.700 E210.93903
G1 X122.300 Y117.300 E212.08983
G1 X77.700 Y117.300 E213.57323
G1 X77.700 Y82.700 E214.72403
G0 F9000 X78.239 Y83.828
;TYPE:FILL
G1 F2460 X78.829 Y83.239 E214.75176
G0 F9000 X78.239 Y84.394
G1 F2460 X79.395 Y83.239 E214.80611
G0 F9000 X78.239 Y84.960
G1 F2460 X79.961 Y83.239 E214.88708
G0 F9000 X80.526 Y83.239
G1 F2460 X78.239 Y85.525 E214.99463
G0 F9000 X78.239 Y86.091
G1 F2460 X81.092 Y83.239 E215.12881
G0 F9000 X81.658 Y83.239
G1 F2460 X78.239 Y86.657 E215.28960
G0 F9000 X78.239 Y87.223
G1 F2460 X82.223 Y83.239 E215.47700
G0 F9000 X82.789 Y83.239
G1 F2460 X78.239 Y87.788 E215.69099
G0 F9000 X78.239 Y88.354
G1 F2460 X83.355 Y83.239 E215.93161
G0 F9000 X83.920 Y83.239
G1 F2460 X78.239 Y88.920 E216.19883
G0 F9000 X78.239 Y89.485
G1 F2460 X84.486 Y83.239 E216.49264
G0 F9000 X85.052 Y83.239
G1 F2460 X78.239 Y90.051 E216.81308
G0 F9000 X78.239 Y90.617
G1 F2460 X85.617 Y83.239 E217.16012
G0 F9000 X86.183 Y83.239
G1 F2460 X78.239 Y91.182 E217.53376
G0 F9000 X78.239 Y91.748
G1 F2460 X86.749 Y83.239 E217.93402
G0 F9000 X87.314 Y83.239
G1 F2460 X78.239 Y92.314 E218.36088
G0 F9000 X78.239 Y92.879
G1 F2460 X87.880 Y83.239 E218.81434
G0 F9000 X88.446 Y83.239
G1 F2460 X78.239 Y93.445 E219.29442
G0 F9000 X78.239 Y94.011
G1 F2460 X89.012 Y83.239 E219.80113
G0 F9000 X89.577 Y83.239
G1 F2460 X78.239 Y94.576 E220.33441
G0 F9000 X78.239 Y95.142
G1 F2460 X90.143 Y83.239 E220.89431
G0 F9000 X90.709 Y83.239
G1 F2460 X78.239 Y95.708 E221.48084
G0 F9000 X78.239 Y96.274
G1 F2460 X91.274 Y83.239 E222.09396
G0 F9000 X91.840 Y83.239
G1 F2460 X78.239 Y96.839 E222.73369
G0 F9000 X78.239 Y97.405
G1 F2460 X92.406 Y83.239 E223.40004
G0 F9000 X92.971 Y83.239
G1 F2460 X78.239 Y97.971 E224.09299
G0 F9000 X78.239 Y98.536
G1 F2460 X93.537 Y83.239 E224.81253
G0 F9000 X94.103 Y83.239
G1 F2460 X78.239 Y99.102 E225.55871
G0 F9000 X78.239 Y99.668
G1 F2460 X94.668 Y83.239 E226.33148
G0 F9000 X95.234 Y83.239
G1 F2460 X78.239 Y100.233 E227.13084
G0 F9000 X78.239 Y100.799
G1 F2460 X95.800 Y83.239 E227.95684
G0 F9000 X96.365 Y83.239
G1 F2460 X78.239 Y101.365 E228.80943
G0 F9000 X78.239 Y101.930
G1 F2460 X96.931 Y83.239 E229.68862
G0 F9000 X97.497 Y83.239
G1 F2460 X78.239 Y102.496 E230.59443
G0 F9000 X78.239 Y103.062
G1 F2460 X98.062 Y83.239 E231.52685
G0 F9000 X98.628 Y83.239
G1 F2460 X78.239 Y103.627 E232.48586
G0 F9000 X78.239 Y104.193
G1 F2460 X99.194 Y83.239 E233.47149
G0 F9000 X99.760 Y83.239
G1 F2460 X78.239 Y104.759 E234.48375
G0 F9000 X78.239 Y105.324
G1 F2460 X100.325 Y83.239 E235.52259
G0 F9000 X100.891 Y83.239
G1 F2460 X78.239 Y105.890 E236.58804
G0 F9000 X78.239 Y106.456
G1 F2460 X101.457 Y83.239 E237.68012
G0 F9000 X102.022 Y83.239
G1 F2460 X78.239 Y107.022 E238.79880
G0 F9000 X78.239 Y107.587
G1 F2460 X102.588 Y83.239 E239.94408
G0 F9000 X103.154 Y83.239
G1 F2460 X78.239 Y108.153 E241.11598
G0 F9000 X78.239 Y108.719
G1 F2460 X103.719 Y83.239 E242.31448
G0 F9000 X104.285 Y83.239
G1 F2460 X78.239 Y109.284 E243.53958
G0 F9000 X78.239 Y109.850
G1 F2460 X104.851 Y83.239 E244.79131
G0 F9000 X105.416 Y83.239
G1 F2460 X78.239 Y110.416 E246.06963
G0 F9000 X78.239 Y110.981
G1 F2460 X105.982 Y83.239 E247.37455
G0 F9000 X106.548 Y83.239
G1 F2460 X78.239 Y111.547 E248.70610
G0 F9000 X78.239 Y112.113
G1 F2460 X107.113 Y83.239 E250.06424
G0 F9000 X107.679 Y83.239
G1 F2460 X78.239 Y112.678 E251.44899
G0 F9000 X78.239 Y113.244
