;Generated with Cura_SteamEngine 14.09
; Default start code
G28 ; Home extruder
G1 Z15 F100
M107 ; Turn off fan
G90 ; Absolute positioning
M82 ; Extruder in absolute mode
M190 S50
; Activate all used extruder
M104 T0 S210
G92 E0 ; Reset extruder position
; Wait for all used extruders to reach temperature
M109 T0 S210
;Layer count: 15
;LAYER:0
M107
G0 F9000 X56.800 Y16.799 Z0.300
;TYPE:SKIRT
G1 F1800 X143.200 Y16.799 E4.31051
G1 X143.200 Y183.200 E12.61229
G1 X56.800 Y183.200 E16.92281
G1 X56.800 Y149.396 E18.60930
G1 X76.800 Y149.396 E19.60710
G1 X76.800 Y125.796 E20.78451
G1 X56.800 Y125.796 E21.78231
G1 X56.800 Y16.799 E27.22019
G1 F2400 E23.22019
G0 F9000 X60.600 Y20.599
;TYPE:WALL-INNER
G1 F2400 E27.22019
G1 F1800 X139.400 Y20.599 E31.15154
G1 X139.400 Y179.400 E39.07416
G1 X60.600 Y179.400 E43.00550
G1 X60.600 Y153.196 E44.31283
G1 X80.600 Y153.196 E45.31063
G1 X80.600 Y121.996 E46.86721
G1 X60.600 Y121.996 E47.86501
G1 X60.600 Y20.599 E52.92373
G0 F9000 X60.200 Y20.199
;TYPE:WALL-OUTER
G1 F1800 X139.800 Y20.199 E56.89499
G1 X139.800 Y179.800 E64.85751
G1 X60.200 Y179.800 E68.82877
G1 X60.200 Y152.796 E70.17601
G1 X80.200 Y152.796 E71.17381
G1 X80.200 Y122.396 E72.69047
G1 X60.200 Y122.396 E73.68828
G1 X60.200 Y20.199 E78.78691
G0 F9000 X60.739 Y20.858
;TYPE:FILL
G1 F1800 X139.259 Y99.378 E84.32692
G0 F9000 X139.259 Y98.813
G1 F1800 X61.185 Y20.739 E89.83546
G0 F9000 X61.751 Y20.739
G1 F1800 X139.259 Y98.247 E95.30407
G0 F9000 X139.259 Y97.681
G1 F1800 X62.317 Y20.739 E100.73274
G0 F9000 X62.883 Y20.739
G1 F1800 X139.259 Y97.116 E106.12152
G0 F9000 X139.259 Y96.550
G1 F1800 X63.448 Y20.739 E111.47039
G0 F9000 X64.014 Y20.739
G1 F1800 X139.259 Y95.984 E116.77933
G0 F9000 X139.259 Y95.419
G1 F1800 X64.580 Y20.739 E122.04837
G0 F9000 X65.145 Y20.739
G1 F1800 X139.259 Y94.853 E127.27752
G0 F9000 X139.259 Y94.287
G1 F1800 X65.711 Y20.739 E132.46673
G0 F9000 X66.277 Y20.739
G1 F1800 X139.259 Y93.722 E137.61604
G0 F9000 X139.259 Y93.156
G1 F1800 X66.842 Y20.739 E142.72545
G0 F9000 X67.408 Y20.739
G1 F1800 X139.259 Y92.590 E147.79492
G0 F9000 X139.259 Y92.024
G1 F1800 X67.974 Y20.739 E152.82446
G0 F9000 X68.539 Y20.739
G1 F1800 X139.259 Y91.459 E157.81414
G0 F9000 X139.259 Y90.893
G1 F1800 X69.105 Y20.739 E162.76389
G0 F9000 X69.671 Y20.739
G1 F1800 X139.259 Y90.327 E167.67370
G0 F9000 X139.259 Y89.762
G1 F1800 X70.236 Y20.739 E172.54364
G0 F9000 X70.802 Y20.739
G1 F1800 X139.259 Y89.196 E177.37365
G0 F9000 X139.259 Y88.630
G1 F1800 X71.368 Y20.739 E182.16373
G0 F9000 X71.933 Y20.739
G1 F1800 X139.259 Y88.065 E186.91394
G0 F9000 X139.259 Y87.499
G1 F1800 X72.499 Y20.739 E191.62422
G0 F9000 X73.065 Y20.739
G1 F1800 X139.259 Y86.933 E196.29456
G0 F9000 X139.259 Y86.368
G1 F1800 X73.631 Y20.739 E200.92501
G0 F9000 X74.196 Y20.739
G1 F1800 X139.259 Y85.802 E205.51556
G0 F9000 X139.259 Y85.236
G1 F1800 X74.762 Y20.739 E210.06617
G0 F9000 X75.328 Y20.739
G1 F1800 X139.259 Y84.671 E214.57688
G0 F9000 X139.259 Y84.105
G1 F1800 X75.893 Y20.739 E219.04769
G0 F9000 X76.459 Y20.739
G1 F1800 X139.259 Y83.539 E223.47857
G0 F9000 X139.259 Y82.974
G1 F1800 X77.025 Y20.739 E227.86955
G0 F9000 X77.590 Y20.739
G1 F1800 X139.259 Y82.408 E232.22063
G0 F9000 X139.259 Y81.842
G1 F1800 X78.156 Y20.739 E236.53178
G0 F9000 X78.722 Y20.739
G1 F1800 X139.259 Y81.276 E240.80299
G0 F9000 X139.259 Y80.711
G1 F1800 X79.287 Y20.739 E245.03434
G0 F9000 X79.853 Y20.739
G1 F1800 X139.259 Y80.145 E249.22576
G0 F9000 X139.259 Y79.579
G1 F1800 X80.419 Y20.739 E253.37724
G0 F9000 X80.984 Y20.739
G1 F1800 X139.259 Y79.014 E257.48885
G0 F9000 X139.259 Y78.448
G1 F1800 X81.550 Y20.739 E261.56053
G0 F9000 X82.116 Y20.739
G1 F1800 X139.259 Y77.882 E265.59228
G0 F9000 X139.259 Y77.317
G1 F1800 X82.681 Y20.739 E269.58416
G0 F9000 X83.247 Y20.739
G1 F1800 X139.259 Y76.751 E273.53611
G0 F9000 X139.259 Y76.185
G1 F1800 X83.813 Y20.739 E277.44813
G0 F9000 X84.379 Y20.739
G1 F1800 X139.259 Y75.620 E281.32024
G0 F9000 X139.259 Y75.054
G1 F1800 X84.944 Y20.739 E285.15246
G0 F9000 X85.510 Y20.739
G1 F1800 X139.259 Y74.488 E288.94474
G0 F9000 X139.259 Y73.923
G1 F1800 X86.076 Y20.739 E292.69713
G0 F9000 X86.641 Y20.739
G1 F1800 X139.259 Y73.357 E296.40961
G0 F9000 X139.259 Y72.791
G1 F1800 X87.207 Y20.739 E300.08216
G0 F9000 X87.773 Y20.739
G1 F1800 X139.259 Y72.226 E303.71481
G0 F9000 X139.259 Y71.660
G1 F1800 X88.338 Y20.739 E307.30756
G0 F9000 X88.904 Y20.739
G1 F1800 X139.259 Y71.094 E310.86038
G0 F9000 X139.259 Y70.528
G1 F1800 X89.470 Y20.739 E314.37326
G0 F9000 X90.035 Y20.739
G1 F1800 X139.259 Y69.963 E317.84628
G0 F9000 X139.259 Y69.397
G1 F1800 X90.601 Y20.739 E321.27937
G0 F9000 X91.167 Y20.739
G1 F1800 X139.259 Y68.831 E324.67252
G0 F9000 X139.259 Y68.266
G1 F1800 X91.732 Y20.739 E328.02580
G0 F9000 X92.298 Y20.739
G1 F1800 X139.259 Y67.700 E331.33915
G0 F9000 X139.259 Y67.134
G1 F1800 X92.864 Y20.739 E334.61257
G0 F9000 X93.430 Y20.739
G1 F1800 X139.259 Y66.569 E337.84609
G0 F9000 X139.259 Y66.003
G1 F1800 X93.995 Y20.739 E341.03971
G0 F9000 X94.561 Y20.739
G1 F1800 X139.259 Y65.437 E344.19340
G0 F9000 X139.259 Y64.872
G1 F1800 X95.127 Y20.739 E347.30718
G0 F9000 X95.692 Y20.739
G1 F1800 X139.259 Y64.306 E350.38107
G0 F9000 X139.259 Y63.740
G1 F1800 X96.258 Y20.739 E353.41502
G0 F9000 X96.824 Y20.739
G1 F1800 X139.259 Y63.175 E356.40908
G0 F9000 X139.259 Y62.609
G1 F1800 X97.389 Y20.739 E359.36323
G0 F9000 X97.955 Y20.739
G1 F1800 X139.259 Y62.043 E362.27745
G0 F9000 X139.259 Y61.477
G1 F1800 X98.521 Y20.739 E365.15174
G0 F9000 X99.086 Y20.739
G1 F1800 X139.259 Y60.912 E367.98616
G0 F9000 X139.259 Y60.346
G1 F1800 X99.652 Y20.739 E370.78065
G0 F9000 X100.218 Y20.739
G1 F1800 X139.259 Y59.780 E373.53520
G0 F9000 X139.259 Y59.215
G1 F1800 X100.783 Y20.739 E376.24989
G0 F9000 X101.349 Y20.739
G1 F1800 X139.259 Y58.649 E378.92464
G0 F9000 X139.259 Y58.083
G1 F1800 X101.915 Y20.739 E381.55947
G0 F9000 X102.480 Y20.739
G1 F1800 X139.259 Y57.518 E384.15442
G0 F9000 X139.259 Y56.952
G1 F1800 X103.046 Y20.739 E386.70945
G0 F9000 X103.612 Y20.739
G1 F1800 X139.259 Y56.386 E389.22453
G0 F9000 X139.259 Y55.821
G1 F1800 X104.178 Y20.739 E391.69972
G0 F9000 X104.743 Y20.739
G1 F1800 X139.259 Y55.255 E394.13501
G0 F9000 X139.259 Y54.689
G1 F1800 X105.309 Y20.739 E396.53037
G0 F9000 X105.875 Y20.739
G1 F1800 X139.259 Y54.124 E398.88583
G0 F9000 X139.259 Y53.558
G1 F1800 X106.440 Y20.739 E401.20138
G0 F9000 X107.006 Y20.739
G1 F1800 X139.259 Y52.992 E403.47701
G0 F9000 X139.259 Y52.427
G1 F1800 X107.572 Y20.739 E405.71273
G0 F9000 X108.137 Y20.739
G1 F1800 X139.259 Y51.861 E407.90856
G0 F9000 X139.259 Y51.295
G1 F1800 X108.703 Y20.739 E410.06445
G0 F9000 X109.269 Y20.739
G1 F1800 X139.259 Y50.729 E412.18040
G0 F9000 X139.259 Y50.164
G1 F1800 X109.834 Y20.739 E414.25650
G0 F9000 X110.400 Y20.739
G1 F1800 X139.259 Y49.598 E416.29265
G0 F9000 X139.259 Y49.032
G1 F1800 X110.966 Y20.739 E418.28888
G0 F9000 X111.531 Y20.739
G1 F1800 X139.259 Y48.467 E420.24524
G0 F9000 X139.259 Y47.901
G1 F1800 X112.097 Y20.739 E422.16166
G0 F9000 X112.663 Y20.739
G1 F1800 X139.259 Y47.335 E424.03816
G0 F9000 X139.259 Y46.770
G1 F1800 X113.229 Y20.739 E425.87475
G0 F9000 X113.794 Y20.739
G1 F1800 X139.259 Y46.204 E427.67144
G0 F9000 X139.259 Y45.638
G1 F1800 X114.360 Y20.739 E429.42820
G0 F9000 X114.926 Y20.739
G1 F1800 X139.259 Y45.073 E431.14506
G0 F9000 X139.259 Y44.507
G1 F1800 X115.491 Y20.739 E432.82202
G0 F9000 X116.057 Y20.739
G1 F1800 X139.259 Y43.941 E434.45905
G0 F9000 X139.259 Y43.376
G1 F1800 X116.623 Y20.739 E436.05618
G0 F9000 X117.188 Y20.739
G1 F1800 X139.259 Y42.810 E437.61340
G0 F9000 X139.259 Y42.244
G1 F1800 X117.754 Y20.739 E439.13070
G0 F9000 X118.320 Y20.739
G1 F1800 X139.259 Y41.678 E440.60806
G0 F9000 X139.259 Y41.113
G1 F1800 X118.885 Y20.739 E442.04555
G0 F9000 X119.451 Y20.739
G1 F1800 X139.259 Y40.547 E443.44311
G0 F9000 X139.259 Y39.981
G1 F1800 X120.017 Y20.739 E444.80074
G0 F9000 X120.582 Y20.739
G1 F1800 X139.259 Y39.416 E446.11850
G0 F9000 X139.259 Y38.850
G1 F1800 X121.148 Y20.739 E447.39633
G0 F9000 X121.714 Y20.739
G1 F1800 X139.259 Y38.284 E448.63423
G0 F9000 X139.259 Y37.719
G1 F1800 X122.279 Y20.739 E449.83226
G0 F9000 X122.845 Y20.739
G1 F1800 X139.259 Y37.153 E450.99035
G0 F9000 X139.259 Y36.587
G1 F1800 X123.411 Y20.739 E452.10852
G0 F9000 X123.977 Y20.739
G1 F1800 X139.259 Y36.022 E453.18678
G0 F9000 X139.259 Y35.456
G1 F1800 X124.542 Y20.739 E454.22514
G0 F9000 X125.108 Y20.739
G1 F1800 X139.259 Y34.890 E455.22357
G0 F9000 X139.259 Y34.325
G1 F1800 X125.674 Y20.739 E456.18210
G0 F9000 X126.239 Y20.739
G1 F1800 X139.259 Y33.759 E457.10073
G0 F9000 X139.259 Y33.193
G1 F1800 X126.805 Y20.739 E457.97943
G0 F9000 X127.371 Y20.739
G1 F1800 X139.259 Y32.628 E458.81823
G0 F9000 X139.259 Y32.062
G1 F1800 X127.936 Y20.739 E459.61713
G0 F9000 X128.502 Y20.739
G1 F1800 X139.259 Y31.496 E460.37609
G0 F9000 X139.259 Y30.930
G1 F1800 X129.068 Y20.739 E461.09512
G0 F9000 X129.633 Y20.739
G1 F1800 X139.259 Y30.365 E461.77429
G0 F9000 X139.259 Y29.799
G1 F1800 X130.199 Y20.739 E462.41352
G0 F9000 X130.765 Y20.739
G1 F1800 X139.259 Y29.233 E463.01282
G0 F9000 X139.259 Y28.668
G1 F1800 X131.330 Y20.739 E463.57225
G0 F9000 X131.896 Y20.739
G1 F1800 X139.259 Y28.102 E464.09175
G0 F9000 X139.259 Y27.536
G1 F1800 X132.462 Y20.739 E464.57132
G0 F9000 X133.027 Y20.739
G1 F1800 X139.259 Y26.971 E465.01102
G0 F9000 X139.259 Y26.405
G1 F1800 X133.593 Y20.739 E465.41079
G0 F9000 X134.159 Y20.739
G1 F1800 X139.259 Y25.839 E465.77062
G0 F9000 X139.259 Y25.274
G1 F1800 X134.725 Y20.739 E466.09055
G0 F9000 X135.290 Y20.739
G1 F1800 X139.259 Y24.708 E466.37059
G0 F9000 X139.259 Y24.142
G1 F1800 X135.856 Y20.739 E466.61069
G0 F9000 X136.422 Y20.739
G1 F1800 X139.259 Y23.577 E466.81089
G0 F9000 X139.259 Y23.011
G1 F1800 X136.987 Y20.739 E466.97119
G0 F9000 X137.553 Y20.739
G1 F1800 X139.259 Y22.445 E467.09156
G0 F9000 X138.119 Y20.739
G1 F1800 X139.259 Y21.880 E467.17202
G0 F9000 X138.684 Y20.739
G1 F1800 X139.259 Y21.314 E467.21259
G0 F9000 X60.739 Y21.423
G1 F1800 X139.259 Y99.944 E472.75264
G0 F9000 X139.259 Y100.510
G1 F1800 X60.739 Y21.989 E478.29268
G0 F9000 X60.739 Y22.555
G1 F1800 X139.259 Y101.075 E483.83269
G0 F9000 X139.259 Y101.641
G1 F1800 X60.739 Y23.120 E489.37274
G0 F9000 X60.739 Y23.686
G1 F1800 X139.259 Y102.207 E494.91279
G0 F9000 X139.259 Y102.773
G1 F1800 X60.739 Y24.252 E500.45283
G0 F9000 X60.739 Y24.818
G1 F1800 X139.259 Y103.338 E505.99284
G0 F9000 X139.259 Y103.904
G1 F1800 X60.739 Y25.383 E511.53289
G0 F9000 X60.739 Y25.949
G1 F1800 X139.259 Y104.470 E517.07293
G0 F9000 X139.259 Y105.035
G1 F1800 X60.739 Y26.515 E522.61294
G0 F9000 X60.739 Y27.080
G1 F1800 X139.259 Y105.601 E528.15299
G0 F9000 X139.259 Y106.167
G1 F1800 X60.739 Y27.646 E533.69303
G0 F9000 X60.739 Y28.212
G1 F1800 X139.259 Y106.732 E539.23304
G0 F9000 X139.259 Y107.298
G1 F1800 X60.739 Y28.777 E544.77309
G0 F9000 X60.739 Y29.343
G1 F1800 X139.259 Y107.864 E550.31313
G0 F9000 X139.259 Y108.429
G1 F1800 X60.739 Y29.909 E555.85314
G0 F9000 X60.739 Y30.474
G1 F1800 X139.259 Y108.995 E561.39319
G0 F9000 X139.259 Y109.561
G1 F1800 X60.739 Y31.040 E566.93323
G0 F9000 X60.739 Y31.606
G1 F1800 X139.259 Y110.126 E572.47324
G0 F9000 X139.259 Y110.692
G1 F1800 X60.739 Y32.171 E578.01329
G0 F9000 X60.739 Y32.737
G1 F1800 X139.259 Y111.258 E583.55333
G0 F9000 X139.259 Y111.823
G1 F1800 X60.739 Y33.303 E589.09334
G0 F9000 X60.739 Y33.869
G1 F1800 X139.259 Y112.389 E594.63335
G0 F9000 X139.259 Y112.955
G1 F1800 X60.739 Y34.434 E600.17340
G0 F9000 X60.739 Y35.000
G1 F1800 X139.259 Y113.521 E605.71345
G0 F9000 X139.259 Y114.086
G1 F1800 X60.739 Y35.566 E611.25346
G0 F9000 X60.739 Y36.131
G1 F1800 X139.259 Y114.652 E616.79350
G0 F9000 X139.259 Y115.218
G1 F1800 X60.739 Y36.697 E622.33355
G0 F9000 X60.739 Y37.263
G1 F1800 X139.259 Y115.783 E627.87356
G0 F9000 X139.259 Y116.349
G1 F1800 X60.739 Y37.828 E633.41360
G0 F9000 X60.739 Y38.394
G1 F1800 X139.259 Y116.915 E638.95365
G0 F9000 X139.259 Y117.480
G1 F1800 X60.739 Y38.960 E644.49366
G0 F9000 X60.739 Y39.525
G1 F1800 X139.259 Y118.046 E650.03370
G0 F9000 X139.259 Y118.612
G1 F1800 X60.739 Y40.091 E655.57375
G0 F9000 X60.739 Y40.657
G1 F1800 X139.259 Y119.177 E661.11376
G0 F9000 X139.259 Y119.743
G1 F1800 X60.739 Y41.222 E666.65380
G0 F9000 X60.739 Y41.788
G1 F1800 X139.259 Y120.309 E672.19385
G0 F9000 X139.259 Y120.874
G1 F1800 X60.739 Y42.354 E677.73386
G0 F9000 X60.739 Y42.919
G1 F1800 X139.259 Y121.440 E683.27390
G0 F9000 X139.259 Y122.006
G1 F1800 X60.739 Y43.485 E688.81395
G0 F9000 X60.739 Y44.051
G1 F1800 X139.259 Y122.572 E694.35400
G0 F9000 X139.259 Y123.137
G1 F1800 X60.739 Y44.617 E699.89401
G0 F9000 X60.739 Y45.182
G1 F1800 X139.259 Y123.703 E705.43405
G0 F9000 X139.259 Y124.269
G1 F1800 X60.739 Y45.748 E710.97410
G0 F9000 X60.739 Y46.314
G1 F1800 X139.259 Y124.834 E716.51411
G0 F9000 X139.259 Y125.400
G1 F1800 X60.739 Y46.879 E722.05415
G0 F9000 X60.739 Y47.445
G1 F1800 X139.259 Y125.966 E727.59420
G0 F9000 X139.259 Y126.531
G1 F1800 X60.739 Y48.011 E733.13421
G0 F9000 X60.739 Y48.576
G1 F1800 X139.259 Y127.097 E738.67425
G0 F9000 X139.259 Y127.663
G1 F1800 X60.739 Y49.142 E744.21430
G0 F9000 X60.739 Y49.708
G1 F1800 X139.259 Y128.228 E749.75431
G0 F9000 X139.259 Y128.794
G1 F1800 X60.739 Y50.273 E755.29435
G0 F9000 X60.739 Y50.839
G1 F1800 X139.259 Y129.360 E760.83440
G0 F9000 X139.259 Y129.925
G1 F1800 X60.739 Y51.405 E766.37441
G0 F9000 X60.739 Y51.970
G1 F1800 X139.259 Y130.491 E771.91445
G0 F9000 X139.259 Y131.057
G1 F1800 X60.739 Y52.536 E777.45450
G0 F9000 X60.739 Y53.102
G1 F1800 X139.259 Y131.622 E782.99451
G0 F9000 X139.259 Y132.188
G1 F1800 X60.739 Y53.667 E788.53455
G0 F9000 X60.739 Y54.233
G1 F1800 X139.259 Y132.754 E794.07460
G0 F9000 X139.259 Y133.320
G1 F1800 X60.739 Y54.799 E799.61465
G0 F9000 X60.739 Y55.365
G1 F1800 X139.259 Y133.885 E805.15466
G0 F9000 X139.259 Y134.451
G1 F1800 X60.739 Y55.930 E810.69470
G0 F9000 X60.739 Y56.496
G1 F1800 X139.259 Y135.017 E816.23475
G0 F9000 X139.259 Y135.582
G1 F1800 X60.739 Y57.062 E821.77476
G0 F9000 X60.739 Y57.627
G1 F1800 X139.259 Y136.148 E827.31480
G0 F9000 X139.259 Y136.714
G1 F1800 X60.739 Y58.193 E832.85485
G0 F9000 X60.739 Y58.759
G1 F1800 X139.259 Y137.279 E838.39486
G0 F9000 X139.259 Y137.845
G1 F1800 X60.739 Y59.324 E843.93490
G0 F9000 X60.739 Y59.890
G1 F1800 X139.259 Y138.411 E849.47495
G0 F9000 X139.259 Y138.976
G1 F1800 X60.739 Y60.456 E855.01496
G0 F9000 X60.739 Y61.021
G1 F1800 X139.259 Y139.542 E860.55500
G0 F9000 X139.259 Y140.108
G1 F1800 X60.739 Y61.587 E866.09505
G0 F9000 X60.739 Y62.153
G1 F1800 X139.259 Y140.673 E871.63506
G0 F9000 X139.259 Y141.239
G1 F1800 X60.739 Y62.718 E877.17510
G0 F9000 X60.739 Y63.284
G1 F1800 X139.259 Y141.805 E882.71515
G0 F9000 X139.259 Y142.371
G1 F1800 X60.739 Y63.850 E888.25520
G0 F9000 X60.739 Y64.416
G1 F1800 X139.259 Y142.936 E893.79521
G0 F9000 X139.259 Y143.502
G1 F1800 X60.739 Y64.981 E899.33525
G0 F9000 X60.739 Y65.547
G1 F1800 X139.259 Y144.068 E904.87530
G0 F9000 X139.259 Y144.633
G1 F1800 X60.739 Y66.113 E910.41531
G0 F9000 X60.739 Y66.678
G1 F1800 X139.259 Y145.199 E915.95535
G0 F9000 X139.259 Y145.765
G1 F1800 X60.739 Y67.244 E921.49540
G0 F9000 X60.739 Y67.810
G1 F1800 X139.259 Y146.330 E927.03541
G0 F9000 X139.259 Y146.896
G1 F1800 X60.739 Y68.375 E932.57545
G0 F9000 X60.739 Y68.941
G1 F1800 X139.259 Y147.462 E938.11550
G0 F9000 X139.259 Y148.027
G1 F1800 X60.739 Y69.507 E943.65551
G0 F9000 X60.739 Y70.072
G1 F1800 X139.259 Y148.593 E949.19555
G0 F9000 X139.259 Y149.159
G1 F1800 X60.739 Y70.638 E954.73560
