;Generated with Cura_SteamEngine 14.09
; Default start code
G28 ; Home extruder
G1 Z15 F100
M107 ; Turn off fan
G90 ; Absolute positioning
M82 ; Extruder in absolute mode
M190 S50
; Activate all used extruder
M104 T0 S210
G92 E0 ; Reset extruder position
; Wait for all used extruders to reach temperature
M109 T0 S210
;Layer count: 15
;LAYER:-2
;RAFT
G0 F9000 X108.500 Y62.500 Z0.300
;TYPE:SUPPORT
G1 F1800 X131.329 Y62.500 E1.99315
G1 X131.329 Y75.649 E3.14116
G1 X129.247 Y75.649 E3.32294
G1 X129.451 Y76.013 E3.35937
G1 X129.912 Y77.144 E3.46600
G1 X130.186 Y78.074 E3.55065
G1 X130.383 Y79.145 E3.64572
G1 X130.447 Y79.729 E3.69702
G1 X130.478 Y80.557 E3.76936
G1 X130.439 Y81.453 E3.84766
G1 X130.280 Y82.544 E3.94392
G1 X130.136 Y83.170 E4.00000
G1 X129.788 Y84.266 E4.10040
G1 X129.259 Y85.424 E4.21155
G1 X128.615 Y86.467 E4.31857
G1 X128.028 Y87.233 E4.40283
G1 X127.200 Y88.111 E4.50820
G1 X126.218 Y88.923 E4.61945
G1 X125.191 Y89.580 E4.72589
G1 X124.324 Y90.018 E4.81070
G1 X123.192 Y90.449 E4.91645
G1 X122.017 Y90.738 E5.02209
G1 X121.074 Y90.874 E5.10528
G1 X119.849 Y90.921 E5.21231
G1 X118.583 Y90.813 E5.32324
G1 X117.335 Y90.553 E5.43454
G1 X116.134 Y90.140 E5.54542
G1 X115.084 Y89.633 E5.64723
G1 X114.574 Y89.333 E5.69888
G1 X113.855 Y88.842 E5.77490
G1 X112.937 Y88.072 E5.87951
G1 X112.103 Y87.178 E5.98625
G1 X111.517 Y86.402 E6.07115
G1 X110.921 Y85.420 E6.17144
G1 X110.533 Y84.606 E6.25017
G1 X110.206 Y83.744 E6.33067
G1 X109.900 Y82.581 E6.43566
G1 X109.733 Y81.384 E6.54118
G1 X109.697 Y80.437 E6.62392
G1 X109.774 Y79.256 E6.72725
G1 X110.394 Y75.649 E7.04679
G1 X108.500 Y75.649 E7.21215
G1 X108.500 Y62.500 E8.36016
G0 F9000 X108.500 Y62.395
G1 F1800 X108.500 Y75.754 E9.52651
G0 F9000 X109.500 Y75.754
G1 F1800 X109.500 Y62.395 E10.69285
G0 F9000 X110.500 Y62.395
G1 F1800 X110.500 Y84.781 E12.64733
G0 F9000 X111.500 Y86.553
G1 F1800 X111.500 Y62.395 E14.75651
G0 F9000 X112.500 Y62.395
G1 F1800 X112.500 Y87.757 E16.97081
G0 F9000 X113.500 Y88.681
G1 F1800 X113.500 Y62.395 E19.26578
G0 F9000 X114.500 Y62.395
G1 F1800 X114.500 Y89.409 E21.62432
G0 F9000 X115.500 Y89.950
G1 F1800 X115.500 Y62.395 E24.03009
G0 F9000 X116.500 Y62.395
G1 F1800 X116.500 Y90.376 E26.47305
G0 F9000 X117.500 Y90.694
G1 F1800 X117.500 Y62.395 E28.94377
G0 F9000 X118.500 Y62.395
G1 F1800 X118.500 Y90.902 E31.43266
G0 F9000 X119.500 Y90.996
G1 F1800 X119.500 Y62.395 E33.92975
G0 F9000 X120.500 Y62.395
G1 F1800 X120.500 Y91.002 E36.42737
G0 F9000 X121.500 Y90.919
G1 F1800 X121.500 Y62.395 E38.91773
G0 F9000 X122.500 Y62.395
G1 F1800 X122.500 Y90.728 E41.39143
G0 F9000 X123.500 Y90.444
G1 F1800 X123.500 Y62.395 E43.84033
G0 F9000 X124.500 Y62.395
G1 F1800 X124.500 Y90.047 E46.25456
G0 F9000 X125.500 Y89.507
G1 F1800 X125.500 Y62.395 E48.62165
G0 F9000 X126.500 Y62.395
G1 F1800 X126.500 Y88.827 E50.92937
G0 F9000 X127.500 Y87.947
G1 F1800 X127.500 Y62.395 E53.16026
G0 F9000 X128.500 Y62.395
G1 F1800 X128.500 Y86.791 E55.29023
G0 F9000 X129.500 Y85.150
G1 F1800 X129.500 Y75.885 E56.09913
G0 F9000 X129.500 Y75.754
G1 F1800 X129.500 Y62.395 E57.26548
G0 F9000 X130.500 Y62.395
G1 F1800 X130.500 Y75.754 E58.43183
G0 F9000 X130.500 Y79.249
G1 F1800 X130.500 Y81.764 E58.65141
M106 S255
;LAYER:-1
;RAFT
G0 F9000 X130.458 Y81.526 Z0.500
;TYPE:SUPPORT
G1 F2940 X111.401 Y62.470 E59.09958
G0 F9000 X110.836 Y62.470
G1 F2940 X130.386 Y82.020 E59.55937
G0 F9000 X130.314 Y82.514
G1 F2940 X110.270 Y62.470 E60.03077
G0 F9000 X109.704 Y62.470
G1 F2940 X130.210 Y82.976 E60.51304
G0 F9000 X130.087 Y83.418
G1 F2940 X109.139 Y62.470 E61.00571
G0 F9000 X108.573 Y62.470
G1 F2940 X129.951 Y83.848 E61.50849
G0 F9000 X129.814 Y84.277
G1 F2940 X108.468 Y62.931 E62.01051
G0 F9000 X108.468 Y63.496
G1 F2940 X129.638 Y84.666 E62.50840
G0 F9000 X129.460 Y85.054
G1 F2940 X108.468 Y64.062 E63.00210
G0 F9000 X108.468 Y64.628
G1 F2940 X129.283 Y85.442 E63.49162
G0 F9000 X129.066 Y85.791
G1 F2940 X108.468 Y65.193 E63.97606
G0 F9000 X108.468 Y65.759
G1 F2940 X128.851 Y86.141 E64.45542
G0 F9000 X128.634 Y86.491
G1 F2940 X108.468 Y66.325 E64.92970
G0 F9000 X108.468 Y66.890
G1 F2940 X128.389 Y86.811 E65.39821
G0 F9000 X128.144 Y87.131
G1 F2940 X108.468 Y67.456 E65.86094
G0 F9000 X108.468 Y68.022
G1 F2940 X127.880 Y87.433 E66.31747
G0 F9000 X127.605 Y87.725
G1 F2940 X108.468 Y68.587 E66.76756
G0 F9000 X108.468 Y69.153
G1 F2940 X127.331 Y88.016 E67.21119
G0 F9000 X127.035 Y88.285
G1 F2940 X108.468 Y69.719 E67.64784
G0 F9000 X108.468 Y70.284
G1 F2940 X126.725 Y88.541 E68.07722
G0 F9000 X126.415 Y88.797
G1 F2940 X108.468 Y70.850 E68.49930
G0 F9000 X108.468 Y71.416
G1 F2940 X126.091 Y89.038 E68.91376
G0 F9000 X125.746 Y89.259
G1 F2940 X108.468 Y71.982 E69.32010
G0 F9000 X108.468 Y72.547
G1 F2940 X125.401 Y89.480 E69.71834
G0 F9000 X125.043 Y89.688
G1 F2940 X108.468 Y73.113 E70.10816
G0 F9000 X108.468 Y73.679
G1 F2940 X124.667 Y89.877 E70.48912
G0 F9000 X124.286 Y90.062
G1 F2940 X110.290 Y76.066 E70.81828
G0 F9000 X110.207 Y76.549
G1 F2940 X123.877 Y90.219 E71.13978
G0 F9000 X123.467 Y90.375
G1 F2940 X110.124 Y77.032 E71.45359
G0 F9000 X110.041 Y77.514
G1 F2940 X123.042 Y90.516 E71.75936
G0 F9000 X122.588 Y90.627
G1 F2940 X109.958 Y77.997 E72.05640
G0 F9000 X109.875 Y78.480
G1 F2940 X122.134 Y90.738 E72.34470
G0 F9000 X121.650 Y90.820
G1 F2940 X109.793 Y78.963 E72.62356
G0 F9000 X109.729 Y79.465
G1 F2940 X121.156 Y90.892 E72.89231
G0 F9000 X120.619 Y90.921
G1 F2940 X109.694 Y79.995 E73.14926
G0 F9000 X109.669 Y80.536
G1 F2940 X120.074 Y90.941 E73.39397
G0 F9000 X119.486 Y90.919
G1 F2940 X109.692 Y81.124 E73.62432
G0 F9000 X109.753 Y81.752
G1 F2940 X118.868 Y90.867 E73.83869
G0 F9000 X118.199 Y90.763
G1 F2940 X109.844 Y82.409 E74.03518
G0 F9000 X110.016 Y83.146
G1 F2940 X117.484 Y90.614 E74.21081
G0 F9000 X116.655 Y90.351
G1 F2940 X110.248 Y83.944 E74.36149
G0 F9000 X110.638 Y84.899
G1 F2940 X115.705 Y89.966 E74.48066
G0 F9000 X114.472 Y89.299
G1 F2940 X111.336 Y86.163 E74.55442
G0 F9000 X109.903 Y75.679
G1 F2940 X108.468 Y74.244 E74.58817
G0 F9000 X108.468 Y74.810
G1 F2940 X109.337 Y75.679 E74.60860
G0 F9000 X108.468 Y75.376
G1 F2940 X108.772 Y75.679 E74.61574
G0 F9000 X111.967 Y62.470
G1 F2940 X130.488 Y80.991 E75.05133
G0 F9000 X130.502 Y80.439
G1 F2940 X112.533 Y62.470 E75.47393
G0 F9000 X113.098 Y62.470
G1 F2940 X130.481 Y79.852 E75.88274
G0 F9000 X130.422 Y79.227
G1 F2940 X113.664 Y62.470 E76.27685
G0 F9000 X114.230 Y62.470
G1 F2940 X130.302 Y78.541 E76.65483
G0 F9000 X130.140 Y77.814
G1 F2940 X114.795 Y62.470 E77.01571
G0 F9000 X115.361 Y62.470
G1 F2940 X129.880 Y76.989 E77.35717
G0 F9000 X129.491 Y76.033
G1 F2940 X115.927 Y62.470 E77.67616
G0 F9000 X116.493 Y62.470
G1 F2940 X129.701 Y75.678 E77.98680
G0 F9000 X130.267 Y75.678
G1 F2940 X117.058 Y62.470 E78.29744
G0 F9000 X117.624 Y62.470
G1 F2940 X130.833 Y75.678 E78.60808
G0 F9000 X131.357 Y75.637
G1 F2940 X118.190 Y62.470 E78.91775
G0 F9000 X118.755 Y62.470
G1 F2940 X131.357 Y75.072 E79.21413
G0 F9000 X131.357 Y74.506
G1 F2940 X119.321 Y62.470 E79.49720
G0 F9000 X119.887 Y62.470
G1 F2940 X131.357 Y73.940 E79.76696
G0 F9000 X131.357 Y73.375
G1 F2940 X120.452 Y62.470 E80.02342
G0 F9000 X121.018 Y62.470
G1 F2940 X131.357 Y72.809 E80.26658
G0 F9000 X131.357 Y72.243
G1 F2940 X121.584 Y62.470 E80.49643
G0 F9000 X122.149 Y62.470
G1 F2940 X131.357 Y71.678 E80.71299
G0 F9000 X131.357 Y71.112
G1 F2940 X122.715 Y62.470 E80.91623
G0 F9000 X123.281 Y62.470
G1 F2940 X131.357 Y70.546 E81.10617
G0 F9000 X131.357 Y69.980
G1 F2940 X123.846 Y62.470 E81.28280
G0 F9000 X124.412 Y62.470
G1 F2940 X131.357 Y69.415 E81.44614
G0 F9000 X131.357 Y68.849
G1 F2940 X124.978 Y62.470 E81.59616
G0 F9000 X125.543 Y62.470
G1 F2940 X131.357 Y68.283 E81.73289
G0 F9000 X131.357 Y67.718
G1 F2940 X126.109 Y62.470 E81.85631
G0 F9000 X126.675 Y62.470
G1 F2940 X131.357 Y67.152 E81.96643
G0 F9000 X131.357 Y66.586
G1 F2940 X127.241 Y62.470 E82.06323
G0 F9000 X127.806 Y62.470
G1 F2940 X131.357 Y66.021 E82.14674
G0 F9000 X131.357 Y65.455
G1 F2940 X128.372 Y62.470 E82.21694
G0 F9000 X128.938 Y62.470
G1 F2940 X131.357 Y64.889 E82.27384
G0 F9000 X131.357 Y64.324
G1 F2940 X129.503 Y62.470 E82.31744
G0 F9000 X130.069 Y62.470
G1 F2940 X131.357 Y63.758 E82.34773
G0 F9000 X130.635 Y62.470
G1 F2940 X131.357 Y63.192 E82.36471
G0 F9000 X131.200 Y62.470
G1 F2940 X131.357 Y62.627 E82.36840
;LAYER:-1
;RAFT
G0 F9000 X131.388 Y62.460 Z0.700
;TYPE:SUPPORT
G1 F1800 X108.439 Y62.460 E83.13169
G0 F9000 X108.439 Y62.820
G1 F1800 X131.388 Y62.820 E83.89498
G0 F9000 X131.388 Y63.180
G1 F1800 X108.439 Y63.180 E84.65826
G0 F9000 X108.439 Y63.540
G1 F1800 X131.388 Y63.540 E85.42155
G0 F9000 X131.388 Y63.900
G1 F1800 X108.439 Y63.900 E86.18484
G0 F9000 X108.439 Y64.260
G1 F1800 X131.388 Y64.260 E86.94812
G0 F9000 X131.388 Y64.620
G1 F1800 X108.439 Y64.620 E87.71141
G0 F9000 X108.439 Y64.980
G1 F1800 X131.388 Y64.980 E88.47470
G0 F9000 X131.388 Y65.340
G1 F1800 X108.439 Y65.340 E89.23798
G0 F9000 X108.439 Y65.700
G1 F1800 X131.388 Y65.700 E90.00127
G0 F9000 X131.388 Y66.060
G1 F1800 X108.439 Y66.060 E90.76456
G0 F9000 X108.439 Y66.420
G1 F1800 X131.388 Y66.420 E91.52785
G0 F9000 X131.388 Y66.780
G1 F1800 X108.439 Y66.780 E92.29113
G0 F9000 X108.439 Y67.140
G1 F1800 X131.388 Y67.140 E93.05442
G0 F9000 X131.388 Y67.500
G1 F1800 X108.439 Y67.500 E93.81771
G0 F9000 X108.439 Y67.860
G1 F1800 X131.388 Y67.860 E94.58099
G0 F9000 X131.388 Y68.220
G1 F1800 X108.439 Y68.220 E95.34428
G0 F9000 X108.439 Y68.580
G1 F1800 X131.388 Y68.580 E96.10757
G0 F9000 X131.388 Y68.940
G1 F1800 X108.439 Y68.940 E96.87085
G0 F9000 X108.439 Y69.300
G1 F1800 X131.388 Y69.300 E97.63414
G0 F9000 X131.388 Y69.660
G1 F1800 X108.439 Y69.660 E98.39743
G0 F9000 X108.439 Y70.020
G1 F1800 X131.388 Y70.020 E99.16071
G0 F9000 X131.388 Y70.380
G1 F1800 X108.439 Y70.380 E99.92400
G0 F9000 X108.439 Y70.740
G1 F1800 X131.388 Y70.740 E100.68729
G0 F9000 X131.388 Y71.100
G1 F1800 X108.439 Y71.100 E101.45057
G0 F9000 X108.439 Y71.460
G1 F1800 X131.388 Y71.460 E102.21386
G0 F9000 X131.388 Y71.820
G1 F1800 X108.439 Y71.820 E102.97715
G0 F9000 X108.439 Y72.180
G1 F1800 X131.388 Y72.180 E103.74043
G0 F9000 X131.388 Y72.540
G1 F1800 X108.439 Y72.540 E104.50372
G0 F9000 X108.439 Y72.900
G1 F1800 X131.388 Y72.900 E105.26701
G0 F9000 X131.388 Y73.260
G1 F1800 X108.439 Y73.260 E106.03030
G0 F9000 X108.439 Y73.620
G1 F1800 X131.388 Y73.620 E106.79358
G0 F9000 X131.388 Y73.980
G1 F1800 X108.439 Y73.980 E107.55687
G0 F9000 X108.439 Y74.340
G1 F1800 X131.388 Y74.340 E108.32016
G0 F9000 X131.388 Y74.700
G1 F1800 X108.439 Y74.700 E109.08344
G0 F9000 X108.439 Y75.060
G1 F1800 X131.388 Y75.060 E109.84673
G0 F9000 X131.388 Y75.420
G1 F1800 X108.439 Y75.420 E110.61002
G0 F9000 X110.310 Y75.780
G1 F1800 X129.389 Y75.780 E111.24459
G0 F9000 X129.567 Y76.140
G1 F1800 X110.248 Y76.140 E111.88714
G0 F9000 X110.186 Y76.500
G1 F1800 X129.714 Y76.500 E112.53664
G0 F9000 X129.861 Y76.860
G1 F1800 X110.124 Y76.860 E113.19310
G0 F9000 X110.062 Y77.220
G1 F1800 X129.997 Y77.220 E113.85614
G0 F9000 X130.103 Y77.580
G1 F1800 X110.000 Y77.580 E114.52477
G0 F9000 X109.939 Y77.940
G1 F1800 X130.209 Y77.940 E115.19895
G0 F9000 X130.288 Y78.300
G1 F1800 X109.877 Y78.300 E115.87782
G0 F9000 X109.815 Y78.660
G1 F1800 X130.354 Y78.660 E116.56095
G0 F9000 X130.420 Y79.020
G1 F1800 X109.753 Y79.020 E117.24834
G0 F9000 X109.705 Y79.380
G1 F1800 X130.469 Y79.380 E117.93895
G0 F9000 X130.507 Y79.740
G1 F1800 X109.682 Y79.740 E118.63160
G0 F9000 X109.658 Y80.100
G1 F1800 X130.521 Y80.100 E119.32550
G0 F9000 X130.534 Y80.460
G1 F1800 X109.636 Y80.460 E120.02057
G0 F9000 X109.650 Y80.820
G1 F1800 X130.525 Y80.820 E120.71488
G0 F9000 X130.510 Y81.180
G1 F1800 X109.664 Y81.180 E121.40822
G0 F9000 X109.693 Y81.540
G1 F1800 X130.486 Y81.540 E122.09980
G0 F9000 X130.433 Y81.900
G1 F1800 X109.743 Y81.900 E122.78795
G0 F9000 X109.793 Y82.260
G1 F1800 X130.380 Y82.260 E123.47268
G0 F9000 X130.322 Y82.620
G1 F1800 X109.847 Y82.620 E124.15368
G0 F9000 X109.942 Y82.980
G1 F1800 X130.240 Y82.980 E124.82879
G0 F9000 X130.143 Y83.340
G1 F1800 X110.037 Y83.340 E125.49752
G0 F9000 X110.131 Y83.700
G1 F1800 X130.029 Y83.700 E126.15933
G0 F9000 X129.915 Y84.060
G1 F1800 X110.261 Y84.060 E126.81302
G0 F9000 X110.397 Y84.420
G1 F1800 X129.782 Y84.420 E127.45777
G0 F9000 X129.617 Y84.780
G1 F1800 X110.548 Y84.780 E128.09201
G0 F9000 X110.720 Y85.140
G1 F1800 X129.453 Y85.140 E128.71507
G0 F9000 X129.280 Y85.500
G1 F1800 X110.898 Y85.500 E129.32646
G0 F9000 X111.117 Y85.860
G1 F1800 X129.058 Y85.860 E129.92318
G0 F9000 X128.835 Y86.220
G1 F1800 X111.335 Y86.220 E130.50523
G0 F9000 X111.575 Y86.580
G1 F1800 X128.601 Y86.580 E131.07152
G0 F9000 X128.326 Y86.940
G1 F1800 X111.847 Y86.940 E131.61961
G0 F9000 X112.134 Y87.300
G1 F1800 X128.045 Y87.300 E132.14881
G0 F9000 X127.706 Y87.660
G1 F1800 X112.470 Y87.660 E132.65557
G0 F9000 X112.806 Y88.020
G1 F1800 X127.366 Y88.020 E133.13983
G0 F9000 X126.966 Y88.380
G1 F1800 X113.211 Y88.380 E133.59733
G0 F9000 X113.640 Y88.740
G1 F1800 X126.531 Y88.740 E134.02608
G0 F9000 X126.050 Y89.100
G1 F1800 X114.126 Y89.100 E134.42268
G0 F9000 X114.672 Y89.460
G1 F1800 X125.487 Y89.460 E134.78238
G0 F9000 X124.845 Y89.820
G1 F1800 X115.334 Y89.820 E135.09872
G0 F9000 X116.078 Y90.180
G1 F1800 X124.063 Y90.180 E135.36430
G0 F9000 X123.066 Y90.540
G1 F1800 X117.114 Y90.540 E135.56227
G0 F9000 X118.911 Y90.900
G1 F1800 X121.306 Y90.900 E135.64193
;LAYER:0
M107
G1 F2400 E131.64193
G0 F9000 X122.277 Y84.122 Z1.000
;TYPE:WALL-INNER
G1 F2400 E135.64193
G1 F1800 X122.781 Y83.761 E135.67286
G1 X123.110 Y83.456 E135.69524
G1 X123.499 Y82.990 E135.72552
G1 X123.828 Y82.456 E135.75681
G1 X124.056 Y81.918 E135.78597
G1 X124.076 Y81.870 E135.78856
G1 X124.193 Y81.452 E135.81022
G1 X124.281 Y80.860 E135.84008
G1 X124.294 Y80.415 E135.86229
G1 X124.234 Y79.816 E135.89232
G1 X124.075 Y79.188 E135.92464
G1 X124.003 Y78.990 E135.93515
G1 X123.742 Y78.443 E135.96539
G1 X123.504 Y78.074 E135.98729
G1 X123.242 Y77.745 E136.00828
G1 X122.945 Y77.441 E136.02948
G1 X122.471 Y77.061 E136.05979
G1 X121.928 Y76.746 E136.09111
G1 X121.346 Y76.514 E136.12237
G1 X120.740 Y76.374 E136.15340
G1 X120.312 Y76.329 E136.17487
G1 X120.079 Y76.322 E136.18650
G1 X119.781 Y76.344 E136.20140
G1 X119.100 Y75.678 E136.24893
G1 X119.100 Y70.049 E136.52976
G1 X114.100 Y70.049 E136.77921
G1 X114.100 Y68.100 E136.87645
G1 X125.729 Y68.100 E137.45662
G1 X125.729 Y70.049 E137.55385
G1 X120.900 Y70.049 E137.79477
G1 X120.900 Y75.763 E138.07985
G1 X121.890 Y76.096 E138.13196
G1 X122.416 Y76.348 E138.16106
G1 X122.758 Y76.559 E138.18110
G1 X123.073 Y76.789 E138.20056
G1 X123.505 Y77.179 E138.22960
G1 X123.767 Y77.469 E138.24910
G1 X124.111 Y77.938 E138.27812
G1 X124.394 Y78.443 E138.30700
G1 X124.622 Y79.003 E138.33716
G1 X124.731 Y79.373 E138.35641
G1 X124.839 Y79.960 E138.38618
G1 X124.873 Y80.553 E138.41582
G1 X124.858 Y80.919 E138.43409
G1 X124.772 Y81.509 E138.46384
G1 X124.552 Y82.249 E138.50235
G1 X124.310 Y82.779 E138.53142
G1 X123.997 Y83.288 E138.56123
G1 X123.763 Y83.592 E138.58037
G1 X123.356 Y84.023 E138.60995
G1 X122.915 Y84.388 E138.63851
G1 X122.414 Y84.709 E138.66819
G1 X122.062 Y84.887 E138.68787
G1 X121.521 Y85.093 E138.71675
G1 X120.945 Y85.234 E138.74634
G1 X120.567 Y85.289 E138.76539
G1 X119.978 Y85.312 E138.79480
G1 X119.393 Y85.262 E138.82409
G1 X118.828 Y85.144 E138.85289
G1 X118.262 Y84.950 E138.88274
G1 X117.734 Y84.694 E138.91202
G1 X117.237 Y84.370 E138.94161
G1 X116.800 Y84.004 E138.97005
G1 X116.398 Y83.572 E138.99949
G1 X116.155 Y83.251 E139.01958
G1 X115.851 Y82.749 E139.04886
