;Generated with Cura_SteamEngine 14.09
; Default start code
G28 ; Home extruder
G1 Z15 F100
M107 ; Turn off fan
G90 ; Absolute positioning
M82 ; Extruder in absolute mode
M190 S50
; Activate all used extruder
M104 T0 S210
G92 E0 ; Reset extruder position
; Wait for all used extruders to reach temperature
M109 T0 S210
;Layer count: 15
;LAYER:0
M107
G0 F9000 X51.505 Y23.366 Z0.300
;TYPE:SKIRT
G1 F1800 X148.459 Y23.366 E4.83705
G1 X148.459 Y56.956 E6.51287
G1 X142.880 Y56.956 E6.79120
G1 X142.880 Y61.695 E7.02763
G1 X137.880 Y61.695 E7.27708
G1 X137.880 Y80.295 E8.20504
G1 X142.880 Y80.295 E8.45449
G1 X142.880 Y85.295 E8.70394
G1 X148.459 Y85.295 E8.98228
G1 X148.459 Y90.233 E9.22864
G1 X148.494 Y90.233 E9.23039
G1 X148.494 Y176.633 E13.54090
G1 X114.691 Y176.633 E15.22734
G1 X114.691 Y156.633 E16.22514
G1 X91.091 Y156.633 E17.40255
G1 X91.091 Y176.633 E18.40035
G1 X51.505 Y176.633 E20.37531
G1 X51.505 Y85.392 E24.92734
G1 X56.480 Y85.392 E25.17554
G1 X56.480 Y80.295 E25.42983
G1 X61.365 Y80.295 E25.67355
G1 X61.365 Y63.200 E26.52642
G1 X56.480 Y63.200 E26.77013
G1 X56.480 Y56.956 E27.08165
G1 X51.505 Y56.956 E27.32985
G1 X51.505 Y23.366 E29.00566
G1 F2400 E25.00566
G0 F9000 X55.305 Y27.166
;TYPE:WALL-INNER
G1 F2400 E29.00566
G1 F1800 X144.659 Y27.166 E33.46355
G1 X144.659 Y53.156 E34.76020
G1 X139.080 Y53.156 E35.03854
G1 X139.080 Y57.895 E35.27497
G1 X134.080 Y57.895 E35.52442
G1 X134.080 Y84.095 E36.83154
G1 X139.080 Y84.095 E37.08099
G1 X139.080 Y89.095 E37.33044
G1 X144.659 Y89.095 E37.60878
G1 X144.659 Y94.033 E37.85514
G1 X144.694 Y94.033 E37.85689
G1 X144.694 Y172.833 E41.78823
G1 X118.491 Y172.833 E43.09551
G1 X118.491 Y152.833 E44.09331
G1 X87.291 Y152.833 E45.64988
G1 X87.291 Y172.833 E46.64769
G1 X55.305 Y172.833 E48.24348
G1 X55.305 Y89.192 E52.41634
G1 X60.280 Y89.192 E52.66455
G1 X60.280 Y84.095 E52.91884
G1 X65.165 Y84.095 E53.16255
G1 X65.165 Y59.400 E54.39459
G1 X60.280 Y59.400 E54.63830
G1 X60.280 Y53.156 E54.94982
G1 X55.305 Y53.156 E55.19802
G1 X55.305 Y27.166 E56.49467
G0 F9000 X68.994 Y32.895
G1 F1800 X68.994 Y94.095 E59.54795
G1 X130.194 Y94.095 E62.60123
G1 X130.194 Y32.895 E65.65451
G1 X68.994 Y32.895 E68.70779
G0 F9000 X69.394 Y33.295
;TYPE:WALL-OUTER
G1 F1800 X69.394 Y93.695 E71.72116
G1 X129.794 Y93.695 E74.73453
G1 X129.794 Y33.295 E77.74789
G1 X69.394 Y33.295 E80.76126
G0 F9000 X69.394 Y32.995
G0 X55.205 Y26.976
G0 X54.905 Y26.766
G1 F1800 X145.059 Y26.766 E85.25906
G1 X145.059 Y53.556 E86.59562
G1 X139.480 Y53.556 E86.87396
G1 X139.480 Y58.295 E87.11039
G1 X134.480 Y58.295 E87.35984
G1 X134.480 Y83.695 E88.62705
G1 X139.480 Y83.695 E88.87650
G1 X139.480 Y88.695 E89.12595
G1 X145.059 Y88.695 E89.40429
G1 X145.059 Y93.633 E89.65065
G1 X145.094 Y93.633 E89.65239
G1 X145.094 Y173.233 E93.62365
G1 X118.091 Y173.233 E94.97084
G1 X118.091 Y153.233 E95.96864
G1 X87.691 Y153.233 E97.48531
G1 X87.691 Y173.233 E98.48311
G1 X54.905 Y173.233 E100.11881
G1 X54.905 Y88.792 E104.33159
G1 X59.880 Y88.792 E104.57979
G1 X59.880 Y83.695 E104.83408
G1 X64.765 Y83.695 E105.07780
G1 X64.765 Y59.800 E106.26992
G1 X59.880 Y59.800 E106.51364
G1 X59.880 Y53.556 E106.82515
G1 X54.905 Y53.556 E107.07335
G1 X54.905 Y26.766 E108.40991
G0 F9000 X55.444 Y27.442
;TYPE:FILL
G1 F1800 X68.853 Y40.852 E109.35603
G0 F9000 X68.853 Y41.418
G1 F1800 X55.444 Y28.008 E110.30214
G0 F9000 X55.444 Y28.574
G1 F1800 X68.853 Y41.983 E111.24822
G0 F9000 X68.853 Y42.549
G1 F1800 X55.444 Y29.139 E112.19433
G0 F9000 X55.444 Y29.705
G1 F1800 X68.853 Y43.115 E113.14044
G0 F9000 X68.853 Y43.680
G1 F1800 X55.444 Y30.271 E114.08652
G0 F9000 X55.444 Y30.836
G1 F1800 X68.853 Y44.246 E115.03263
G0 F9000 X68.853 Y44.812
G1 F1800 X55.444 Y31.402 E115.97874
G0 F9000 X55.444 Y31.968
G1 F1800 X68.853 Y45.377 E116.92482
G0 F9000 X68.853 Y45.943
G1 F1800 X55.444 Y32.533 E117.87093
G0 F9000 X55.444 Y33.099
G1 F1800 X68.853 Y46.509 E118.81705
G0 F9000 X68.853 Y47.074
G1 F1800 X55.444 Y33.665 E119.76312
G0 F9000 X55.444 Y34.231
G1 F1800 X68.853 Y47.640 E120.70920
G0 F9000 X68.853 Y48.206
G1 F1800 X55.444 Y34.796 E121.65531
G0 F9000 X55.444 Y35.362
G1 F1800 X68.853 Y48.771 E122.60139
G0 F9000 X68.853 Y49.337
G1 F1800 X55.444 Y35.928 E123.54747
G0 F9000 X55.444 Y36.493
G1 F1800 X68.853 Y49.903 E124.49358
G0 F9000 X68.853 Y50.469
G1 F1800 X55.444 Y37.059 E125.43969
G0 F9000 X55.444 Y37.625
G1 F1800 X68.853 Y51.034 E126.38577
G0 F9000 X68.853 Y51.600
G1 F1800 X55.444 Y38.190 E127.33188
G0 F9000 X55.444 Y38.756
G1 F1800 X68.853 Y52.166 E128.27800
G0 F9000 X68.853 Y52.731
G1 F1800 X55.444 Y39.322 E129.22407
G0 F9000 X55.444 Y39.887
G1 F1800 X68.853 Y53.297 E130.17019
G0 F9000 X68.853 Y53.863
G1 F1800 X55.444 Y40.453 E131.11630
G0 F9000 X55.444 Y41.019
G1 F1800 X68.853 Y54.428 E132.06238
G0 F9000 X68.853 Y54.994
G1 F1800 X55.444 Y41.584 E133.00849
G0 F9000 X55.444 Y42.150
G1 F1800 X68.853 Y55.560 E133.95460
G0 F9000 X68.853 Y56.125
G1 F1800 X55.444 Y42.716 E134.90068
G0 F9000 X55.444 Y43.282
G1 F1800 X68.853 Y56.691 E135.84676
G0 F9000 X68.853 Y57.257
G1 F1800 X55.444 Y43.847 E136.79287
G0 F9000 X55.444 Y44.413
G1 F1800 X68.853 Y57.822 E137.73895
G0 F9000 X68.853 Y58.388
G1 F1800 X55.444 Y44.979 E138.68502
G0 F9000 X55.444 Y45.544
G1 F1800 X68.853 Y58.954 E139.63114
G0 F9000 X68.853 Y59.520
G1 F1800 X55.444 Y46.110 E140.57725
G0 F9000 X55.444 Y46.676
G1 F1800 X68.853 Y60.085 E141.52333
G0 F9000 X68.853 Y60.651
G1 F1800 X55.444 Y47.241 E142.46944
G0 F9000 X55.444 Y47.807
G1 F1800 X68.853 Y61.217 E143.41555
G0 F9000 X68.853 Y61.782
G1 F1800 X60.419 Y53.348 E144.01062
G0 F9000 X60.087 Y53.016
G1 F1800 X55.444 Y48.373 E144.33821
G0 F9000 X55.444 Y48.938
G1 F1800 X59.521 Y53.016 E144.62590
G0 F9000 X58.955 Y53.016
G1 F1800 X55.444 Y49.504 E144.87365
G0 F9000 X55.444 Y50.070
G1 F1800 X58.390 Y53.016 E145.08151
G0 F9000 X57.824 Y53.016
G1 F1800 X55.444 Y50.635 E145.24946
G0 F9000 X55.444 Y51.201
G1 F1800 X57.258 Y53.016 E145.37749
G0 F9000 X56.692 Y53.016
G1 F1800 X55.444 Y51.767 E145.46557
G0 F9000 X55.444 Y52.332
G1 F1800 X56.127 Y53.016 E145.51380
G0 F9000 X55.444 Y52.898
G1 F1800 X55.561 Y53.016 E145.52209
G0 F9000 X60.221 Y53.215
G0 X60.419 Y53.914
G1 F1800 X68.853 Y62.348 E146.11715
G0 F9000 X68.853 Y62.914
G1 F1800 X65.304 Y59.364 E146.36759
G0 F9000 X65.199 Y59.259
G1 F1800 X60.419 Y54.479 E146.70485
G0 F9000 X60.419 Y55.045
G1 F1800 X64.633 Y59.259 E147.00217
G0 F9000 X64.068 Y59.259
G1 F1800 X60.419 Y55.611 E147.25959
G0 F9000 X60.419 Y56.176
G1 F1800 X63.502 Y59.259 E147.47711
G0 F9000 X62.936 Y59.259
G1 F1800 X60.419 Y56.742 E147.65470
G0 F9000 X60.419 Y57.308
G1 F1800 X62.371 Y59.259 E147.79239
G0 F9000 X61.805 Y59.259
G1 F1800 X60.419 Y57.873 E147.89018
G0 F9000 X60.419 Y58.439
G1 F1800 X61.239 Y59.259 E147.94803
G0 F9000 X60.419 Y59.005
G1 F1800 X60.674 Y59.259 E147.96599
G0 F9000 X65.106 Y59.459
G0 X65.304 Y59.930
G1 F1800 X68.853 Y63.479 E148.21639
G0 F9000 X68.853 Y64.045
G1 F1800 X65.304 Y60.495 E148.46683
G0 F9000 X65.304 Y61.061
G1 F1800 X68.853 Y64.611 E148.71726
G0 F9000 X68.853 Y65.176
G1 F1800 X65.304 Y61.627 E148.96766
G0 F9000 X65.304 Y62.192
G1 F1800 X68.853 Y65.742 E149.21810
G0 F9000 X68.853 Y66.308
G1 F1800 X65.304 Y62.758 E149.46854
G0 F9000 X65.304 Y63.324
G1 F1800 X68.853 Y66.873 E149.71894
G0 F9000 X68.853 Y67.439
G1 F1800 X65.304 Y63.889 E149.96937
G0 F9000 X65.304 Y64.455
G1 F1800 X68.853 Y68.005 E150.21981
G0 F9000 X68.853 Y68.570
G1 F1800 X65.304 Y65.021 E150.47021
G0 F9000 X65.304 Y65.586
G1 F1800 X68.853 Y69.136 E150.72065
G0 F9000 X68.853 Y69.702
G1 F1800 X65.304 Y66.152 E150.97108
G0 F9000 X65.304 Y66.718
G1 F1800 X68.853 Y70.268 E151.22152
G0 F9000 X68.853 Y70.833
G1 F1800 X65.304 Y67.284 E151.47192
G0 F9000 X65.304 Y67.849
G1 F1800 X68.853 Y71.399 E151.72236
G0 F9000 X68.853 Y71.965
G1 F1800 X65.304 Y68.415 E151.97279
G0 F9000 X65.304 Y68.981
G1 F1800 X68.853 Y72.530 E152.22319
G0 F9000 X68.853 Y73.096
G1 F1800 X65.304 Y69.546 E152.47363
G0 F9000 X65.304 Y70.112
G1 F1800 X68.853 Y73.662 E152.72407
G0 F9000 X68.853 Y74.227
G1 F1800 X65.304 Y70.678 E152.97447
G0 F9000 X65.304 Y71.243
G1 F1800 X68.853 Y74.793 E153.22491
G0 F9000 X68.853 Y75.359
G1 F1800 X65.304 Y71.809 E153.47534
G0 F9000 X65.304 Y72.375
G1 F1800 X68.853 Y75.924 E153.72574
G0 F9000 X68.853 Y76.490
G1 F1800 X65.304 Y72.940 E153.97618
G0 F9000 X65.304 Y73.506
G1 F1800 X68.853 Y77.056 E154.22662
G0 F9000 X68.853 Y77.621
G1 F1800 X65.304 Y74.072 E154.47702
G0 F9000 X65.304 Y74.637
G1 F1800 X68.853 Y78.187 E154.72745
G0 F9000 X68.853 Y78.753
G1 F1800 X65.304 Y75.203 E154.97789
G0 F9000 X65.304 Y75.769
G1 F1800 X68.853 Y79.318 E155.22829
G0 F9000 X68.853 Y79.884
G1 F1800 X65.304 Y76.335 E155.47869
G0 F9000 X65.304 Y76.900
G1 F1800 X68.853 Y80.450 E155.72913
G0 F9000 X68.853 Y81.016
G1 F1800 X65.304 Y77.466 E155.97956
G0 F9000 X65.304 Y78.032
G1 F1800 X68.853 Y81.581 E156.22997
G0 F9000 X68.853 Y82.147
G1 F1800 X65.304 Y78.597 E156.48040
G0 F9000 X65.304 Y79.163
G1 F1800 X68.853 Y82.713 E156.73084
G0 F9000 X68.853 Y83.278
G1 F1800 X65.304 Y79.729 E156.98124
G0 F9000 X65.304 Y80.294
G1 F1800 X68.853 Y83.844 E157.23168
G0 F9000 X68.853 Y84.410
G1 F1800 X65.304 Y80.860 E157.48211
G0 F9000 X65.304 Y81.426
G1 F1800 X68.853 Y84.975 E157.73251
G0 F9000 X68.853 Y85.541
G1 F1800 X65.304 Y81.991 E157.98295
G0 F9000 X65.304 Y82.557
G1 F1800 X68.853 Y86.107 E158.23339
G0 F9000 X68.853 Y86.672
G1 F1800 X65.304 Y83.123 E158.48379
G0 F9000 X65.304 Y83.688
G1 F1800 X68.853 Y87.238 E158.73422
G0 F9000 X68.853 Y87.804
G1 F1800 X65.283 Y84.234 E158.98611
G0 F9000 X64.717 Y84.234
G1 F1800 X68.853 Y88.369 E159.27789
G0 F9000 X68.853 Y88.935
G1 F1800 X64.152 Y84.234 E159.60957
G0 F9000 X63.586 Y84.234
G1 F1800 X68.853 Y89.501 E159.98118
G0 F9000 X68.853 Y90.067
G1 F1800 X63.020 Y84.234 E160.39273
G0 F9000 X62.455 Y84.234
G1 F1800 X68.853 Y90.632 E160.84415
G0 F9000 X68.853 Y91.198
G1 F1800 X61.889 Y84.234 E161.33550
G0 F9000 X61.323 Y84.234
G1 F1800 X68.853 Y91.764 E161.86678
G0 F9000 X68.853 Y92.329
G1 F1800 X60.758 Y84.234 E162.43792
G0 F9000 X60.420 Y84.461
G1 F1800 X68.853 Y92.895 E163.03295
G0 F9000 X68.853 Y93.461
G1 F1800 X60.420 Y85.027 E163.62798
G0 F9000 X60.420 Y85.593
G1 F1800 X68.853 Y94.026 E164.22298
G0 F9000 X69.062 Y94.235
G1 F1800 X144.553 Y169.726 E169.54927
G0 F9000 X144.553 Y169.161
G1 F1800 X69.628 Y94.235 E174.83567
G0 F9000 X70.193 Y94.235
G1 F1800 X144.553 Y168.595 E180.08217
G0 F9000 X144.553 Y168.029
G1 F1800 X70.759 Y94.235 E185.28874
G0 F9000 X71.325 Y94.235
G1 F1800 X144.553 Y167.464 E190.45540
G0 F9000 X144.553 Y166.898
G1 F1800 X71.890 Y94.235 E195.58217
G0 F9000 X72.456 Y94.235
G1 F1800 X144.553 Y166.332 E200.66900
G0 F9000 X144.553 Y165.767
G1 F1800 X73.022 Y94.235 E205.71594
G0 F9000 X73.587 Y94.235
G1 F1800 X144.553 Y165.201 E210.72297
G0 F9000 X144.553 Y164.635
G1 F1800 X74.153 Y94.235 E215.69007
G0 F9000 X74.719 Y94.235
G1 F1800 X144.553 Y164.069 E220.61724
G0 F9000 X144.553 Y163.504
G1 F1800 X75.284 Y94.235 E225.50454
G0 F9000 X75.850 Y94.235
G1 F1800 X144.553 Y162.938 E230.35191
G0 F9000 X144.553 Y162.372
G1 F1800 X76.416 Y94.235 E235.15934
G0 F9000 X76.982 Y94.235
G1 F1800 X144.553 Y161.807 E239.92687
G0 F9000 X144.553 Y161.241
G1 F1800 X77.547 Y94.235 E244.65451
G0 F9000 X78.113 Y94.235
G1 F1800 X144.553 Y160.675 E249.34221
G0 F9000 X144.553 Y160.110
G1 F1800 X78.679 Y94.235 E253.99001
G0 F9000 X79.244 Y94.235
G1 F1800 X144.553 Y159.544 E258.59792
G0 F9000 X144.553 Y158.978
G1 F1800 X79.810 Y94.235 E263.16588
G0 F9000 X80.376 Y94.235
G1 F1800 X144.553 Y158.413 E267.69395
G0 F9000 X144.553 Y157.847
G1 F1800 X80.941 Y94.235 E272.18212
G0 F9000 X81.507 Y94.235
G1 F1800 X144.553 Y157.281 E276.63036
G0 F9000 X144.553 Y156.716
G1 F1800 X82.073 Y94.235 E281.03870
G0 F9000 X82.638 Y94.235
G1 F1800 X144.553 Y156.150 E285.40713
G0 F9000 X144.553 Y155.584
G1 F1800 X83.204 Y94.235 E289.73564
G0 F9000 X83.770 Y94.235
G1 F1800 X144.553 Y155.019 E294.02424
G0 F9000 X144.553 Y154.453
G1 F1800 X84.335 Y94.235 E298.27295
G0 F9000 X84.901 Y94.235
G1 F1800 X144.553 Y153.887 E302.48172
G0 F9000 X144.553 Y153.321
G1 F1800 X85.467 Y94.235 E306.65055
G0 F9000 X86.032 Y94.235
G1 F1800 X144.553 Y152.756 E310.77953
G0 F9000 X144.553 Y152.190
G1 F1800 X86.598 Y94.235 E314.86856
G0 F9000 X87.164 Y94.235
G1 F1800 X144.553 Y151.624 E318.91767
G0 F9000 X144.553 Y151.059
G1 F1800 X87.730 Y94.235 E322.92687
G0 F9000 X88.295 Y94.235
G1 F1800 X144.553 Y150.493 E326.89618
G0 F9000 X144.553 Y149.927
G1 F1800 X88.861 Y94.235 E330.82555
G0 F9000 X89.427 Y94.235
G1 F1800 X144.553 Y149.362 E334.71502
G0 F9000 X144.553 Y148.796
G1 F1800 X89.992 Y94.235 E338.56460
G0 F9000 X90.558 Y94.235
G1 F1800 X144.553 Y148.230 E342.37423
G0 F9000 X144.553 Y147.665
G1 F1800 X91.124 Y94.235 E346.14397
G0 F9000 X91.689 Y94.235
G1 F1800 X144.553 Y147.099 E349.87381
G0 F9000 X144.553 Y146.533
G1 F1800 X92.255 Y94.235 E353.56372
G0 F9000 X92.821 Y94.235
G1 F1800 X144.553 Y145.968 E357.21373
G0 F9000 X144.553 Y145.402
G1 F1800 X93.386 Y94.235 E360.82384
G0 F9000 X93.952 Y94.235
G1 F1800 X144.553 Y144.836 E364.39401
G0 F9000 X144.553 Y144.270
G1 F1800 X94.518 Y94.235 E367.92425
G0 F9000 X95.083 Y94.235
G1 F1800 X144.553 Y143.705 E371.41463
G0 F9000 X144.553 Y143.139
G1 F1800 X95.649 Y94.235 E374.86507
G0 F9000 X96.215 Y94.235
G1 F1800 X144.553 Y142.573 E378.27557
G0 F9000 X144.553 Y142.008
G1 F1800 X96.780 Y94.235 E381.64622
G0 F9000 X97.346 Y94.235
G1 F1800 X144.553 Y141.442 E384.97693
G0 F9000 X144.553 Y140.876
G1 F1800 X97.912 Y94.235 E388.26770
G0 F9000 X98.478 Y94.235
G1 F1800 X144.553 Y140.311 E391.51858
G0 F9000 X144.553 Y139.745
G1 F1800 X99.043 Y94.235 E394.72955
G0 F9000 X99.609 Y94.235
G1 F1800 X144.553 Y139.179 E397.90059
G0 F9000 X144.553 Y138.614
G1 F1800 X100.175 Y94.235 E401.03174
G0 F9000 X100.740 Y94.235
G1 F1800 X144.553 Y138.048 E404.12298
G0 F9000 X144.553 Y137.482
G1 F1800 X101.306 Y94.235 E407.17429
G0 F9000 X101.872 Y94.235
G1 F1800 X144.553 Y136.917 E410.18570
G0 F9000 X144.553 Y136.351
G1 F1800 X102.437 Y94.235 E413.15721
G0 F9000 X103.003 Y94.235
G1 F1800 X144.553 Y135.785 E416.08879
G0 F9000 X144.553 Y135.220
G1 F1800 X103.569 Y94.235 E418.98047
G0 F9000 X104.134 Y94.235
G1 F1800 X144.553 Y134.654 E421.83225
G0 F9000 X144.553 Y134.088
G1 F1800 X104.700 Y94.235 E424.64409
G0 F9000 X105.266 Y94.235
G1 F1800 X144.553 Y133.522 E427.41600
G0 F9000 X144.553 Y132.957
G1 F1800 X105.831 Y94.235 E430.14805
G0 F9000 X106.397 Y94.235
G1 F1800 X144.553 Y132.391 E432.84016
G0 F9000 X144.553 Y131.825
G1 F1800 X106.963 Y94.235 E435.49234
G0 F9000 X107.529 Y94.235
G1 F1800 X144.553 Y131.260 E438.10461
G0 F9000 X144.553 Y130.694
G1 F1800 X108.094 Y94.235 E440.67699
G0 F9000 X108.660 Y94.235
G1 F1800 X144.553 Y130.128 E443.20944
G0 F9000 X144.553 Y129.563
G1 F1800 X109.226 Y94.235 E445.70198
G0 F9000 X109.791 Y94.235
G1 F1800 X144.553 Y128.997 E448.15463
G0 F9000 X144.553 Y128.431
G1 F1800 X110.357 Y94.235 E450.56734
G0 F9000 X110.923 Y94.235
G1 F1800 X144.553 Y127.866 E452.94016
G0 F9000 X144.553 Y127.300
G1 F1800 X111.488 Y94.235 E455.27307
G0 F9000 X112.054 Y94.235
G1 F1800 X144.553 Y126.734 E457.56605
G0 F9000 X144.553 Y126.169
G1 F1800 X112.620 Y94.235 E459.81913
G0 F9000 X113.185 Y94.235
G1 F1800 X144.553 Y125.603 E462.03231
G0 F9000 X144.553 Y125.037
G1 F1800 X113.751 Y94.235 E464.20556
G0 F9000 X114.317 Y94.235
G1 F1800 X144.553 Y124.472 E466.33891
G0 F9000 X144.553 Y123.906
G1 F1800 X114.882 Y94.235 E468.43236
G0 F9000 X115.448 Y94.235
G1 F1800 X144.553 Y123.340 E470.48587
G0 F9000 X144.553 Y122.774
G1 F1800 X116.014 Y94.235 E472.49945
G0 F9000 X116.579 Y94.235
