;Generated with Cura_SteamEngine 14.09
; Default start code
G28 ; Home extruder
G1 Z15 F100
M107 ; Turn off fan
G90 ; Absolute positioning
M82 ; Extruder in absolute mode
M190 S50
; Activate all used extruder
M104 T0 S210
G92 E0 ; Reset extruder position
; Wait for all used extruders to reach temperature
M109 T0 S210
;Layer count: 20
;LAYER:0
M107
G0 F9000 X41.478 Y96.472 Z0.300
G0 X43.295 Y95.962
;TYPE:SKIRT
G1 F1800 X50.869 Y95.963 E0.37787
G1 X54.611 Y95.962 E0.56456
G1 X61.980 Y95.963 E0.93220
G1 X65.722 Y95.962 E1.11889
G1 X73.091 Y95.963 E1.48653
G1 X76.833 Y95.962 E1.67322
G1 X84.202 Y95.963 E2.04086
G1 X87.944 Y95.962 E2.22755
G1 X95.313 Y95.963 E2.59519
G1 X99.055 Y95.962 E2.78188
G1 X106.424 Y95.963 E3.14952
G1 X110.166 Y95.962 E3.33621
G1 X117.535 Y95.963 E3.70385
G1 X121.277 Y95.962 E3.89054
G1 X128.646 Y95.963 E4.25818
G1 X132.388 Y95.962 E4.44487
G1 X139.757 Y95.963 E4.81251
G1 X144.039 Y95.962 E5.02614
G1 X146.278 Y96.738 E5.14436
G1 X149.532 Y100.039 E5.37561
G1 X147.209 Y102.316 E5.53790
G1 X146.282 Y103.258 E5.60383
G1 X144.040 Y104.037 E5.72225
G1 X43.287 Y104.038 E10.74884
G1 X42.449 Y103.926 E10.79102
G1 X41.478 Y103.527 E10.84339
G1 X40.626 Y102.879 E10.89679
G1 X39.972 Y102.024 E10.95050
G1 X39.570 Y101.041 E11.00348
G1 X39.435 Y100.001 E11.05580
G1 X39.570 Y98.956 E11.10837
G1 X39.972 Y97.978 E11.16112
G1 X40.622 Y97.122 E11.21475
G1 X41.478 Y96.472 E11.26837
G1 X42.456 Y96.070 E11.32112
G1 X43.295 Y95.962 E11.36333
G1 F2400 E7.36333
G0 F9000 X43.438 Y99.775
;TYPE:WALL-INNER
G1 F2400 E11.36333
G1 F1800 X143.398 Y99.762 E16.35035
G1 X144.083 Y99.999 E16.38651
G1 X143.398 Y100.237 E16.42269
G1 X43.542 Y100.238 E21.40453
G1 X43.439 Y100.224 E21.40972
G1 X43.382 Y100.201 E21.41278
G1 X43.333 Y100.164 E21.41585
G1 X43.297 Y100.117 E21.41880
G1 X43.275 Y100.063 E21.42171
G1 X43.267 Y100.000 E21.42488
G1 X43.275 Y99.938 E21.42800
G1 X43.298 Y99.882 E21.43102
G1 X43.334 Y99.834 E21.43401
G1 X43.382 Y99.798 E21.43700
G1 X43.438 Y99.775 E21.44002
G0 F9000 X43.511 Y99.362
;TYPE:WALL-OUTER
G1 F1800 X143.466 Y99.362 E26.42680
G1 X144.416 Y99.691 E26.47696
G1 X144.719 Y99.999 E26.49851
G1 X144.415 Y100.307 E26.52010
G1 X143.466 Y100.637 E26.57023
G1 X43.511 Y100.638 E31.55700
G1 X43.336 Y100.615 E31.56581
G1 X43.180 Y100.551 E31.57422
G1 X43.048 Y100.450 E31.58251
G1 X42.948 Y100.319 E31.59074
G1 X42.885 Y100.163 E31.59913
G1 X42.863 Y100.000 E31.60734
G1 X42.885 Y99.836 E31.61559
G1 X42.948 Y99.680 E31.62398
G1 X43.049 Y99.549 E31.63224
G1 X43.180 Y99.448 E31.64049
G1 X43.336 Y99.385 E31.64888
G1 X43.511 Y99.362 E31.65769
G0 F9000 X43.628 Y99.914
;TYPE:FILL
G1 F1800 X44.002 Y100.005 E31.67051
G1 X44.567 Y100.005 E31.68326
G1 X45.133 Y100.005 E31.69611
G1 X45.699 Y100.005 E31.70889
G1 X46.264 Y100.005 E31.72164
G1 X46.830 Y100.005 E31.73449
G1 X47.396 Y100.005 E31.74734
G1 X47.961 Y100.005 E31.76009
G1 X48.527 Y100.005 E31.77294
G1 X49.093 Y100.004 E31.78579
G1 X49.658 Y100.004 E31.79862
G1 X50.224 Y100.004 E31.81146
G1 X50.790 Y100.004 E31.82431
G1 X51.355 Y100.004 E31.83714
G1 X51.921 Y100.004 E31.84999
G1 X52.487 Y100.004 E31.86283
G1 X53.052 Y100.004 E31.87566
G1 X53.618 Y100.004 E31.88851
G1 X54.184 Y100.004 E31.90136
G1 X54.749 Y100.004 E31.91418
G1 X55.315 Y100.004 E31.92710
G1 X55.881 Y100.004 E31.94002
G1 X56.446 Y100.004 E31.95299
G1 X57.012 Y100.004 E31.96591
G1 X57.578 Y100.004 E31.97882
G1 X58.143 Y100.004 E31.99179
G1 X58.709 Y100.004 E32.00471
G1 X59.275 Y100.004 E32.01763
G1 X59.840 Y100.004 E32.03059
G1 X60.405 Y100.004 E32.04356
G1 X60.971 Y100.004 E32.05648
G1 X61.537 Y100.004 E32.06940
G1 X62.102 Y100.004 E32.08236
G1 X62.668 Y100.004 E32.09528
G1 X63.234 Y100.004 E32.10820
G1 X63.800 Y100.004 E32.12112
G1 X64.365 Y100.004 E32.13409
G1 X64.931 Y100.004 E32.14701
G1 X65.496 Y100.003 E32.15997
G1 X66.062 Y100.003 E32.17296
G1 X66.628 Y100.003 E32.18595
G1 X67.194 Y100.003 E32.19901
G1 X67.759 Y100.003 E32.21198
G1 X68.325 Y100.003 E32.22497
G1 X68.891 Y100.003 E32.23803
G1 X69.456 Y100.003 E32.25099
G1 X70.022 Y100.003 E32.26398
G1 X70.588 Y100.003 E32.27704
G1 X71.153 Y100.003 E32.29001
G1 X71.719 Y100.003 E32.30307
G1 X72.284 Y100.003 E32.31618
G1 X72.850 Y100.003 E32.32924
G1 X73.416 Y100.003 E32.34230
G1 X73.981 Y100.003 E32.35541
G1 X74.547 Y100.003 E32.36847
G1 X75.113 Y100.003 E32.38153
G1 X75.679 Y100.003 E32.39459
G1 X76.244 Y100.003 E32.40762
G1 X76.809 Y100.002 E32.42073
G1 X77.375 Y100.002 E32.43386
G1 X77.941 Y100.002 E32.44699
G1 X78.506 Y100.002 E32.46010
G1 X79.072 Y100.002 E32.47323
G1 X79.638 Y100.002 E32.48636
G1 X80.203 Y100.002 E32.49947
G1 X80.769 Y100.002 E32.51260
G1 X81.335 Y100.002 E32.52573
G1 X81.900 Y100.002 E32.53884
G1 X82.466 Y100.002 E32.55197
G1 X83.032 Y100.002 E32.56517
G1 X83.597 Y100.002 E32.57827
G1 X84.163 Y100.002 E32.59141
G1 X84.729 Y100.002 E32.60461
G1 X85.294 Y100.002 E32.61771
G1 X85.860 Y100.002 E32.63084
G1 X86.426 Y100.002 E32.64405
G1 X86.992 Y100.002 E32.65725
G1 X87.557 Y100.002 E32.67035
G1 X88.122 Y100.002 E32.68346
G1 X88.688 Y100.002 E32.69666
G1 X89.254 Y100.002 E32.70986
G1 X89.820 Y100.002 E32.72307
G1 X90.385 Y100.002 E32.73624
G1 X90.951 Y100.002 E32.74944
G1 X91.517 Y100.002 E32.76265
G1 X92.082 Y100.002 E32.77582
G1 X92.648 Y100.002 E32.78902
G1 X93.214 Y100.002 E32.80223
G1 X93.779 Y100.001 E32.81540
G1 X94.344 Y100.001 E32.82865
G1 X94.910 Y100.001 E32.84192
G1 X95.476 Y100.001 E32.85520
G1 X96.041 Y100.001 E32.86844
G1 X96.607 Y100.001 E32.88172
G1 X97.173 Y100.001 E32.89499
G1 X97.739 Y100.001 E32.90826
G1 X98.304 Y100.001 E32.92158
G1 X98.870 Y100.001 E32.93485
G1 X99.436 Y100.001 E32.94812
G1 X100.001 Y100.001 E32.96144
G1 X100.567 Y100.001 E32.97471
G1 X101.133 Y100.001 E32.98798
G1 X101.698 Y100.001 E33.00130
G1 X102.264 Y100.001 E33.01457
G1 X102.830 Y100.001 E33.02785
G1 X103.395 Y100.001 E33.04117
G1 X103.961 Y100.001 E33.05444
G1 X104.526 Y100.001 E33.06776
G1 X105.092 Y100.001 E33.08110
G1 X105.658 Y100.001 E33.09444
G1 X106.223 Y100.001 E33.10776
G1 X106.789 Y100.001 E33.12117
G1 X107.355 Y100.001 E33.13451
G1 X107.920 Y100.001 E33.14783
G1 X108.486 Y100.001 E33.16125
G1 X109.052 Y100.001 E33.17459
G1 X109.617 Y100.001 E33.18791
G1 X110.183 Y100.000 E33.20132
G1 X110.748 Y100.000 E33.21478
G1 X111.314 Y100.000 E33.22819
G1 X111.880 Y100.000 E33.24161
G1 X112.445 Y100.000 E33.25507
G1 X113.011 Y100.000 E33.26848
G1 X113.577 Y100.000 E33.28189
G1 X114.142 Y100.000 E33.29535
G1 X114.708 Y100.000 E33.30876
G1 X115.274 Y100.000 E33.32218
G1 X115.839 Y100.000 E33.33557
G1 X116.405 Y100.000 E33.34898
G1 X116.971 Y100.000 E33.36246
G1 X117.537 Y100.000 E33.37595
G1 X118.102 Y100.000 E33.38941
G1 X118.668 Y100.000 E33.40289
G1 X119.234 Y100.000 E33.41637
G1 X119.799 Y100.000 E33.42983
G1 X120.365 Y100.000 E33.44332
G1 X120.931 Y100.000 E33.45680
G1 X121.496 Y100.000 E33.47026
G1 X122.061 Y100.000 E33.48372
G1 X122.627 Y100.000 E33.49727
G1 X123.193 Y100.000 E33.51076
G1 X123.758 Y100.000 E33.52422
G1 X124.324 Y100.000 E33.53777
G1 X124.890 Y100.000 E33.55126
G1 X125.455 Y100.000 E33.56472
G1 X126.021 Y100.000 E33.57827
G1 X126.586 Y99.999 E33.59173
G1 X127.152 Y99.999 E33.60528
G1 X127.718 Y99.999 E33.61884
G1 X128.284 Y99.999 E33.63239
G1 X128.849 Y99.999 E33.64592
G1 X129.415 Y99.999 E33.65948
G1 X129.981 Y99.999 E33.67303
G1 X130.546 Y99.999 E33.68656
G1 X131.112 Y99.999 E33.70012
G1 X131.678 Y99.999 E33.71367
G1 X132.243 Y99.999 E33.72720
G1 X132.809 Y99.999 E33.74082
G1 X133.375 Y99.999 E33.75445
G1 X133.940 Y99.999 E33.76805
G1 X134.506 Y99.999 E33.78167
G1 X135.072 Y99.999 E33.79530
G1 X135.637 Y99.999 E33.80890
G1 X136.203 Y99.999 E33.82252
G1 X136.769 Y99.999 E33.83615
G1 X137.334 Y99.999 E33.84975
G1 X137.899 Y99.999 E33.86335
G1 X138.465 Y99.999 E33.87705
G1 X139.031 Y99.999 E33.89074
G1 X139.596 Y99.999 E33.90434
G1 X140.162 Y99.999 E33.91804
G1 X140.728 Y99.999 E33.93173
G1 X141.294 Y99.999 E33.94536
G1 X141.859 Y99.999 E33.95896
G1 X142.425 Y99.999 E33.97265
G1 X142.991 Y99.999 E33.98628
G1 X143.371 Y100.096 E34.00584
;LAYER:1
M106 S63
G0 F9000 X143.437 Y99.426 Z0.500
;TYPE:WALL-INNER
G1 F2520 X144.483 Y99.653 E34.04144
G1 X145.480 Y100.000 E34.07656
G1 X144.484 Y100.346 E34.11163
G1 X143.438 Y100.573 E34.14722
G1 X43.543 Y100.574 E37.46975
G1 X43.351 Y100.548 E37.47619
G1 X43.215 Y100.492 E37.48108
G1 X43.096 Y100.401 E37.48606
G1 X43.006 Y100.284 E37.49097
G1 X42.951 Y100.150 E37.49579
G1 X42.931 Y100.000 E37.50083
G1 X42.951 Y99.851 E37.50583
G1 X43.007 Y99.715 E37.51072
G1 X43.097 Y99.597 E37.51565
G1 X43.215 Y99.507 E37.52059
G1 X43.351 Y99.451 E37.52548
G1 X43.540 Y99.426 E37.53182
G1 X143.437 Y99.426 E40.85441
G0 F9000 X143.481 Y99.026
;TYPE:WALL-OUTER
G1 F1980 X144.591 Y99.267 E40.89219
G1 X145.970 Y99.746 E40.94074
G1 X146.219 Y99.999 E40.95255
G1 X145.968 Y100.253 E40.96443
G1 X144.592 Y100.732 E41.01289
G1 X143.481 Y100.973 E41.05070
G1 X43.512 Y100.974 E44.37568
G1 X43.250 Y100.939 E44.38447
G1 X43.012 Y100.840 E44.39304
G1 X42.813 Y100.689 E44.40135
G1 X42.657 Y100.485 E44.40989
G1 X42.560 Y100.251 E44.41832
G1 X42.527 Y100.000 E44.42674
G1 X42.560 Y99.750 E44.43513
G1 X42.659 Y99.512 E44.44370
G1 X42.812 Y99.312 E44.45208
G1 X43.012 Y99.159 E44.46045
G1 X43.250 Y99.060 E44.46902
G1 X43.511 Y99.026 E44.47778
G1 X143.481 Y99.026 E47.80279
G0 F9000 X143.444 Y99.325
G0 X142.528 Y100.433
;TYPE:FILL
G1 F2520 X143.396 Y99.565 E47.84362
G0 F9000 X141.963 Y100.433
G1 F2520 X142.830 Y99.565 E47.88443
G0 F9000 X141.397 Y100.433
G1 F2520 X142.264 Y99.565 E47.92523
G0 F9000 X140.831 Y100.433
G1 F2520 X141.699 Y99.565 E47.96606
G0 F9000 X140.265 Y100.433
G1 F2520 X141.133 Y99.565 E48.00689
G0 F9000 X139.700 Y100.433
G1 F2520 X140.567 Y99.565 E48.04769
G0 F9000 X139.134 Y100.433
G1 F2520 X140.002 Y99.565 E48.08852
G0 F9000 X138.568 Y100.433
G1 F2520 X139.436 Y99.565 E48.12935
G0 F9000 X138.003 Y100.433
G1 F2520 X138.870 Y99.565 E48.17015
G0 F9000 X137.437 Y100.433
G1 F2520 X138.305 Y99.565 E48.21098
G0 F9000 X136.871 Y100.433
G1 F2520 X137.739 Y99.565 E48.25181
G0 F9000 X136.306 Y100.433
G1 F2520 X137.173 Y99.565 E48.29261
G0 F9000 X135.740 Y100.433
G1 F2520 X136.608 Y99.565 E48.33344
G0 F9000 X135.174 Y100.433
G1 F2520 X136.042 Y99.565 E48.37427
G0 F9000 X134.609 Y100.433
G1 F2520 X135.476 Y99.565 E48.41507
G0 F9000 X134.043 Y100.433
G1 F2520 X134.911 Y99.565 E48.45590
G0 F9000 X133.477 Y100.433
G1 F2520 X134.345 Y99.565 E48.49673
G0 F9000 X132.912 Y100.433
G1 F2520 X133.779 Y99.565 E48.53753
G0 F9000 X132.346 Y100.433
G1 F2520 X133.213 Y99.565 E48.57834
G0 F9000 X131.780 Y100.433
G1 F2520 X132.648 Y99.565 E48.61917
G0 F9000 X131.214 Y100.433
G1 F2520 X132.082 Y99.565 E48.66000
G0 F9000 X130.649 Y100.433
G1 F2520 X131.516 Y99.565 E48.70080
G0 F9000 X130.083 Y100.433
G1 F2520 X130.951 Y99.565 E48.74163
G0 F9000 X129.517 Y100.433
G1 F2520 X130.385 Y99.565 E48.78246
G0 F9000 X128.952 Y100.433
G1 F2520 X129.819 Y99.565 E48.82326
G0 F9000 X128.386 Y100.433
G1 F2520 X129.254 Y99.565 E48.86409
G0 F9000 X127.820 Y100.433
G1 F2520 X128.688 Y99.565 E48.90492
G0 F9000 X127.255 Y100.433
G1 F2520 X128.122 Y99.565 E48.94572
G0 F9000 X126.689 Y100.433
G1 F2520 X127.557 Y99.565 E48.98655
G0 F9000 X126.123 Y100.433
G1 F2520 X126.991 Y99.565 E49.02738
G0 F9000 X125.558 Y100.433
G1 F2520 X126.425 Y99.565 E49.06818
G0 F9000 X124.992 Y100.433
G1 F2520 X125.860 Y99.565 E49.10901
G0 F9000 X124.426 Y100.433
G1 F2520 X125.294 Y99.565 E49.14984
G0 F9000 X123.861 Y100.433
G1 F2520 X124.728 Y99.565 E49.19064
G0 F9000 X123.295 Y100.433
G1 F2520 X124.163 Y99.565 E49.23147
G0 F9000 X122.729 Y100.433
G1 F2520 X123.597 Y99.565 E49.27230
G0 F9000 X122.164 Y100.433
G1 F2520 X123.031 Y99.565 E49.31310
G0 F9000 X121.598 Y100.433
G1 F2520 X122.465 Y99.565 E49.35391
G0 F9000 X121.032 Y100.433
G1 F2520 X121.900 Y99.565 E49.39474
G0 F9000 X120.466 Y100.433
G1 F2520 X121.334 Y99.565 E49.43556
G0 F9000 X119.901 Y100.433
G1 F2520 X120.768 Y99.565 E49.47637
G0 F9000 X119.335 Y100.433
G1 F2520 X120.203 Y99.565 E49.51720
G0 F9000 X118.769 Y100.433
G1 F2520 X119.637 Y99.565 E49.55802
G0 F9000 X118.204 Y100.433
G1 F2520 X119.071 Y99.565 E49.59883
G0 F9000 X117.638 Y100.433
G1 F2520 X118.506 Y99.565 E49.63966
G0 F9000 X117.072 Y100.433
G1 F2520 X117.940 Y99.565 E49.68049
G0 F9000 X116.507 Y100.433
G1 F2520 X117.374 Y99.565 E49.72129
G0 F9000 X115.941 Y100.433
G1 F2520 X116.809 Y99.565 E49.76212
G0 F9000 X115.375 Y100.433
G1 F2520 X116.243 Y99.565 E49.80295
G0 F9000 X114.810 Y100.433
G1 F2520 X115.677 Y99.565 E49.84375
G0 F9000 X114.244 Y100.433
G1 F2520 X115.112 Y99.565 E49.88458
G0 F9000 X113.678 Y100.433
G1 F2520 X114.546 Y99.565 E49.92541
G0 F9000 X113.113 Y100.433
G1 F2520 X113.980 Y99.565 E49.96621
G0 F9000 X112.547 Y100.433
G1 F2520 X113.414 Y99.565 E50.00702
G0 F9000 X111.981 Y100.433
G1 F2520 X112.849 Y99.565 E50.04784
G0 F9000 X111.415 Y100.433
G1 F2520 X112.283 Y99.565 E50.08867
G0 F9000 X110.850 Y100.433
G1 F2520 X111.717 Y99.565 E50.12948
G0 F9000 X110.284 Y100.433
G1 F2520 X111.152 Y99.565 E50.17030
G0 F9000 X109.718 Y100.433
G1 F2520 X110.586 Y99.565 E50.21113
G0 F9000 X109.153 Y100.433
G1 F2520 X110.020 Y99.565 E50.25194
G0 F9000 X108.587 Y100.433
G1 F2520 X109.455 Y99.565 E50.29277
G0 F9000 X108.021 Y100.433
G1 F2520 X108.889 Y99.565 E50.33359
G0 F9000 X107.456 Y100.433
G1 F2520 X108.323 Y99.565 E50.37440
G0 F9000 X106.890 Y100.433
G1 F2520 X107.758 Y99.565 E50.41523
G0 F9000 X106.324 Y100.433
G1 F2520 X107.192 Y99.565 E50.45605
G0 F9000 X105.759 Y100.433
G1 F2520 X106.626 Y99.565 E50.49686
G0 F9000 X105.193 Y100.433
G1 F2520 X106.061 Y99.565 E50.53769
G0 F9000 X104.627 Y100.433
G1 F2520 X105.495 Y99.565 E50.57851
G0 F9000 X104.062 Y100.433
G1 F2520 X104.929 Y99.565 E50.61932
G0 F9000 X103.496 Y100.433
G1 F2520 X104.364 Y99.565 E50.66015
G0 F9000 X102.930 Y100.433
G1 F2520 X103.798 Y99.565 E50.70098
G0 F9000 X102.365 Y100.433
G1 F2520 X103.232 Y99.565 E50.74178
G0 F9000 X101.799 Y100.433
G1 F2520 X102.666 Y99.565 E50.78258
G0 F9000 X101.233 Y100.433
G1 F2520 X102.101 Y99.565 E50.82341
G0 F9000 X100.667 Y100.433
G1 F2520 X101.535 Y99.565 E50.86424
G0 F9000 X100.102 Y100.433
G1 F2520 X100.969 Y99.565 E50.90505
G0 F9000 X99.536 Y100.433
G1 F2520 X100.404 Y99.565 E50.94587
G0 F9000 X98.970 Y100.433
G1 F2520 X99.838 Y99.565 E50.98670
G0 F9000 X98.405 Y100.433
G1 F2520 X99.272 Y99.565 E51.02751
G0 F9000 X97.839 Y100.433
G1 F2520 X98.707 Y99.565 E51.06833
G0 F9000 X97.273 Y100.433
G1 F2520 X98.141 Y99.565 E51.10916
G0 F9000 X96.708 Y100.433
G1 F2520 X97.575 Y99.565 E51.14997
G0 F9000 X96.142 Y100.433
G1 F2520 X97.010 Y99.565 E51.19079
G0 F9000 X95.576 Y100.433
G1 F2520 X96.444 Y99.565 E51.23162
G0 F9000 X95.011 Y100.433
G1 F2520 X95.878 Y99.565 E51.27243
G0 F9000 X94.445 Y100.433
G1 F2520 X95.313 Y99.565 E51.31326
G0 F9000 X93.879 Y100.433
G1 F2520 X94.747 Y99.565 E51.35408
G0 F9000 X93.314 Y100.433
G1 F2520 X94.181 Y99.565 E51.39489
G0 F9000 X92.748 Y100.433
G1 F2520 X93.615 Y99.565 E51.43569
G0 F9000 X92.182 Y100.433
G1 F2520 X93.050 Y99.565 E51.47652
G0 F9000 X91.616 Y100.433
G1 F2520 X92.484 Y99.565 E51.51735
G0 F9000 X91.051 Y100.433
G1 F2520 X91.918 Y99.565 E51.55815
G0 F9000 X90.485 Y100.433
G1 F2520 X91.353 Y99.565 E51.59898
G0 F9000 X89.919 Y100.433
G1 F2520 X90.787 Y99.565 E51.63981
G0 F9000 X89.354 Y100.433
G1 F2520 X90.221 Y99.565 E51.68061
G0 F9000 X88.788 Y100.433
G1 F2520 X89.656 Y99.565 E51.72144
G0 F9000 X88.222 Y100.433
G1 F2520 X89.090 Y99.565 E51.76227
G0 F9000 X87.657 Y100.433
G1 F2520 X88.524 Y99.565 E51.80307
G0 F9000 X87.091 Y100.433
G1 F2520 X87.959 Y99.565 E51.84390
G0 F9000 X86.525 Y100.433
G1 F2520 X87.393 Y99.565 E51.88473
G0 F9000 X85.960 Y100.433
G1 F2520 X86.827 Y99.565 E51.92553
G0 F9000 X85.394 Y100.433
G1 F2520 X86.262 Y99.565 E51.96636
G0 F9000 X84.828 Y100.433
G1 F2520 X85.696 Y99.565 E52.00719
G0 F9000 X84.263 Y100.433
G1 F2520 X85.130 Y99.565 E52.04800
G0 F9000 X83.697 Y100.433
G1 F2520 X84.565 Y99.565 E52.08882
G0 F9000 X83.131 Y100.433
G1 F2520 X83.999 Y99.565 E52.12965
G0 F9000 X82.566 Y100.433
G1 F2520 X83.433 Y99.565 E52.17046
G0 F9000 X82.000 Y100.433
