;Generated with Cura_SteamEngine 14.09
; Default start code
G28 ; Home extruder
G1 Z15 F100
M107 ; Turn off fan
G90 ; Absolute positioning
M82 ; Extruder in absolute mode
M190 S50
; Activate all used extruder
M104 T0 S210
G92 E0 ; Reset extruder position
; Wait for all used extruders to reach temperature
M109 T0 S210
;Layer count: 28
;LAYER:0
M107
G0 F9000 X78.157 Y81.423 Z0.300
;TYPE:SKIRT
G1 F1800 X81.896 Y81.423 E0.18654
G1 X90.154 Y84.176 E0.62082
G1 X90.954 Y84.375 E0.66195
G1 X96.235 Y86.136 E0.93968
G1 X96.663 Y85.708 E0.96988
G1 X96.663 Y85.508 E0.97986
G1 X97.063 Y85.108 E1.00808
G1 X97.063 Y84.908 E1.01806
G1 X97.663 Y84.308 E1.06039
G1 X97.663 Y84.108 E1.07037
G1 X98.263 Y83.508 E1.11271
G1 X98.263 Y83.308 E1.12268
G1 X98.663 Y82.908 E1.15091
G1 X98.663 Y82.708 E1.16088
G1 X99.263 Y82.108 E1.20322
G1 X99.263 Y81.908 E1.21319
G1 X99.863 Y81.308 E1.25553
G1 X99.863 Y81.108 E1.26551
G1 X100.263 Y80.708 E1.29373
G1 X100.263 Y80.508 E1.30371
G1 X100.863 Y79.908 E1.34604
G1 X100.863 Y79.708 E1.35602
G1 X101.463 Y79.108 E1.39835
G1 X101.463 Y78.908 E1.40833
G1 X101.863 Y78.508 E1.43655
G1 X101.863 Y78.308 E1.44653
G1 X102.463 Y77.708 E1.48886
G1 X102.463 Y77.508 E1.49884
G1 X103.063 Y76.908 E1.54117
G1 X103.063 Y76.708 E1.55115
G1 X103.463 Y76.308 E1.57937
G1 X103.463 Y76.108 E1.58935
G1 X104.063 Y75.508 E1.63168
G1 X104.063 Y75.308 E1.64166
G1 X106.548 Y72.823 E1.81699
G1 X112.163 Y72.823 E2.09713
G1 X112.163 Y91.245 E3.01620
G1 X114.961 Y92.178 E3.16335
G1 X118.912 Y93.165 E3.36653
G1 X118.884 Y93.419 E3.37928
G1 X120.554 Y93.976 E3.46710
G1 X121.353 Y94.175 E3.50818
G1 X129.563 Y96.912 E3.93994
G1 X129.563 Y102.734 E4.23040
G1 X121.353 Y105.471 E4.66217
G1 X120.554 Y105.670 E4.70325
G1 X115.296 Y107.423 E4.97976
G1 X115.096 Y107.423 E4.98974
G1 X112.163 Y108.401 E5.14399
G1 X112.163 Y127.023 E6.07304
G1 X106.548 Y127.023 E6.35318
G1 X104.063 Y124.538 E6.52851
G1 X104.063 Y124.338 E6.53849
G1 X103.463 Y123.738 E6.58082
G1 X103.463 Y123.538 E6.59080
G1 X103.063 Y123.138 E6.61902
G1 X103.063 Y122.938 E6.62900
G1 X102.463 Y122.338 E6.67133
G1 X102.463 Y122.138 E6.68131
G1 X101.863 Y121.538 E6.72364
G1 X101.863 Y121.338 E6.73362
G1 X101.463 Y120.938 E6.76184
G1 X101.463 Y120.738 E6.77182
G1 X100.863 Y120.138 E6.81415
G1 X100.863 Y119.938 E6.82413
G1 X100.263 Y119.338 E6.86647
G1 X100.263 Y119.138 E6.87644
G1 X99.863 Y118.738 E6.90467
G1 X99.863 Y118.538 E6.91464
G1 X99.263 Y117.938 E6.95698
G1 X99.263 Y117.738 E6.96695
G1 X98.663 Y117.138 E7.00929
G1 X98.663 Y116.938 E7.01927
G1 X98.263 Y116.538 E7.04749
G1 X98.263 Y116.338 E7.05747
G1 X97.663 Y115.738 E7.09980
G1 X97.663 Y115.538 E7.10978
G1 X97.063 Y114.938 E7.15211
G1 X97.063 Y114.738 E7.16209
G1 X96.663 Y114.338 E7.19031
G1 X96.663 Y114.138 E7.20029
G1 X96.235 Y113.710 E7.23049
G1 X91.554 Y115.271 E7.47667
G1 X90.754 Y115.470 E7.51779
G1 X85.163 Y117.334 E7.81182
G1 X85.163 Y118.338 E7.86191
G1 X84.963 Y118.538 E7.87602
G1 X84.963 Y121.023 E8.00000
G1 X82.879 Y121.023 E8.10397
G1 X81.970 Y121.932 E8.16811
G1 X79.896 Y122.623 E8.27717
G1 X76.929 Y122.623 E8.42520
G1 X75.466 Y122.135 E8.50214
G1 X73.452 Y121.128 E8.61448
G1 X71.463 Y119.138 E8.75485
G1 X71.463 Y118.938 E8.76483
G1 X71.263 Y118.738 E8.77894
G1 X71.263 Y118.338 E8.79889
G1 X71.063 Y118.138 E8.81300
G1 X71.063 Y117.938 E8.82298
G1 X70.863 Y117.738 E8.83709
G1 X70.863 Y113.108 E9.06808
G1 X71.063 Y112.908 E9.08220
G1 X71.063 Y112.708 E9.09217
G1 X71.263 Y112.508 E9.10629
G1 X71.263 Y112.308 E9.11626
G1 X71.863 Y111.708 E9.15860
G1 X71.863 Y111.508 E9.16857
G1 X74.057 Y109.314 E9.32337
G1 X75.267 Y108.911 E9.38700
G1 X76.243 Y108.423 E9.44144
G1 X79.983 Y108.423 E9.62803
G1 X80.063 Y108.463 E9.63249
G1 X80.063 Y108.308 E9.64023
G1 X80.663 Y107.708 E9.68256
G1 X80.663 Y107.508 E9.69254
G1 X81.263 Y106.908 E9.73487
G1 X81.263 Y106.708 E9.74485
G1 X81.663 Y106.308 E9.77307
G1 X81.663 Y106.108 E9.78305
G1 X82.263 Y105.508 E9.82538
G1 X82.263 Y105.308 E9.83536
G1 X82.663 Y104.908 E9.86358
G1 X82.663 Y104.708 E9.87356
G1 X83.263 Y104.108 E9.91589
G1 X83.263 Y103.908 E9.92587
G1 X83.663 Y103.508 E9.95409
G1 X83.663 Y103.308 E9.96407
G1 X84.263 Y102.708 E10.00640
G1 X84.263 Y102.508 E10.01638
G1 X84.863 Y101.908 E10.05872
G1 X84.863 Y101.708 E10.06869
G1 X85.263 Y101.308 E10.09692
G1 X85.263 Y101.108 E10.10689
G1 X85.863 Y100.508 E10.14923
G1 X85.863 Y100.308 E10.15920
G1 X86.263 Y99.908 E10.18743
G1 X86.263 Y99.738 E10.19591
G1 X85.863 Y99.338 E10.22413
G1 X85.863 Y99.138 E10.23411
G1 X85.263 Y98.538 E10.27644
G1 X85.263 Y98.338 E10.28642
G1 X84.663 Y97.738 E10.32875
G1 X84.663 Y97.538 E10.33873
G1 X84.263 Y97.138 E10.36695
G1 X84.263 Y96.938 E10.37693
G1 X83.663 Y96.338 E10.41926
G1 X83.663 Y96.138 E10.42924
G1 X83.063 Y95.538 E10.47158
G1 X83.063 Y95.338 E10.48155
G1 X82.663 Y94.938 E10.50978
G1 X82.663 Y94.738 E10.51975
G1 X82.063 Y94.138 E10.56209
G1 X82.063 Y93.938 E10.57207
G1 X81.463 Y93.338 E10.61440
G1 X81.463 Y93.138 E10.62438
G1 X81.063 Y92.738 E10.65260
G1 X81.063 Y92.538 E10.66258
G1 X80.463 Y91.938 E10.70491
G1 X80.463 Y91.738 E10.71489
G1 X79.863 Y91.138 E10.75722
G1 X79.863 Y90.938 E10.76720
G1 X79.463 Y90.538 E10.79542
G1 X79.463 Y90.338 E10.80540
G1 X78.863 Y89.738 E10.84773
G1 X78.863 Y89.538 E10.85771
G1 X78.263 Y88.938 E10.90004
G1 X78.263 Y88.738 E10.91002
G1 X77.863 Y88.338 E10.93824
G1 X77.863 Y88.138 E10.94822
G1 X77.263 Y87.538 E10.99056
G1 X77.263 Y87.339 E11.00048
G1 X76.162 Y86.238 E11.07817
G1 X78.157 Y81.423 E11.33819
G1 F2400 E7.33819
G0 F9000 X99.921 Y99.335
;TYPE:WALL-OUTER
G1 F2400 E11.33819
G1 F1800 X100.704 Y99.589 E11.37926
G1 X101.185 Y98.925 E11.42016
G1 X101.185 Y99.746 E11.46112
G1 X101.967 Y100.000 E11.50214
G1 X101.185 Y100.254 E11.54316
G1 X101.185 Y101.075 E11.58412
G1 X100.704 Y100.411 E11.62503
G1 X99.921 Y100.665 E11.66610
G1 X100.404 Y100.000 E11.70710
G1 X99.921 Y99.335 E11.74811
G0 F9000 X100.482 Y100.335
;TYPE:FILL
G1 F1800 X101.044 Y99.774 E11.78772
G0 F9000 X102.085 Y99.092
;TYPE:SUPPORT
G1 F1800 X102.085 Y97.800 E11.85218
G1 X101.117 Y97.486 E11.90295
G1 X100.359 Y98.531 E11.96736
G1 X99.131 Y98.132 E12.03178
G1 X98.533 Y98.955 E12.08253
G1 X99.292 Y100.000 E12.14697
G1 X98.533 Y101.045 E12.21140
G1 X99.131 Y101.868 E12.26216
G1 X100.359 Y101.469 E12.32658
G1 X101.117 Y102.514 E12.39098
G1 X102.085 Y102.200 E12.44175
G1 X102.085 Y100.908 E12.50621
G1 X103.314 Y100.509 E12.57068
G1 X103.314 Y99.491 E12.62146
G1 X102.085 Y99.092 E12.68593
G0 F9000 X102.185 Y99.082
G0 X109.260 Y93.650
G1 F1800 X114.059 Y95.251 E12.93833
G1 X114.858 Y95.450 E12.97941
G1 X119.659 Y97.051 E13.23189
G1 X120.460 Y97.250 E13.27307
G1 X125.585 Y98.958 E13.54258
G1 X125.585 Y100.688 E13.62889
G1 X120.460 Y102.396 E13.89841
G1 X119.659 Y102.595 E13.93958
G1 X114.778 Y104.223 E14.19629
G1 X114.575 Y104.223 E14.20641
G1 X109.260 Y105.996 E14.48595
G1 X108.963 Y106.070 E14.50122
G1 X108.963 Y122.419 E15.31687
G1 X107.480 Y123.032 E15.39693
G1 X106.263 Y121.811 E15.48294
G1 X106.263 Y121.612 E15.49286
G1 X105.663 Y121.011 E15.53523
G1 X105.663 Y120.812 E15.54516
G1 X105.063 Y120.211 E15.58753
G1 X105.063 Y120.012 E15.59746
G1 X104.663 Y119.611 E15.62572
G1 X104.663 Y119.412 E15.63564
G1 X104.063 Y118.811 E15.67801
G1 X104.063 Y118.612 E15.68794
G1 X103.463 Y118.011 E15.73031
G1 X103.463 Y117.812 E15.74024
G1 X103.063 Y117.411 E15.76849
G1 X103.063 Y117.212 E15.77842
G1 X102.463 Y116.611 E15.82079
G1 X102.463 Y116.412 E15.83072
G1 X101.863 Y115.811 E15.87309
G1 X101.863 Y115.612 E15.88302
G1 X101.463 Y115.211 E15.91127
G1 X101.463 Y115.012 E15.92120
G1 X100.863 Y114.411 E15.96357
G1 X100.863 Y114.212 E15.97350
G1 X100.263 Y113.611 E16.01587
G1 X100.263 Y113.412 E16.02579
G1 X99.863 Y113.011 E16.05405
G1 X99.863 Y112.812 E16.06398
G1 X99.263 Y112.211 E16.10635
G1 X99.263 Y112.012 E16.11628
G1 X98.663 Y111.411 E16.15865
G1 X98.663 Y111.212 E16.16857
G1 X98.263 Y110.811 E16.19683
G1 X98.263 Y110.612 E16.20676
G1 X97.663 Y110.011 E16.24913
G1 X97.663 Y109.861 E16.25661
G1 X90.656 Y112.197 E16.62511
G1 X89.859 Y112.395 E16.66608
G1 X82.578 Y114.823 E17.04899
G1 X81.963 Y114.823 E17.07968
G1 X81.963 Y117.013 E17.18894
G1 X81.763 Y117.213 E17.20305
G1 X81.763 Y117.413 E17.21302
G1 X81.163 Y118.014 E17.25539
G1 X81.163 Y118.211 E17.26522
G1 X80.239 Y119.137 E17.33049
G1 X79.378 Y119.423 E17.37575
G1 X77.448 Y119.423 E17.47204
G1 X76.694 Y119.171 E17.51170
G1 X75.350 Y118.499 E17.58667
G1 X74.663 Y117.812 E17.63514
G1 X74.663 Y117.613 E17.64507
G1 X74.463 Y117.413 E17.65918
G1 X74.463 Y117.013 E17.67913
G1 X74.263 Y116.813 E17.69324
G1 X74.263 Y116.613 E17.70322
G1 X74.063 Y116.413 E17.71733
G1 X74.063 Y114.433 E17.81612
G1 X74.263 Y114.233 E17.83023
G1 X74.263 Y114.033 E17.84021
G1 X74.463 Y113.833 E17.85432
G1 X74.463 Y113.635 E17.86419
G1 X75.063 Y113.034 E17.90656
G1 X75.063 Y112.834 E17.91654
G1 X75.786 Y112.111 E17.96755
G1 X76.494 Y111.875 E18.00479
G1 X76.997 Y111.623 E18.03285
G1 X79.228 Y111.623 E18.14416
G1 X80.277 Y112.146 E18.20264
G1 X80.680 Y112.549 E18.23107
G1 X81.075 Y112.746 E18.25309
G1 X81.112 Y112.783 E18.25570
G1 X81.263 Y112.632 E18.26636
G1 X81.263 Y112.435 E18.27619
G1 X81.863 Y111.834 E18.31855
G1 X81.863 Y111.635 E18.32848
G1 X82.263 Y111.234 E18.35674
G1 X82.263 Y111.035 E18.36667
G1 X82.863 Y110.434 E18.40904
G1 X82.863 Y110.235 E18.41896
G1 X83.263 Y109.834 E18.44722
G1 X83.263 Y109.635 E18.45715
G1 X83.863 Y109.034 E18.49952
G1 X83.863 Y108.835 E18.50945
G1 X84.463 Y108.234 E18.55182
G1 X84.463 Y108.035 E18.56174
G1 X84.863 Y107.634 E18.59000
G1 X84.863 Y107.435 E18.59993
G1 X85.463 Y106.834 E18.64230
G1 X85.463 Y106.635 E18.65223
G1 X85.863 Y106.234 E18.68048
G1 X85.863 Y106.035 E18.69041
G1 X86.463 Y105.434 E18.73278
G1 X86.463 Y105.235 E18.74271
G1 X86.863 Y104.834 E18.77097
G1 X86.863 Y104.635 E18.78089
G1 X87.463 Y104.034 E18.82326
G1 X87.463 Y103.835 E18.83319
G1 X88.063 Y103.234 E18.87556
G1 X88.063 Y103.035 E18.88549
G1 X88.463 Y102.634 E18.91374
G1 X88.463 Y102.435 E18.92367
G1 X89.063 Y101.834 E18.96604
G1 X89.063 Y101.635 E18.97597
G1 X89.463 Y101.234 E19.00423
G1 X89.463 Y101.035 E19.01415
G1 X90.063 Y100.434 E19.05652
G1 X90.063 Y100.235 E19.06645
G1 X90.463 Y99.834 E19.09471
G1 X90.463 Y99.812 E19.09581
G1 X90.063 Y99.411 E19.12406
G1 X90.063 Y99.212 E19.13399
G1 X89.463 Y98.611 E19.17636
G1 X89.463 Y98.412 E19.18629
G1 X89.063 Y98.011 E19.21455
G1 X89.063 Y97.812 E19.22447
G1 X88.463 Y97.211 E19.26684
G1 X88.463 Y97.012 E19.27677
G1 X87.863 Y96.411 E19.31914
G1 X87.863 Y96.212 E19.32907
G1 X87.463 Y95.811 E19.35733
G1 X87.463 Y95.612 E19.36725
G1 X86.863 Y95.011 E19.40962
G1 X86.863 Y94.812 E19.41955
G1 X86.263 Y94.211 E19.46192
G1 X86.263 Y94.012 E19.47185
G1 X85.863 Y93.611 E19.50010
G1 X85.863 Y93.412 E19.51003
G1 X85.263 Y92.811 E19.55240
G1 X85.263 Y92.612 E19.56233
G1 X84.663 Y92.011 E19.60470
G1 X84.663 Y91.812 E19.61463
G1 X84.263 Y91.411 E19.64288
G1 X84.263 Y91.212 E19.65281
G1 X83.663 Y90.611 E19.69518
G1 X83.663 Y90.412 E19.70511
G1 X83.063 Y89.811 E19.74748
G1 X83.063 Y89.612 E19.75740
G1 X82.663 Y89.211 E19.78566
G1 X82.663 Y89.012 E19.79559
G1 X82.063 Y88.411 E19.83796
G1 X82.063 Y88.212 E19.84789
G1 X81.463 Y87.611 E19.89026
G1 X81.463 Y87.412 E19.90018
G1 X81.063 Y87.011 E19.92844
G1 X81.063 Y86.814 E19.93827
G1 X80.544 Y86.294 E19.97492
G1 X81.543 Y84.678 E20.06971
G1 X89.255 Y87.250 E20.47529
G1 X90.056 Y87.449 E20.51647
G1 X97.663 Y89.985 E20.91652
G1 X97.663 Y89.835 E20.92400
G1 X98.263 Y89.234 E20.96637
G1 X98.263 Y89.035 E20.97630
G1 X98.663 Y88.634 E21.00456
G1 X98.663 Y88.435 E21.01449
G1 X99.263 Y87.834 E21.05685
G1 X99.263 Y87.635 E21.06678
G1 X99.863 Y87.034 E21.10915
G1 X99.863 Y86.835 E21.11908
G1 X100.263 Y86.434 E21.14734
G1 X100.263 Y86.235 E21.15726
G1 X100.863 Y85.634 E21.19963
G1 X100.863 Y85.435 E21.20956
G1 X101.463 Y84.834 E21.25193
G1 X101.463 Y84.635 E21.26186
G1 X101.863 Y84.234 E21.29012
G1 X101.863 Y84.035 E21.30004
G1 X102.463 Y83.434 E21.34241
G1 X102.463 Y83.235 E21.35234
G1 X103.063 Y82.634 E21.39471
G1 X103.063 Y82.435 E21.40464
G1 X103.463 Y82.034 E21.43289
G1 X103.463 Y81.835 E21.44282
G1 X104.063 Y81.234 E21.48519
G1 X104.063 Y81.035 E21.49512
G1 X104.663 Y80.434 E21.53749
G1 X104.663 Y80.235 E21.54742
G1 X105.063 Y79.834 E21.57567
G1 X105.063 Y79.635 E21.58560
G1 X105.663 Y79.034 E21.62797
G1 X105.663 Y78.835 E21.63790
G1 X106.263 Y78.234 E21.68027
G1 X106.263 Y78.035 E21.69019
G1 X107.480 Y76.814 E21.77620
G1 X108.963 Y77.427 E21.85626
G1 X108.963 Y93.576 E22.66194
G1 X109.260 Y93.650 E22.67721
G0 F9000 X101.055 Y97.296
G0 X99.070 Y97.942
G0 X98.333 Y98.955
G0 X79.126 Y115.336
G0 X79.063 Y115.413
G1 F1800 X78.863 Y115.213 E22.69132
G1 X78.863 Y115.014 E22.70125
G1 X78.547 Y114.698 E22.72354
G1 X78.319 Y114.584 E22.73626
G1 X77.847 Y114.613 E22.75985
G1 X77.280 Y114.897 E22.79149
G1 X77.163 Y115.014 E22.79975
G1 X77.163 Y115.213 E22.80967
G1 X76.963 Y115.413 E22.82378
G1 X76.963 Y115.433 E22.82478
G1 X77.163 Y115.633 E22.83889
G1 X77.163 Y115.832 E22.84882
G1 X77.680 Y116.349 E22.88530
G1 X77.847 Y116.433 E22.89463
G1 X78.319 Y116.462 E22.91822
G1 X78.863 Y116.191 E22.94854
G1 X78.863 Y115.833 E22.96640
G1 X79.063 Y115.633 E22.98051
G1 X79.063 Y115.413 E22.99149
G0 F9000 X79.126 Y115.336
G0 X78.358 Y114.389
G0 X77.202 Y114.835
G0 X77.314 Y114.948
G1 F1800 X77.314 Y111.563 E23.16037
G0 F9000 X77.314 Y111.723
G0 X76.779 Y115.509
G0 X77.201 Y116.010
G0 X77.314 Y115.899
G1 F1800 X77.314 Y119.441 E23.33708
G0 F9000 X77.365 Y119.291
G0 X74.163 Y114.638
G0 X74.002 Y114.638
G1 F1800 X83.318 Y114.638 E23.80185
G0 F9000 X82.646 Y114.864
G1 F1800 X82.646 Y110.567 E24.01623
G0 F9000 X82.757 Y110.680
G0 X83.617 Y109.420
G0 X83.505 Y109.306
G1 F1800 X109.022 Y109.306 E25.28928
G0 F9000 X108.863 Y109.306
G0 X108.806 Y105.947
G0 X109.255 Y105.893
G0 X109.306 Y106.045
G1 F1800 X109.306 Y93.602 E25.91006
G0 F9000 X109.022 Y93.310
G1 F1800 X85.677 Y93.310 E27.07475
G0 F9000 X85.790 Y93.199
G0 X88.091 Y96.499
G0 X87.978 Y96.611
G1 F1800 X87.978 Y86.761 E27.56617
G0 F9000 X87.928 Y86.911
G0 X91.785 Y88.130
G0 X91.836 Y87.978
G1 F1800 X81.745 Y87.978 E28.06961
G0 F9000 X81.858 Y87.866
G0 X82.847 Y88.936
G0 X82.759 Y89.167
G0 X82.646 Y89.279
G1 F1800 X82.646 Y84.983 E28.28394
G0 F9000 X82.595 Y85.133
G0 X93.260 Y88.621
G0 X93.310 Y88.471
G1 F1800 X93.310 Y111.376 E29.42667
G0 F9000 X93.261 Y111.224
G0 X97.780 Y109.699
G0 X98.755 Y111.363
G0 X98.642 Y111.475
G1 F1800 X98.642 Y101.094 E29.94458
G0 F9000 X98.642 Y100.997
G1 F1800 X98.642 Y99.004 E30.04402
G0 F9000 X98.642 Y98.907
G1 F1800 X98.642 Y88.371 E30.56966
G0 F9000 X99.033 Y87.978
G1 F1800 X109.022 Y87.978 E31.06801
G0 F9000 X108.863 Y87.978
G0 X108.863 Y82.646
G0 X109.022 Y82.646
G1 F1800 X102.965 Y82.646 E31.37020
G0 F9000 X103.077 Y82.760
G0 X104.086 Y81.351
G0 X103.974 Y81.239
G1 F1800 X103.974 Y118.607 E33.23449
G0 F9000 X104.087 Y118.496
G0 X105.050 Y119.859
G0 X104.937 Y119.970
G1 F1800 X109.022 Y119.970 E33.43830
G0 F9000 X108.863 Y119.970
G0 X108.863 Y114.638
G0 X109.022 Y114.638
G1 F1800 X101.005 Y114.638 E33.83827
G0 F9000 X101.118 Y114.526
G0 X97.780 Y109.699
G0 X87.928 Y112.934
G0 X87.978 Y113.086
G1 F1800 X87.978 Y103.235 E34.32973
G0 F9000 X87.402 Y103.974
G1 F1800 X115.710 Y103.974 E35.74203
G0 F9000 X114.638 Y104.283
G1 F1800 X114.638 Y95.334 E36.18849
G0 F9000 X114.600 Y95.488
G0 X119.931 Y97.221
G0 X119.970 Y97.067
G1 F1800 X119.970 Y102.580 E36.46354
G0 F9000 X119.932 Y102.424
G0 X125.253 Y100.694
G0 X125.302 Y100.846
G1 F1800 X125.302 Y98.801 E36.56556
G0 F9000 X124.829 Y98.642
